;FLAVOR:Marlin
;TIME:10587
;Filament used: 5.57421m
;Layer height: 0.1
;MINX:62.95
;MINY:122.967
;MINZ:0.3
;MAXX:156.95
;MAXY:197.967
;MAXZ:14
;TARGET_MACHINE.NAME:Unknown
;Generated with Cura_SteamEngine 5.6.0
M140 S60
M105
M190 S60
M104 S200
M105
M109 S200
M82 ;absolute extrusion mode
G28 ;Home
G1 Z15.0 F6000 ;Move the platform down 15mm
G92 E0
G1 F200 E3
G92 E0
G92 E0
G92 E0
G1 F1500 E-6.5
;LAYER_COUNT:138
;LAYER:0
M107
G0 F3600 X69.395 Y125.078 Z0.3
;TYPE:SKIRT
G1 F1500 E0
G1 F1800 X71.218 Y124.117 E0.09253
G1 X72.795 Y123.546 E0.16784
G1 X75.006 Y123.087 E0.26923
G1 X76.686 Y122.967 E0.34486
G1 X143.91 Y122.999 E3.3633
G1 X145.578 Y123.185 E3.43866
G1 X147.315 Y123.613 E3.51898
G1 X148.959 Y124.25 E3.59815
G1 X150.816 Y125.285 E3.6936
G1 X152.075 Y126.233 E3.76437
G1 X154.01 Y128.232 E3.88929
G1 X154.839 Y129.413 E3.95408
G1 X155.8 Y131.236 E4.04661
G1 X156.371 Y132.812 E4.12188
G1 X156.83 Y135.023 E4.22327
G1 X156.95 Y136.702 E4.29885
G1 X156.921 Y184.892 E6.46264
G1 X156.765 Y186.439 E6.53245
G1 X156.529 Y187.57 E6.58433
G1 X155.531 Y190.274 E6.71375
G1 X154.748 Y191.659 E6.78519
G1 X153.746 Y193.015 E6.86089
G1 X151.689 Y195.027 E6.99009
G1 X150.6 Y195.798 E7.05
G1 X148.63 Y196.839 E7.15005
G1 X147.105 Y197.388 E7.22282
G1 X144.894 Y197.847 E7.32422
G1 X143.214 Y197.967 E7.39984
G1 X76.055 Y197.948 E10.41536
G1 X75 Y197.858 E10.46291
G1 X72.802 Y197.383 E10.56388
G1 X70.628 Y196.546 E10.66848
G1 X69.41 Y195.868 E10.73107
G1 X67.768 Y194.648 E10.82292
G1 X66.104 Y192.958 E10.92941
G1 X64.953 Y191.332 E11.01886
G1 X63.915 Y189.255 E11.12312
G1 X63.51 Y188.063 E11.17965
G1 X63.057 Y185.817 E11.28253
G1 X62.95 Y184.232 E11.35386
G1 X62.969 Y136.106 E13.51477
G1 X63.051 Y135.103 E13.55996
G1 X63.627 Y132.521 E13.67874
G1 X64.356 Y130.691 E13.76719
G1 X65.205 Y129.201 E13.84419
G1 X66.526 Y127.498 E13.94097
G1 X68.084 Y126.013 E14.03761
G1 X69.395 Y125.078 E14.10991
G0 F3600 X69.582 Y125.432
G1 F1800 X71.405 Y124.471 E14.20244
G1 X72.877 Y123.938 E14.27274
G1 X75.035 Y123.486 E14.37174
G1 X76.686 Y123.367 E14.44606
G1 X143.866 Y123.397 E17.46252
G1 X145.534 Y123.583 E17.53788
G1 X147.17 Y123.986 E17.61354
G1 X148.814 Y124.623 E17.6927
G1 X150.575 Y125.605 E17.78324
G1 X151.834 Y126.553 E17.854
G1 X153.683 Y128.463 E17.97336
G1 X154.485 Y129.6 E18.03584
G1 X155.446 Y131.423 E18.12837
G1 X155.979 Y132.894 E18.19862
G1 X156.431 Y135.052 E18.29762
G1 X156.55 Y136.702 E18.3719
G1 X156.523 Y184.852 E20.53389
G1 X156.373 Y186.357 E20.6018
G1 X156.137 Y187.488 E20.65368
G1 X155.182 Y190.078 E20.77763
G1 X154.426 Y191.421 E20.84683
G1 X153.424 Y192.777 E20.92253
G1 X151.457 Y194.701 E21.04608
G1 X150.413 Y195.444 E21.10362
G1 X148.443 Y196.485 E21.20366
G1 X147.023 Y196.996 E21.27143
G1 X144.865 Y197.448 E21.37042
G1 X143.214 Y197.567 E21.44475
G1 X76.089 Y197.549 E24.45874
G1 X75.034 Y197.459 E24.50628
G1 X72.945 Y197.009 E24.60223
G1 X70.823 Y196.196 E24.70427
G1 X69.605 Y195.518 E24.76686
G1 X68.052 Y194.367 E24.85366
G1 X66.43 Y192.726 E24.95726
G1 X65.311 Y191.153 E25.04393
G1 X64.294 Y189.126 E25.14576
G1 X63.889 Y187.934 E25.20229
G1 X63.456 Y185.79 E25.3005
G1 X63.35 Y184.232 E25.37062
G1 X63.368 Y136.139 E27.53005
G1 X63.45 Y135.136 E27.57524
G1 X64.017 Y132.609 E27.69152
G1 X64.704 Y130.889 E27.77469
G1 X65.553 Y129.399 E27.85169
G1 X66.802 Y127.788 E27.94322
G1 X68.36 Y126.303 E28.03986
G1 X69.582 Y125.432 E28.10724
G0 F3600 X69.769 Y125.786
G1 F1800 X71.592 Y124.825 E28.19977
G1 X72.959 Y124.33 E28.26505
G1 X75.117 Y123.878 E28.36405
G1 X76.686 Y123.767 E28.43468
G1 X143.822 Y123.795 E31.44916
G1 X145.49 Y123.981 E31.52452
G1 X147.025 Y124.359 E31.59551
G1 X148.669 Y124.996 E31.67467
G1 X150.334 Y125.925 E31.76028
G1 X151.593 Y126.873 E31.83105
G1 X153.357 Y128.694 E31.94488
G1 X154.131 Y129.787 E32.00502
G1 X155.092 Y131.61 E32.09755
G1 X155.587 Y132.976 E32.16279
G1 X156.039 Y135.134 E32.26179
G1 X156.15 Y136.702 E32.33237
G1 X156.125 Y184.813 E34.49261
G1 X155.981 Y186.275 E34.55857
G1 X155.745 Y187.406 E34.61045
G1 X154.807 Y189.939 E34.73173
G1 X154.104 Y191.183 E34.79589
G1 X153.102 Y192.539 E34.8716
G1 X151.224 Y194.376 E34.98956
G1 X150.226 Y195.09 E35.04466
G1 X148.256 Y196.131 E35.1447
G1 X146.941 Y196.604 E35.20745
G1 X144.783 Y197.056 E35.30645
G1 X143.214 Y197.167 E35.37708
G1 X76.123 Y197.15 E38.38954
G1 X75.068 Y197.06 E38.43708
G1 X73.03 Y196.618 E38.53072
G1 X71.018 Y195.846 E38.62748
G1 X69.8 Y195.168 E38.69007
G1 X68.291 Y194.046 E38.77451
G1 X66.755 Y192.493 E38.87258
G1 X65.668 Y190.973 E38.95649
G1 X64.673 Y188.997 E39.05583
G1 X64.268 Y187.805 E39.11236
G1 X63.855 Y185.763 E39.2059
G1 X63.75 Y184.232 E39.27481
G1 X63.767 Y136.172 E41.43276
G1 X63.849 Y135.169 E41.47794
G1 X64.407 Y132.697 E41.59173
G1 X65.052 Y131.087 E41.66961
G1 X65.901 Y129.597 E41.74661
G1 X67.078 Y128.078 E41.83289
G1 X68.636 Y126.593 E41.92954
G1 X69.769 Y125.786 E41.99199
G0 F3600 X69.956 Y126.14
G1 F1800 X71.779 Y125.179 E42.08453
G1 X73.041 Y124.722 E42.14479
G1 X75.199 Y124.27 E42.24379
G1 X76.686 Y124.167 E42.31072
G1 X143.778 Y124.193 E45.32323
G1 X145.446 Y124.379 E45.39859
G1 X146.88 Y124.732 E45.4649
G1 X148.524 Y125.369 E45.54406
G1 X150.093 Y126.245 E45.62475
G1 X151.352 Y127.193 E45.69552
G1 X153.031 Y128.926 E45.80386
G1 X153.777 Y129.974 E45.86162
G1 X154.738 Y131.797 E45.95415
G1 X155.195 Y133.058 E46.01438
G1 X155.647 Y135.216 E46.11338
G1 X155.75 Y136.702 E46.18026
G1 X155.727 Y184.774 E48.33875
G1 X155.589 Y186.193 E48.40276
G1 X155.353 Y187.324 E48.45464
G1 X154.458 Y189.743 E48.57045
G1 X153.782 Y190.945 E48.63237
G1 X152.78 Y192.301 E48.70808
G1 X150.99 Y194.051 E48.82048
G1 X150.039 Y194.736 E48.87311
G1 X148.069 Y195.777 E48.97315
G1 X146.859 Y196.212 E49.03089
G1 X144.701 Y196.664 E49.12989
G1 X143.214 Y196.767 E49.19681
G1 X76.157 Y196.751 E52.20775
G1 X75.102 Y196.661 E52.2553
G1 X73.115 Y196.227 E52.34662
G1 X71.213 Y195.496 E52.43811
G1 X69.995 Y194.818 E52.5007
G1 X68.53 Y193.725 E52.58277
G1 X67.08 Y192.259 E52.67536
G1 X66.025 Y190.792 E52.75649
G1 X65.052 Y188.868 E52.8533
G1 X64.647 Y187.676 E52.90983
G1 X64.254 Y185.735 E52.99875
G1 X64.15 Y184.232 E53.0664
G1 X64.166 Y136.205 E55.22287
G1 X64.248 Y135.202 E55.26805
G1 X64.779 Y132.845 E55.37654
G1 X65.4 Y131.285 E55.45193
G1 X66.249 Y129.795 E55.52893
G1 X67.354 Y128.368 E55.60997
G1 X68.912 Y126.883 E55.70661
G1 X69.956 Y126.14 E55.76415
G0 F3600 X70.143 Y126.494
G1 F1800 X71.966 Y125.533 E55.85668
G1 X73.123 Y125.114 E55.91193
G1 X75.281 Y124.662 E56.01093
G1 X76.686 Y124.567 E56.07416
G1 X143.734 Y124.591 E59.0847
G1 X145.402 Y124.777 E59.16006
G1 X146.735 Y125.105 E59.22169
G1 X148.379 Y125.742 E59.30086
G1 X149.852 Y126.565 E59.37662
G1 X151.111 Y127.513 E59.44739
G1 X152.706 Y129.159 E59.5503
G1 X153.423 Y130.161 E59.60562
G1 X154.384 Y131.984 E59.69816
G1 X154.803 Y133.14 E59.75337
G1 X155.255 Y135.298 E59.85237
G1 X155.35 Y136.702 E59.91555
G1 X155.329 Y184.736 E62.07233
G1 X155.197 Y186.111 E62.13436
G1 X154.961 Y187.242 E62.18623
G1 X154.109 Y189.548 E62.29662
G1 X153.46 Y190.707 E62.35626
G1 X152.458 Y192.063 E62.43197
G1 X150.756 Y193.726 E62.53881
G1 X149.805 Y194.411 E62.59144
G1 X147.883 Y195.423 E62.68897
G1 X146.777 Y195.82 E62.74173
G1 X144.619 Y196.272 E62.84073
G1 X143.214 Y196.367 E62.90396
G1 X76.191 Y196.352 E65.91337
G1 X75.136 Y196.262 E65.96092
G1 X73.258 Y195.853 E66.04722
G1 X71.408 Y195.146 E66.13614
G1 X70.19 Y194.468 E66.19874
G1 X68.77 Y193.405 E66.27838
G1 X67.405 Y192.025 E66.36554
G1 X66.35 Y190.558 E66.44667
G1 X65.431 Y188.739 E66.53818
G1 X65.026 Y187.547 E66.59471
G1 X64.653 Y185.707 E66.679
G1 X64.55 Y184.232 E66.7454
G1 X64.565 Y136.238 E68.90038
G1 X64.647 Y135.235 E68.94557
G1 X65.151 Y132.993 E69.04875
G1 X65.772 Y131.433 E69.12414
G1 X66.596 Y129.994 E69.1986
G1 X67.63 Y128.657 E69.27449
G1 X69.145 Y127.208 E69.36862
G1 X70.143 Y126.494 E69.42372
G0 F3600 X70.33 Y126.848
G1 F1800 X72.153 Y125.887 E69.51625
G1 X73.205 Y125.506 E69.56649
G1 X75.363 Y125.054 E69.66549
G1 X76.686 Y124.967 E69.72502
G1 X143.69 Y124.989 E72.73358
G1 X145.307 Y125.166 E72.80662
G1 X146.59 Y125.478 E72.86591
G1 X148.234 Y126.115 E72.94507
G1 X149.611 Y126.885 E73.01591
G1 X150.87 Y127.833 E73.08667
G1 X152.381 Y129.393 E73.18419
G1 X153.069 Y130.348 E73.23704
G1 X154.03 Y132.171 E73.32957
G1 X154.411 Y133.222 E73.37977
G1 X154.863 Y135.38 E73.47877
G1 X154.95 Y136.702 E73.53825
G1 X154.931 Y184.698 E75.69333
G1 X154.805 Y186.029 E75.75336
G1 X154.569 Y187.16 E75.80524
G1 X153.76 Y189.353 E75.91019
G1 X153.138 Y190.469 E75.96756
G1 X152.136 Y191.825 E76.04327
G1 X150.522 Y193.401 E76.14456
G1 X149.571 Y194.086 E76.19718
G1 X147.747 Y195.047 E76.28975
G1 X146.695 Y195.428 E76.33999
G1 X144.537 Y195.88 E76.43899
G1 X143.214 Y195.967 E76.49852
G1 X76.225 Y195.953 E79.50641
G1 X75.17 Y195.863 E79.55395
G1 X73.4 Y195.479 E79.63528
G1 X71.603 Y194.796 E79.72159
G1 X70.385 Y194.118 E79.78419
G1 X69.01 Y193.085 E79.86141
G1 X67.73 Y191.791 E79.94313
G1 X66.675 Y190.324 E80.02427
G1 X65.809 Y188.609 E80.11053
G1 X65.418 Y187.467 E80.16473
G1 X65.052 Y185.679 E80.24668
G1 X64.95 Y184.232 E80.31181
G1 X64.964 Y136.271 E82.46532
G1 X65.046 Y135.268 E82.51051
G1 X65.523 Y133.141 E82.60838
G1 X66.144 Y131.581 E82.68377
G1 X66.913 Y130.238 E82.75326
G1 X67.907 Y128.946 E82.82646
G1 X69.379 Y127.533 E82.91808
G1 X70.33 Y126.848 E82.9707
G0 F3600 X70.564 Y127.173
G1 F1800 X72.291 Y126.263 E83.05835
G1 X73.287 Y125.898 E83.10598
G1 X75.445 Y125.446 E83.20498
G1 X76.686 Y125.367 E83.26082
G1 X143.647 Y125.387 E86.26744
G1 X145.212 Y125.555 E86.33812
G1 X146.495 Y125.867 E86.39741
G1 X148.04 Y126.465 E86.47179
G1 X149.37 Y127.205 E86.54013
G1 X150.629 Y128.153 E86.6109
G1 X152.056 Y129.627 E86.70302
G1 X152.744 Y130.582 E86.75586
G1 X153.654 Y132.309 E86.84352
G1 X154.019 Y133.304 E86.8911
G1 X154.471 Y135.462 E86.9901
G1 X154.55 Y136.702 E87.04589
G1 X154.533 Y184.661 E89.19931
G1 X154.413 Y185.947 E89.2573
G1 X154.177 Y187.078 E89.30918
G1 X153.41 Y189.159 E89.40876
G1 X152.816 Y190.231 E89.46379
G1 X151.814 Y191.587 E89.5395
G1 X150.288 Y193.076 E89.63523
G1 X149.337 Y193.761 E89.68786
G1 X147.609 Y194.671 E89.77555
G1 X146.613 Y195.036 E89.82318
G1 X144.455 Y195.488 E89.92218
G1 X143.214 Y195.567 E89.97801
G1 X76.259 Y195.554 E92.98437
G1 X75.204 Y195.464 E93.03191
G1 X73.541 Y195.105 E93.1083
G1 X71.798 Y194.446 E93.19197
G1 X70.58 Y193.768 E93.25457
G1 X69.294 Y192.803 E93.32676
G1 X68.055 Y191.557 E93.40566
G1 X67 Y190.09 E93.48679
G1 X66.187 Y188.478 E93.56786
G1 X65.81 Y187.386 E93.61973
G1 X65.451 Y185.651 E93.69928
G1 X65.35 Y184.232 E93.76316
G1 X65.363 Y136.304 E95.91518
G1 X65.445 Y135.301 E95.96037
G1 X65.895 Y133.289 E96.05294
G1 X66.516 Y131.729 E96.12833
G1 X67.231 Y130.481 E96.19292
G1 X68.185 Y129.234 E96.26341
G1 X69.613 Y127.858 E96.35246
G1 X70.564 Y127.173 E96.40508
G0 F3600 X70.798 Y127.498
G1 F1800 X72.429 Y126.639 E96.48785
G1 X73.425 Y126.274 E96.53548
G1 X75.471 Y125.845 E96.62935
G1 X76.686 Y125.767 E96.68401
G1 X143.605 Y125.785 E99.68876
G1 X145.117 Y125.944 E99.75702
G1 X146.4 Y126.256 E99.81631
G1 X147.846 Y126.815 E99.88592
G1 X149.129 Y127.525 E99.95176
G1 X150.388 Y128.473 E100.02252
G1 X151.731 Y129.861 E100.10924
G1 X152.419 Y130.816 E100.16209
G1 X153.278 Y132.447 E100.24486
G1 X153.643 Y133.442 E100.29245
G1 X154.072 Y135.488 E100.38632
G1 X154.15 Y136.702 E100.44094
G1 X154.135 Y184.624 E102.59269
G1 X154.021 Y185.865 E102.64865
G1 X153.785 Y186.996 E102.70053
G1 X153.06 Y188.966 E102.79478
G1 X152.494 Y189.993 E102.84744
G1 X151.492 Y191.349 E102.92314
G1 X150.054 Y192.751 E103.01332
G1 X149.103 Y193.436 E103.06594
G1 X147.471 Y194.295 E103.14875
G1 X146.475 Y194.66 E103.19638
G1 X144.429 Y195.089 E103.29025
G1 X143.214 Y195.167 E103.34492
G1 X76.293 Y195.155 E106.34975
G1 X75.238 Y195.065 E106.39729
G1 X73.682 Y194.731 E106.46875
G1 X71.993 Y194.096 E106.54977
G1 X70.775 Y193.418 E106.61236
G1 X69.578 Y192.521 E106.67952
G1 X68.339 Y191.275 E106.75842
G1 X67.357 Y189.909 E106.83396
G1 X66.565 Y188.347 E106.9126
G1 X66.202 Y187.304 E106.96219
G1 X65.85 Y185.622 E107.03934
G1 X65.75 Y184.232 E107.10192
G1 X65.762 Y136.335 E109.25255
G1 X65.836 Y135.387 E109.29525
G1 X66.267 Y133.437 E109.38492
G1 X66.888 Y131.877 E109.46031
G1 X67.549 Y130.724 E109.51998
G1 X68.503 Y129.477 E109.59048
G1 X69.847 Y128.183 E109.67425
G1 X70.798 Y127.498 E109.72688
G0 F3600 X71.032 Y127.823
G1 F1800 X72.567 Y127.015 E109.80477
G1 X73.563 Y126.65 E109.8524
G1 X75.497 Y126.244 E109.94113
G1 X76.686 Y126.167 E109.99463
G1 X143.564 Y126.183 E112.99753
G1 X145.022 Y126.333 E113.06334
G1 X146.305 Y126.645 E113.12263
G1 X147.653 Y127.165 E113.1875
G1 X148.888 Y127.845 E113.25081
G1 X150.147 Y128.793 E113.32157
G1 X151.406 Y130.095 E113.40289
G1 X152.094 Y131.05 E113.45574
G1 X152.902 Y132.585 E113.53363
G1 X153.267 Y133.58 E113.58122
G1 X153.673 Y135.514 E113.66995
G1 X153.75 Y136.702 E113.72341
G1 X153.737 Y184.588 E115.87354
G1 X153.629 Y185.783 E115.92742
G1 X153.393 Y186.914 E115.9793
G1 X152.709 Y188.774 E116.06828
G1 X152.172 Y189.755 E116.1185
G1 X151.17 Y191.111 E116.1942
G1 X149.82 Y192.426 E116.27882
G1 X148.869 Y193.111 E116.33145
G1 X147.333 Y193.919 E116.40938
G1 X146.337 Y194.284 E116.45701
G1 X144.403 Y194.69 E116.54574
G1 X143.214 Y194.767 E116.59924
G1 X76.327 Y194.756 E119.60254
G1 X75.272 Y194.666 E119.65009
G1 X73.767 Y194.34 E119.71923
G1 X72.187 Y193.746 E119.79502
G1 X71.014 Y193.097 E119.85521
G1 X69.862 Y192.239 E119.91971
G1 X68.623 Y190.993 E119.99861
G1 X67.713 Y189.727 E120.06862
G1 X66.942 Y188.215 E120.14482
G1 X66.594 Y187.222 E120.19207
G1 X66.242 Y185.54 E120.26923
G1 X66.15 Y184.232 E120.3281
G1 X66.161 Y136.366 E122.47734
G1 X66.235 Y135.418 E122.52004
G1 X66.657 Y133.524 E122.60717
G1 X67.236 Y132.075 E122.67723
G1 X67.867 Y130.967 E122.73448
G1 X68.821 Y129.72 E122.80498
G1 X70.081 Y128.508 E122.88348
G1 X71.032 Y127.823 E122.93611
G0 F3600 X71.266 Y128.148
G1 F1800 X72.705 Y127.391 E123.00912
G1 X73.701 Y127.026 E123.05675
G1 X75.523 Y126.643 E123.14034
G1 X76.686 Y126.567 E123.19268
G1 X143.524 Y126.581 E126.19378
G1 X144.928 Y126.722 E126.25714
G1 X146.162 Y127.019 E126.31413
G1 X147.461 Y127.516 E126.37658
G1 X148.647 Y128.165 E126.43728
G1 X149.906 Y129.113 E126.50805
G1 X151.081 Y130.329 E126.58397
G1 X151.769 Y131.284 E126.63682
G1 X152.526 Y132.723 E126.70983
G1 X152.891 Y133.718 E126.75742
G1 X153.274 Y135.54 E126.84102
G1 X153.35 Y136.702 E126.8933
G1 X153.339 Y184.553 E129.04187
G1 X153.237 Y185.701 E129.09362
G1 X153.001 Y186.832 E129.1455
G1 X152.357 Y188.583 E129.22927
G1 X151.85 Y189.517 E129.27699
G1 X150.848 Y190.873 E129.35269
G1 X149.586 Y192.101 E129.43176
G1 X148.635 Y192.786 E129.48438
G1 X147.195 Y193.543 E129.55743
G1 X146.199 Y193.908 E129.60506
G1 X144.377 Y194.291 E129.68866
G1 X143.214 Y194.367 E129.74099
G1 X76.361 Y194.357 E132.74277
G1 X75.306 Y194.267 E132.79031
G1 X73.907 Y193.965 E132.85457
G1 X72.38 Y193.395 E132.92776
G1 X71.252 Y192.775 E132.98555
G1 X70.146 Y191.957 E133.04732
G1 X68.907 Y190.711 E133.12622
G1 X68.069 Y189.545 E133.19069
G1 X67.319 Y188.082 E133.26451
G1 X66.986 Y187.14 E133.30937
G1 X66.634 Y185.458 E133.38653
G1 X66.55 Y184.232 E133.44171
G1 X66.56 Y136.397 E135.58956
G1 X66.634 Y135.449 E135.63226
G1 X67.047 Y133.612 E135.7168
G1 X67.584 Y132.273 E135.78158
G1 X68.215 Y131.165 E135.83883
G1 X69.138 Y129.964 E135.90684
G1 X70.315 Y128.833 E135.98013
G1 X71.266 Y128.148 E136.03276
G0 F3600 X71.5 Y128.473
G1 F1800 X72.843 Y127.767 E136.10089
G1 X73.839 Y127.402 E136.14852
G1 X75.549 Y127.042 E136.22698
G1 X76.686 Y126.967 E136.27814
G1 X143.485 Y126.979 E139.2775
G1 X144.835 Y127.111 E139.3384
G1 X146.02 Y127.393 E139.3931
G1 X147.27 Y127.867 E139.45312
G1 X148.406 Y128.485 E139.51119
G1 X149.665 Y129.433 E139.58195
G1 X150.756 Y130.563 E139.65248
G1 X151.444 Y131.518 E139.70533
G1 X152.15 Y132.861 E139.77346
G1 X152.515 Y133.856 E139.82105
G1 X152.875 Y135.566 E139.89951
G1 X152.95 Y136.702 E139.95063
G1 X152.941 Y184.518 E142.09762
G1 X152.845 Y185.619 E142.14725
G1 X152.609 Y186.75 E142.19912
