;FLAVOR:Marlin
;TIME:7883
;Filament used: 3.69472m
;Layer height: 0.1
;MINX:12.325
;MINY:39.764
;MINZ:0.2
;MAXX:100.23
;MAXY:127.695
;MAXZ:15
;Generated with Cura_SteamEngine 4.4.1
M140 S60
M105
M190 S60
M104 S220
M105
M109 S220
M82 ;absolute extrusion mode
G28 ;Home
G1 Z15.0 F6000 ;Move the platform down 15mm
;Prime the extruder
G92 E0
G1 F200 E3
G92 E0
G92 E0
G92 E0
G1 F1500 E-6.5
;LAYER_COUNT:149
;LAYER:0
M107
G0 F2400 X30.925 Y48.308 Z0.2
;TYPE:SKIRT
G1 F1500 E0
G1 F1200 X34.083 Y46.249 E0.11316
G1 X34.794 Y45.837 E0.13783
G1 X38.141 Y44.127 E0.25065
G1 X38.887 Y43.794 E0.27517
G1 X42.338 Y42.465 E0.38618
G1 X43.11 Y42.213 E0.41056
G1 X46.717 Y41.24 E0.5227
G1 X47.513 Y41.069 E0.54714
G1 X51.222 Y40.474 E0.65989
G1 X52.037 Y40.387 E0.6845
G1 X55.804 Y40.184 E0.79774
G1 X56.626 Y40.183 E0.82241
G1 X60.385 Y40.377 E0.9354
G1 X61.203 Y40.463 E0.96009
G1 X64.828 Y41.037 E1.07025
G1 X65.606 Y41.201 E1.09412
G1 X69.232 Y42.162 E1.20672
G1 X70.015 Y42.415 E1.23142
G1 X73.539 Y43.76 E1.34464
G1 X74.289 Y44.092 E1.36926
G1 X77.641 Y45.794 E1.48211
G1 X78.356 Y46.206 E1.50688
G1 X81.521 Y48.26 E1.62014
G1 X82.185 Y48.743 E1.64478
G1 X85.025 Y51.044 E1.7545
G1 X85.614 Y51.572 E1.77825
G1 X88.289 Y54.231 E1.89146
G1 X88.844 Y54.845 E1.91631
G1 X91.213 Y57.761 E2.02908
G1 X91.696 Y58.424 E2.05371
G1 X93.753 Y61.584 E2.16689
G1 X94.165 Y62.295 E2.19155
G1 X95.827 Y65.554 E2.30137
G1 X96.154 Y66.286 E2.32543
G1 X97.514 Y69.805 E2.43868
G1 X97.767 Y70.58 E2.46315
G1 X98.746 Y74.198 E2.57566
G1 X98.919 Y75.005 E2.60043
G1 X99.515 Y78.736 E2.71384
G1 X99.602 Y79.551 E2.73845
G1 X99.797 Y83.209 E2.84841
G1 X99.798 Y84.01 E2.87245
G1 X99.611 Y87.788 E2.98599
G1 X99.527 Y88.61 E3.0108
G1 X98.946 Y92.316 E3.1234
G1 X98.778 Y93.112 E3.14782
G1 X97.816 Y96.73 E3.2602
G1 X97.563 Y97.514 E3.28493
G1 X96.211 Y101.047 E3.39848
G1 X95.878 Y101.796 E3.42308
G1 X94.211 Y105.073 E3.53344
G1 X93.808 Y105.773 E3.55769
G1 X91.776 Y108.914 E3.66998
G1 X91.3 Y109.572 E3.69436
G1 X88.932 Y112.51 E3.80763
G1 X88.387 Y113.118 E3.83214
G1 X85.731 Y115.786 E3.94514
G1 X85.115 Y116.342 E3.97005
G1 X82.196 Y118.708 E4.08284
G1 X81.534 Y119.19 E4.10742
G1 X78.459 Y121.188 E4.2175
G1 X77.769 Y121.587 E4.24142
G1 X74.426 Y123.302 E4.35421
G1 X73.675 Y123.639 E4.37892
G1 X70.152 Y124.999 E4.49227
G1 X69.371 Y125.254 E4.51693
G1 X65.747 Y126.23 E4.62959
G1 X64.945 Y126.401 E4.65421
G1 X61.218 Y126.994 E4.76749
G1 X60.399 Y127.08 E4.79221
G1 X56.745 Y127.271 E4.90204
G1 X55.95 Y127.272 E4.9259
G1 X52.193 Y127.085 E5.03882
G1 X51.376 Y127.001 E5.06347
G1 X47.648 Y126.418 E5.17674
G1 X46.841 Y126.248 E5.20149
G1 X43.212 Y125.279 E5.31424
G1 X42.432 Y125.026 E5.33886
G1 X38.996 Y123.709 E5.44931
G1 X38.261 Y123.383 E5.47345
G1 X34.922 Y121.69 E5.58582
G1 X34.215 Y121.284 E5.6103
G1 X31.051 Y119.239 E5.72338
G1 X30.388 Y118.759 E5.74795
G1 X27.445 Y116.385 E5.86145
G1 X26.83 Y115.833 E5.88626
G1 X24.177 Y113.183 E5.99881
G1 X23.626 Y112.571 E6.02353
G1 X21.318 Y109.719 E6.13366
G1 X20.852 Y109.08 E6.1574
G1 X18.796 Y105.935 E6.27019
G1 X18.382 Y105.221 E6.29497
G1 X16.666 Y101.869 E6.408
G1 X16.331 Y101.119 E6.43266
G1 X14.974 Y97.597 E6.54596
G1 X14.719 Y96.816 E6.57062
G1 X13.746 Y93.192 E6.68325
G1 X13.575 Y92.389 E6.7079
G1 X13.001 Y88.764 E6.81806
G1 X12.917 Y87.969 E6.84206
G1 X12.712 Y84.212 E6.955
G1 X12.71 Y83.393 E6.97959
G1 X12.9 Y79.636 E7.09251
G1 X12.985 Y78.817 E7.11722
G1 X13.572 Y75.088 E7.23054
G1 X13.743 Y74.281 E7.2553
G1 X14.689 Y70.752 E7.36497
G1 X14.933 Y69.997 E7.38879
G1 X16.274 Y66.474 E7.50194
G1 X16.606 Y65.723 E7.52659
G1 X18.301 Y62.378 E7.63915
G1 X18.712 Y61.665 E7.66385
G1 X20.767 Y58.491 E7.77735
G1 X21.25 Y57.824 E7.80207
G1 X23.619 Y54.896 E7.91513
G1 X24.168 Y54.287 E7.93974
G1 X26.75 Y51.705 E8.04935
G1 X27.34 Y51.172 E8.07322
G1 X30.26 Y48.794 E8.18625
G1 X30.925 Y48.308 E8.21098
G0 F2400 X31.143 Y48.643
G1 F1200 X34.301 Y46.584 E8.32414
G1 X34.976 Y46.193 E8.34756
G1 X38.323 Y44.483 E8.46038
G1 X39.031 Y44.167 E8.48365
G1 X42.482 Y42.838 E8.59466
G1 X43.214 Y42.599 E8.61777
G1 X46.821 Y41.626 E8.72991
G1 X47.576 Y41.464 E8.75309
G1 X51.285 Y40.869 E8.86585
G1 X52.059 Y40.787 E8.88921
G1 X55.826 Y40.584 E9.00245
G1 X56.605 Y40.583 E9.02584
G1 X60.364 Y40.777 E9.13882
G1 X61.14 Y40.858 E9.16224
G1 X64.765 Y41.432 E9.27241
G1 X65.504 Y41.588 E9.29508
G1 X69.13 Y42.549 E9.40768
G1 X69.873 Y42.788 E9.43111
G1 X73.397 Y44.133 E9.54433
G1 X74.108 Y44.449 E9.56769
G1 X77.46 Y46.151 E9.68053
G1 X78.138 Y46.542 E9.70403
G1 X81.303 Y48.596 E9.81728
G1 X81.933 Y49.053 E9.84065
G1 X84.773 Y51.354 E9.95037
G1 X85.332 Y51.856 E9.97292
G1 X88.007 Y54.515 E10.08613
G1 X88.533 Y55.097 E10.10968
G1 X90.902 Y58.013 E10.22246
G1 X91.361 Y58.642 E10.24583
G1 X93.418 Y61.802 E10.35901
G1 X93.808 Y62.477 E10.38241
G1 X95.47 Y65.736 E10.49223
G1 X95.78 Y66.43 E10.51504
G1 X97.14 Y69.949 E10.62829
G1 X97.381 Y70.684 E10.6515
G1 X98.36 Y74.302 E10.76401
G1 X98.524 Y75.068 E10.78753
G1 X99.12 Y78.799 E10.90094
G1 X99.203 Y79.572 E10.92428
G1 X99.398 Y83.23 E11.03424
G1 X99.399 Y83.99 E11.05705
G1 X99.212 Y87.768 E11.17059
G1 X99.132 Y88.548 E11.19413
G1 X98.551 Y92.254 E11.30673
G1 X98.392 Y93.01 E11.32992
G1 X97.43 Y96.628 E11.4423
G1 X97.189 Y97.371 E11.46575
G1 X95.837 Y100.904 E11.5793
G1 X95.522 Y101.614 E11.60261
G1 X93.855 Y104.891 E11.71298
G1 X93.472 Y105.555 E11.73598
G1 X91.44 Y108.696 E11.84828
G1 X90.989 Y109.321 E11.87141
G1 X88.621 Y112.259 E11.98468
G1 X88.103 Y112.836 E12.00796
G1 X85.447 Y115.504 E12.12096
G1 X84.863 Y116.032 E12.1446
G1 X81.944 Y118.398 E12.25739
G1 X81.316 Y118.854 E12.28068
G1 X78.241 Y120.852 E12.39076
G1 X77.587 Y121.231 E12.41345
G1 X74.244 Y122.946 E12.52623
G1 X73.531 Y123.265 E12.54968
G1 X70.008 Y124.625 E12.66303
G1 X69.267 Y124.867 E12.68643
G1 X65.643 Y125.843 E12.79909
G1 X64.882 Y126.006 E12.82245
G1 X61.155 Y126.599 E12.93573
G1 X60.378 Y126.681 E12.95919
G1 X56.724 Y126.872 E13.06902
G1 X55.97 Y126.873 E13.09165
G1 X52.213 Y126.686 E13.20457
G1 X51.438 Y126.606 E13.22795
G1 X47.71 Y126.023 E13.34122
G1 X46.944 Y125.862 E13.36471
G1 X43.315 Y124.893 E13.47746
G1 X42.576 Y124.653 E13.50079
G1 X39.14 Y123.336 E13.61124
G1 X38.442 Y123.026 E13.63417
G1 X35.103 Y121.333 E13.74654
G1 X34.432 Y120.948 E13.76976
G1 X31.268 Y118.903 E13.88285
G1 X30.639 Y118.448 E13.90615
G1 X27.696 Y116.074 E14.01965
G1 X27.112 Y115.55 E14.04321
G1 X24.459 Y112.9 E14.15576
G1 X23.937 Y112.319 E14.17921
G1 X21.629 Y109.467 E14.28934
G1 X21.187 Y108.861 E14.31185
G1 X19.131 Y105.716 E14.42464
G1 X18.738 Y105.039 E14.44814
G1 X17.022 Y101.687 E14.56117
G1 X16.704 Y100.976 E14.58455
G1 X15.347 Y97.454 E14.69785
G1 X15.105 Y96.712 E14.72128
G1 X14.132 Y93.088 E14.83391
G1 X13.97 Y92.326 E14.8573
G1 X13.396 Y88.701 E14.96747
G1 X13.316 Y87.947 E14.99023
G1 X13.111 Y84.19 E15.10317
G1 X13.109 Y83.413 E15.12649
G1 X13.299 Y79.656 E15.23941
G1 X13.38 Y78.879 E15.26286
G1 X13.967 Y75.15 E15.37617
G1 X14.129 Y74.385 E15.39965
G1 X15.075 Y70.856 E15.50932
G1 X15.307 Y70.14 E15.53191
G1 X16.648 Y66.617 E15.64506
G1 X16.963 Y65.904 E15.66846
G1 X18.658 Y62.559 E15.78102
G1 X19.047 Y61.882 E15.80446
G1 X21.102 Y58.708 E15.91796
G1 X21.561 Y58.075 E15.94143
G1 X23.93 Y55.147 E16.05449
G1 X24.45 Y54.569 E16.07783
G1 X27.032 Y51.987 E16.18743
G1 X27.592 Y51.482 E16.21007
G1 X30.512 Y49.104 E16.32311
G1 X31.143 Y48.643 E16.34657
G0 F2400 X31.362 Y48.978
G1 F1200 X34.52 Y46.919 E16.45973
G1 X35.158 Y46.549 E16.48187
G1 X38.505 Y44.839 E16.59469
G1 X39.174 Y44.541 E16.61667
G1 X42.625 Y43.212 E16.72768
G1 X43.318 Y42.986 E16.74956
G1 X46.925 Y42.013 E16.8617
G1 X47.639 Y41.859 E16.88363
G1 X51.348 Y41.264 E16.99638
G1 X52.08 Y41.186 E17.01848
G1 X55.847 Y40.983 E17.13172
G1 X56.585 Y40.982 E17.15387
G1 X60.344 Y41.176 E17.26686
G1 X61.078 Y41.253 E17.28901
G1 X64.703 Y41.827 E17.39918
G1 X65.401 Y41.975 E17.4206
G1 X69.027 Y42.936 E17.5332
G1 X69.73 Y43.162 E17.55536
G1 X73.254 Y44.507 E17.66859
G1 X73.927 Y44.805 E17.69068
G1 X77.279 Y46.507 E17.80353
G1 X77.921 Y46.877 E17.82577
G1 X81.086 Y48.931 E17.93903
G1 X81.682 Y49.364 E17.96114
G1 X84.522 Y51.665 E18.07086
G1 X85.05 Y52.139 E18.09216
G1 X87.725 Y54.798 E18.20537
G1 X88.223 Y55.349 E18.22767
G1 X90.592 Y58.265 E18.34044
G1 X91.026 Y58.86 E18.36255
G1 X93.083 Y62.02 E18.47573
G1 X93.452 Y62.659 E18.49788
G1 X95.114 Y65.918 E18.60769
G1 X95.407 Y66.575 E18.62929
G1 X96.767 Y70.094 E18.74253
G1 X96.995 Y70.789 E18.76449
G1 X97.974 Y74.407 E18.87699
G1 X98.129 Y75.131 E18.89922
G1 X98.725 Y78.862 E19.01263
G1 X98.803 Y79.593 E19.0347
G1 X98.998 Y83.251 E19.14466
G1 X98.999 Y83.97 E19.16624
G1 X98.812 Y87.748 E19.27979
G1 X98.737 Y88.486 E19.30205
G1 X98.156 Y92.192 E19.41466
G1 X98.005 Y92.907 E19.43659
G1 X97.043 Y96.525 E19.54897
G1 X96.816 Y97.228 E19.57114
G1 X95.464 Y100.761 E19.68469
G1 X95.165 Y101.433 E19.70677
G1 X93.498 Y104.71 E19.81713
G1 X93.136 Y105.338 E19.83889
G1 X91.104 Y108.479 E19.95119
G1 X90.677 Y109.07 E19.97307
G1 X88.309 Y112.008 E20.08634
G1 X87.82 Y112.554 E20.10834
G1 X85.164 Y115.222 E20.22135
G1 X84.611 Y115.721 E20.24371
G1 X81.692 Y118.087 E20.3565
G1 X81.098 Y118.519 E20.37854
G1 X78.023 Y120.517 E20.48862
G1 X77.404 Y120.875 E20.51008
G1 X74.061 Y122.59 E20.62287
G1 X73.387 Y122.892 E20.64504
G1 X69.864 Y124.252 E20.75839
G1 X69.163 Y124.481 E20.78053
G1 X65.539 Y125.457 E20.89319
G1 X64.819 Y125.611 E20.91529
G1 X61.092 Y126.204 E21.02857
G1 X60.357 Y126.281 E21.05075
G1 X56.703 Y126.472 E21.16059
G1 X55.99 Y126.473 E21.18199
G1 X52.233 Y126.286 E21.2949
G1 X51.499 Y126.211 E21.31705
G1 X47.771 Y125.628 E21.43032
G1 X47.047 Y125.475 E21.45253
G1 X43.418 Y124.506 E21.56528
G1 X42.719 Y124.279 E21.58734
G1 X39.283 Y122.962 E21.69779
G1 X38.622 Y122.669 E21.7195
G1 X35.283 Y120.976 E21.83187
G1 X34.649 Y120.612 E21.85382
G1 X31.485 Y118.567 E21.9669
G1 X30.89 Y118.136 E21.98896
G1 X27.947 Y115.762 E22.10246
G1 X27.395 Y115.267 E22.12471
G1 X24.742 Y112.617 E22.23727
G1 X24.248 Y112.068 E22.25944
G1 X21.94 Y109.216 E22.36957
G1 X21.522 Y108.642 E22.39088
G1 X19.466 Y105.497 E22.50367
G1 X19.094 Y104.857 E22.52589
G1 X17.378 Y101.505 E22.63893
G1 X17.077 Y100.832 E22.66106
G1 X15.72 Y97.31 E22.77435
G1 X15.491 Y96.608 E22.79652
G1 X14.518 Y92.984 E22.90916
G1 X14.365 Y92.264 E22.93125
G1 X13.791 Y88.639 E23.04142
G1 X13.715 Y87.925 E23.06297
G1 X13.51 Y84.168 E23.17591
G1 X13.509 Y83.433 E23.19798
G1 X13.699 Y79.676 E23.3109
G1 X13.775 Y78.941 E23.33308
G1 X14.362 Y75.212 E23.44639
G1 X14.516 Y74.489 E23.46858
G1 X15.462 Y70.96 E23.57825
G1 X15.681 Y70.282 E23.59964
G1 X17.022 Y66.759 E23.71279
G1 X17.32 Y66.085 E23.73491
G1 X19.015 Y62.74 E23.84747
G1 X19.383 Y62.1 E23.86963
G1 X21.438 Y58.926 E23.98313
G1 X21.872 Y58.327 E24.00534
G1 X24.241 Y55.399 E24.11839
G1 X24.733 Y54.852 E24.14048
G1 X27.315 Y52.27 E24.25009
G1 X27.845 Y51.792 E24.27151
G1 X30.765 Y49.414 E24.38455
G1 X31.362 Y48.978 E24.40674
G0 F2400 X31.58 Y49.313
G1 F1200 X34.738 Y47.254 E24.5199
G1 X35.34 Y46.906 E24.54077
G1 X38.687 Y45.196 E24.6536
G1 X39.318 Y44.914 E24.67434
G1 X42.769 Y43.585 E24.78535
G1 X43.422 Y43.372 E24.80597
G1 X47.029 Y42.399 E24.91811
G1 X47.703 Y42.254 E24.9388
G1 X51.412 Y41.659 E25.05156
G1 X52.102 Y41.586 E25.07239
G1 X55.869 Y41.383 E25.18563
G1 X56.564 Y41.382 E25.20649
G1 X60.323 Y41.576 E25.31947
G1 X61.015 Y41.648 E25.34036
G1 X64.64 Y42.222 E25.45053
G1 X65.299 Y42.361 E25.47074
G1 X68.925 Y43.322 E25.58334
G1 X69.587 Y43.536 E25.60423
G1 X73.111 Y44.881 E25.71745
G1 X73.746 Y45.162 E25.73829
G1 X77.098 Y46.864 E25.85114
G1 X77.703 Y47.213 E25.87211
G1 X80.868 Y49.267 E25.98536
G1 X81.43 Y49.675 E26.00621
G1 X84.27 Y51.976 E26.11593
G1 X84.768 Y52.423 E26.13601
G1 X87.443 Y55.082 E26.24923
G1 X87.913 Y55.601 E26.27025
G1 X90.282 Y58.517 E26.38302
G1 X90.69 Y59.078 E26.40385
G1 X92.747 Y62.238 E26.51703
G1 X93.096 Y62.841 E26.53794
G1 X94.758 Y66.1 E26.64775
G1 X95.034 Y66.719 E26.6681
G1 X96.394 Y70.238 E26.78134
G1 X96.609 Y70.893 E26.80204
G1 X97.588 Y74.511 E26.91454
G1 X97.734 Y75.194 E26.93551
G1 X98.33 Y78.925 E27.04892
G1 X98.404 Y79.615 E27.06975
G1 X98.599 Y83.273 E27.17971
G1 X98.6 Y83.95 E27.20004
G1 X98.413 Y87.728 E27.31358
G1 X98.341 Y88.424 E27.33458
G1 X97.76 Y92.13 E27.44719
G1 X97.618 Y92.804 E27.46786
G1 X96.656 Y96.422 E27.58024
G1 X96.442 Y97.085 E27.60115
G1 X95.09 Y100.618 E27.7147
G1 X94.809 Y101.251 E27.73549
G1 X93.142 Y104.528 E27.84585
G1 X92.8 Y105.121 E27.8664
G1 X90.768 Y108.262 E27.97869
G1 X90.366 Y108.819 E27.99931
G1 X87.998 Y111.757 E28.11258
G1 X87.536 Y112.271 E28.13333
G1 X84.88 Y114.939 E28.24633
G1 X84.359 Y115.41 E28.26742
G1 X81.44 Y117.776 E28.3802
G1 X80.88 Y118.183 E28.40099
G1 X77.805 Y120.181 E28.51106
G1 X77.222 Y120.519 E28.53129
G1 X73.879 Y122.234 E28.64407
G1 X73.243 Y122.519 E28.66499
G1 X69.72 Y123.879 E28.77835
G1 X69.059 Y124.095 E28.79922
G1 X65.435 Y125.071 E28.91188
G1 X64.756 Y125.216 E28.93272
G1 X61.029 Y125.809 E29.046
G1 X60.337 Y125.882 E29.06689
G1 X56.683 Y126.073 E29.17672
G1 X56.01 Y126.074 E29.19693
G1 X52.253 Y125.887 E29.30984
G1 X51.561 Y125.816 E29.33072
G1 X47.833 Y125.233 E29.44399
G1 X47.15 Y125.089 E29.46494
G1 X43.521 Y124.12 E29.57769
G1 X42.862 Y123.906 E29.59849
G1 X39.426 Y122.589 E29.70894
G1 X38.803 Y122.313 E29.7294
G1 X35.464 Y120.62 E29.84177
G1 X34.866 Y120.276 E29.86248
G1 X31.702 Y118.231 E29.97557
G1 X31.141 Y117.825 E29.99635
G1 X28.198 Y115.451 E30.10985
G1 X27.678 Y114.984 E30.13083
G1 X25.025 Y112.334 E30.24339
G1 X24.559 Y111.816 E30.26431
G1 X22.251 Y108.964 E30.37444
G1 X21.857 Y108.423 E30.39453
G1 X19.801 Y105.278 E30.50731
G1 X19.45 Y104.675 E30.52826
G1 X17.734 Y101.323 E30.64129
G1 X17.45 Y100.688 E30.66217
G1 X16.093 Y97.166 E30.77547
G1 X15.878 Y96.504 E30.79636
G1 X14.905 Y92.88 E30.909
G1 X14.76 Y92.201 E30.92984
G1 X14.186 Y88.576 E31.04001
G1 X14.115 Y87.904 E31.06029
G1 X13.91 Y84.147 E31.17323
G1 X13.908 Y83.454 E31.19404
G1 X14.098 Y79.697 E31.30695
G1 X14.17 Y79.004 E31.32787
G1 X14.757 Y75.275 E31.44118
G1 X14.902 Y74.592 E31.46214
G1 X15.848 Y71.063 E31.57181
G1 X16.055 Y70.424 E31.59197
G1 X17.396 Y66.901 E31.70513
G1 X17.677 Y66.266 E31.72597
G1 X19.372 Y62.921 E31.83853
G1 X19.719 Y62.317 E31.85944
G1 X21.774 Y59.143 E31.97294
G1 X22.183 Y58.579 E31.99386
G1 X24.552 Y55.651 E32.10691
G1 X25.016 Y55.135 E32.12774
G1 X27.598 Y52.553 E32.23735
G1 X28.097 Y52.102 E32.25754
G1 X31.017 Y49.724 E32.37058
G1 X31.58 Y49.313 E32.3915
G0 F2400 X31.799 Y49.648
G1 F1200 X34.957 Y47.589 E32.50467
G1 X35.522 Y47.262 E32.52426
G1 X38.869 Y45.552 E32.63708
G1 X39.462 Y45.287 E32.65658
G1 X42.913 Y43.958 E32.76758
G1 X43.526 Y43.758 E32.78694
G1 X47.133 Y42.785 E32.89908
G1 X47.766 Y42.649 E32.91852
G1 X51.475 Y42.054 E33.03127
G1 X52.123 Y41.985 E33.05084
G1 X55.89 Y41.782 E33.16407
G1 X56.544 Y41.781 E33.18371
G1 X60.303 Y41.975 E33.29669
G1 X60.953 Y42.043 E33.31631
G1 X64.578 Y42.617 E33.42648
G1 X65.196 Y42.748 E33.44544
G1 X68.822 Y43.709 E33.55804
G1 X69.445 Y43.91 E33.57769
G1 X72.969 Y45.255 E33.69091
G1 X73.565 Y45.519 E33.71048
G1 X76.917 Y47.221 E33.82333
G1 X77.485 Y47.548 E33.843
G1 X80.65 Y49.602 E33.95626
G1 X81.178 Y49.986 E33.97585
G1 X84.018 Y52.287 E34.08557
G1 X84.486 Y52.707 E34.10445
G1 X87.161 Y55.366 E34.21766
G1 X87.602 Y55.854 E34.23741
G1 X89.971 Y58.77 E34.35018
G1 X90.355 Y59.297 E34.36976
G1 X92.412 Y62.457 E34.48294
G1 X92.739 Y63.022 E34.50253
G1 X94.401 Y66.281 E34.61235
G1 X94.661 Y66.863 E34.63148
G1 X96.021 Y70.382 E34.74473
G1 X96.223 Y70.998 E34.76418
G1 X97.202 Y74.616 E34.87669
G1 X97.339 Y75.257 E34.89637
G1 X97.935 Y78.988 E35.00978
G1 X98.004 Y79.636 E35.02934
G1 X98.199 Y83.294 E35.1393
G1 X98.2 Y83.931 E35.15842
G1 X98.013 Y87.709 E35.27197
G1 X97.946 Y88.362 E35.29167
G1 X97.365 Y92.068 E35.40428
G1 X97.232 Y92.701 E35.42369
G1 X96.27 Y96.319 E35.53607
G1 X96.068 Y96.942 E35.55573
G1 X94.716 Y100.475 E35.66928
G1 X94.452 Y101.07 E35.68882
G1 X92.785 Y104.347 E35.79918
G1 X92.465 Y104.904 E35.81846
G1 X90.433 Y108.045 E35.93076
G1 X90.054 Y108.568 E35.95014
G1 X87.686 Y111.506 E36.06341
