;FLAVOR:Marlin
;TIME:3495
;Filament used: 1.59492m
;Layer height: 0.1
;MINX:57.8
;MINY:84.55
;MINZ:0.3
;MAXX:162.2
;MAXY:135.45
;MAXZ:2
;Generated with Cura_SteamEngine 4.4.1
M140 S60
M105
M190 S60
M104 S220
M105
M109 S220
M82 ;absolute extrusion mode
G28 ;Home
G1 Z15.0 F6000 ;Move the platform down 15mm
;Prime the extruder
G92 E0
G1 F200 E3
G92 E0
G92 E0
G92 E0
G1 F1500 E-6.5
;LAYER_COUNT:18
;LAYER:0
M107
G0 F2400 X59.18 Y85.133 Z0.3
;TYPE:SKIRT
G1 F1500 E0
G1 F1200 X59.617 Y84.878 E0.02221
G1 X60.088 Y84.694 E0.04441
G1 X60.582 Y84.588 E0.0666
G1 X60.919 Y84.56 E0.08144
G1 X61.24 Y84.551 E0.09554
G1 X61.33 Y84.55 E0.09949
G1 X158.339 Y84.55 E4.35851
G1 X159.037 Y84.56 E4.38916
G1 X159.54 Y84.607 E4.41134
G1 X160.03 Y84.733 E4.43355
G1 X160.494 Y84.935 E4.45577
G1 X160.92 Y85.207 E4.47796
G1 X161.298 Y85.542 E4.50014
G1 X161.618 Y85.933 E4.52232
G1 X161.873 Y86.37 E4.54453
G1 X162.056 Y86.841 E4.56672
G1 X162.163 Y87.335 E4.58891
G1 X162.19 Y87.67 E4.60366
G1 X162.199 Y87.99 E4.61772
G1 X162.2 Y88.08 E4.62167
G1 X162.2 Y131.554 E6.53033
G1 X162.191 Y132.281 E6.56225
G1 X162.145 Y132.784 E6.58442
G1 X162.02 Y133.274 E6.60662
G1 X161.819 Y133.738 E6.62882
G1 X161.548 Y134.165 E6.65103
G1 X161.213 Y134.544 E6.67323
G1 X160.823 Y134.865 E6.69541
G1 X160.387 Y135.121 E6.71761
G1 X159.916 Y135.304 E6.73979
G1 X159.422 Y135.412 E6.76199
G1 X159.081 Y135.44 E6.77702
G1 X158.76 Y135.449 E6.79111
G1 X158.67 Y135.45 E6.79507
G1 X61.666 Y135.45 E11.05387
G1 X60.968 Y135.441 E11.08452
G1 X60.464 Y135.394 E11.10674
G1 X59.974 Y135.269 E11.12894
G1 X59.51 Y135.068 E11.15114
G1 X59.084 Y134.797 E11.17331
G1 X58.705 Y134.462 E11.19552
G1 X58.384 Y134.071 E11.21773
G1 X58.129 Y133.635 E11.2399
G1 X57.945 Y133.164 E11.2621
G1 X57.838 Y132.67 E11.28429
G1 X57.81 Y132.327 E11.2994
G1 X57.801 Y131.994 E11.31403
G1 X57.8 Y131.908 E11.3178
G1 X57.8 Y88.381 E13.22878
G1 X57.809 Y87.716 E13.25798
G1 X57.856 Y87.212 E13.28021
G1 X57.982 Y86.723 E13.30238
G1 X58.183 Y86.259 E13.32458
G1 X58.454 Y85.832 E13.34678
G1 X58.789 Y85.454 E13.36896
G1 X59.18 Y85.133 E13.39117
G1 F1500 E6.89117
;MESH:Schalengeh??use_Frontplatte.stl
G0 F2400 X61.414 Y87.085
G0 X61.414 Y88.164
G0 X69.7 Y122.85
;TYPE:WALL-INNER
G1 F1500 E13.39117
G1 F1200 X142.4 Y122.85 E16.58294
G1 X142.4 Y96.571 E17.73668
G1 X142.4 Y96.485 E17.74045
G1 X142.4 Y96.354 E17.7462
G1 X142.662 Y96.485 E17.75359
G1 X142.745 Y96.504 E17.75682
G1 X143.245 Y96.617 E17.77933
G1 X143.844 Y96.607 E17.80563
G1 X144.422 Y96.453 E17.83189
G1 X144.945 Y96.165 E17.8581
G1 X145.385 Y95.762 E17.8843
G1 X145.717 Y95.263 E17.91061
G1 X145.918 Y94.7 E17.93686
G1 X145.98 Y94.105 E17.96312
G1 X145.898 Y93.513 E17.98936
G1 X145.676 Y92.957 E18.01564
G1 X145.326 Y92.471 E18.04194
G1 X144.872 Y92.083 E18.06816
G1 X144.338 Y91.815 E18.09439
G1 X143.755 Y91.683 E18.12063
G1 X143.157 Y91.693 E18.14689
G1 X142.584 Y91.845 E18.17292
G1 X142.084 Y92.108 E18.19772
G1 X141.615 Y92.538 E18.22565
G1 X141.283 Y93.037 E18.25197
G1 X141.082 Y93.6 E18.27821
G1 X141.02 Y94.195 E18.30448
G1 X141.1 Y94.767 E18.32983
G1 X141.102 Y94.787 E18.33072
G1 X141.247 Y95.15 E18.34788
G1 X141.102 Y95.15 E18.34868
G1 X141.081 Y95.15 E18.34957
G1 X71.04 Y95.15 E21.42461
G1 X71.039 Y95.15 E21.42465
G1 X70.757 Y95.15 E21.43703
G1 X70.852 Y94.884 E21.44437
G1 X70.918 Y94.7 E21.45295
G1 X70.98 Y94.105 E21.47921
G1 X70.898 Y93.513 E21.50545
G1 X70.676 Y92.957 E21.53174
G1 X70.326 Y92.471 E21.55803
G1 X69.872 Y92.083 E21.58425
G1 X69.338 Y91.815 E21.61048
G1 X68.755 Y91.683 E21.63672
G1 X68.157 Y91.693 E21.66298
G1 X67.584 Y91.845 E21.68901
G1 X67.084 Y92.108 E21.71381
G1 X66.615 Y92.538 E21.74175
G1 X66.283 Y93.037 E21.76806
G1 X66.082 Y93.6 E21.79431
G1 X66.02 Y94.195 E21.82057
G1 X66.102 Y94.787 E21.84681
G1 X66.324 Y95.343 E21.87309
G1 X66.674 Y95.829 E21.89939
G1 X67.128 Y96.217 E21.92561
G1 X67.662 Y96.485 E21.95184
G1 X68.245 Y96.617 E21.97808
G1 X68.844 Y96.607 E22.00438
G1 X69.346 Y96.473 E22.0272
G1 X69.422 Y96.453 E22.03065
G1 X69.7 Y96.3 E22.04458
G1 X69.7 Y96.453 E22.04538
G1 X69.7 Y96.532 E22.04843
G1 X69.7 Y122.85 E23.20388
G0 F2400 X67.084 Y123.608
G1 F1200 X66.615 Y124.038 E23.23182
G1 X66.283 Y124.537 E23.25813
G1 X66.082 Y125.1 E23.28438
G1 X66.02 Y125.695 E23.31064
G1 X66.102 Y126.287 E23.33688
G1 X66.324 Y126.843 E23.36316
G1 X66.674 Y127.329 E23.38946
G1 X67.128 Y127.717 E23.41568
G1 X67.662 Y127.985 E23.44191
G1 X68.245 Y128.117 E23.46815
G1 X68.844 Y128.107 E23.49445
G1 X69.422 Y127.953 E23.52071
G1 X69.945 Y127.665 E23.54693
G1 X70.385 Y127.262 E23.57312
G1 X70.717 Y126.763 E23.59944
G1 X70.918 Y126.2 E23.62568
G1 X70.98 Y125.605 E23.65195
G1 X70.898 Y125.013 E23.67818
G1 X70.676 Y124.457 E23.70447
G1 X70.326 Y123.971 E23.73076
G1 X69.872 Y123.583 E23.75698
G1 X69.338 Y123.315 E23.78321
G1 X68.755 Y123.183 E23.80946
G1 X68.157 Y123.193 E23.83572
G1 X67.584 Y123.345 E23.86174
G1 X67.084 Y123.608 E23.88655
G0 F2400 X61.6 Y131.65
G1 F1200 X61.6 Y88.35 E25.78756
G1 X158.4 Y88.35 E30.03741
G1 X158.4 Y131.65 E31.93842
G1 X61.6 Y131.65 E36.18827
G0 F2400 X142.084 Y123.608
G1 F1200 X141.615 Y124.038 E36.21621
G1 X141.283 Y124.537 E36.24252
G1 X141.082 Y125.1 E36.26877
G1 X141.02 Y125.695 E36.29503
G1 X141.102 Y126.287 E36.32127
G1 X141.324 Y126.843 E36.34755
G1 X141.674 Y127.329 E36.37385
G1 X142.128 Y127.717 E36.40007
G1 X142.662 Y127.985 E36.4263
G1 X143.245 Y128.117 E36.45254
G1 X143.844 Y128.107 E36.47884
G1 X144.422 Y127.953 E36.50511
G1 X144.945 Y127.665 E36.53132
G1 X145.385 Y127.262 E36.55751
G1 X145.717 Y126.763 E36.58383
G1 X145.918 Y126.2 E36.61007
G1 X145.98 Y125.605 E36.63634
G1 X145.898 Y125.013 E36.66258
G1 X145.676 Y124.457 E36.68886
G1 X145.326 Y123.971 E36.71515
G1 X144.872 Y123.583 E36.74137
G1 X144.338 Y123.315 E36.7676
G1 X143.755 Y123.183 E36.79385
G1 X143.157 Y123.193 E36.82011
G1 X142.584 Y123.345 E36.84613
G1 X142.084 Y123.608 E36.87094
G0 F2400 X147.927 Y119.028
G1 F1200 X147.366 Y119.842 E36.91434
G1 X147.015 Y120.768 E36.95782
G1 X146.896 Y121.75 E37.00124
G1 X147.015 Y122.732 E37.04467
G1 X147.366 Y123.658 E37.08815
G1 X147.927 Y124.472 E37.13155
G1 X148.669 Y125.128 E37.17503
G1 X149.545 Y125.588 E37.21847
G1 X150.506 Y125.824 E37.26192
G1 X151.494 Y125.824 E37.3053
G1 X152.455 Y125.588 E37.34874
G1 X153.331 Y125.128 E37.39218
G1 X154.073 Y124.472 E37.43566
G1 X154.634 Y123.658 E37.47906
G1 X154.985 Y122.732 E37.52254
G1 X155.104 Y121.75 E37.56597
G1 X154.985 Y120.768 E37.6094
G1 X154.634 Y119.842 E37.65288
G1 X154.073 Y119.028 E37.69628
G1 X153.331 Y118.372 E37.73976
G1 X152.455 Y117.912 E37.7832
G1 X151.494 Y117.676 E37.82664
G1 X150.506 Y117.676 E37.87002
G1 X149.545 Y117.912 E37.91347
G1 X148.669 Y118.372 E37.95691
G1 X147.927 Y119.028 E38.00039
G0 F2400 X147.058 Y109.25
G0 X147.172 Y108.308
G0 X147.927 Y106.528
G1 F1200 X147.366 Y107.342 E38.04379
G1 X147.015 Y108.268 E38.08727
G1 X146.896 Y109.25 E38.1307
G1 X147.015 Y110.232 E38.17412
G1 X147.366 Y111.158 E38.2176
G1 X147.927 Y111.972 E38.261
G1 X148.669 Y112.628 E38.30449
G1 X149.545 Y113.088 E38.34793
G1 X150.506 Y113.324 E38.39137
G1 X151.494 Y113.324 E38.43475
G1 X152.455 Y113.088 E38.47819
G1 X153.331 Y112.628 E38.52163
G1 X154.073 Y111.972 E38.56511
G1 X154.634 Y111.158 E38.60852
G1 X154.985 Y110.232 E38.65199
G1 X155.104 Y109.25 E38.69542
G1 X154.985 Y108.268 E38.73885
G1 X154.634 Y107.342 E38.78233
G1 X154.073 Y106.528 E38.82573
G1 X153.331 Y105.872 E38.86921
G1 X152.455 Y105.412 E38.91265
G1 X151.494 Y105.176 E38.9561
G1 X150.506 Y105.176 E38.99947
G1 X149.545 Y105.412 E39.04292
G1 X148.669 Y105.872 E39.08636
G1 X147.927 Y106.528 E39.12984
G0 F2400 X147.058 Y96.75
G0 X147.172 Y95.808
G0 X147.927 Y94.028
G1 F1200 X147.366 Y94.842 E39.17324
G1 X147.015 Y95.768 E39.21672
G1 X146.896 Y96.75 E39.26015
G1 X147.015 Y97.732 E39.30358
G1 X147.366 Y98.658 E39.34705
G1 X147.927 Y99.472 E39.39045
G1 X148.669 Y100.128 E39.43394
G1 X149.545 Y100.588 E39.47738
G1 X150.506 Y100.824 E39.52082
G1 X151.494 Y100.824 E39.5642
G1 X152.455 Y100.588 E39.60764
G1 X153.331 Y100.128 E39.65108
G1 X154.073 Y99.472 E39.69456
G1 X154.634 Y98.658 E39.73797
G1 X154.985 Y97.732 E39.78144
G1 X155.104 Y96.75 E39.82487
G1 X154.985 Y95.768 E39.8683
G1 X154.634 Y94.842 E39.91178
G1 X154.073 Y94.028 E39.95518
G1 X153.331 Y93.372 E39.99866
G1 X152.455 Y92.912 E40.0421
G1 X151.494 Y92.676 E40.08555
G1 X150.506 Y92.676 E40.12892
G1 X149.545 Y92.912 E40.17237
G1 X148.669 Y93.372 E40.21581
G1 X147.927 Y94.028 E40.25929
G0 F2400 X148.229 Y94.295
;TYPE:WALL-OUTER
G1 F1200 X147.723 Y95.029 E40.29843
G1 X147.406 Y95.864 E40.33764
G1 X147.299 Y96.75 E40.37682
G1 X147.406 Y97.636 E40.416
G1 X147.723 Y98.471 E40.45522
G1 X148.229 Y99.205 E40.49436
G1 X148.898 Y99.796 E40.53355
G1 X149.688 Y100.211 E40.57273
G1 X150.554 Y100.424 E40.61188
G1 X151.446 Y100.424 E40.65104
G1 X152.312 Y100.211 E40.69019
G1 X153.102 Y99.796 E40.72937
G1 X153.771 Y99.205 E40.76856
G1 X154.277 Y98.471 E40.8077
G1 X154.594 Y97.636 E40.84692
G1 X154.701 Y96.75 E40.8861
G1 X154.594 Y95.864 E40.92528
G1 X154.277 Y95.029 E40.96449
G1 X153.771 Y94.295 E41.00363
G1 X153.102 Y93.704 E41.04282
G1 X152.312 Y93.289 E41.082
G1 X151.446 Y93.076 E41.12115
G1 X150.554 Y93.076 E41.16031
G1 X149.688 Y93.289 E41.19947
G1 X148.898 Y93.704 E41.23865
G1 X148.229 Y94.295 E41.27784
G0 F2400 X148.116 Y94.459
G0 X147.869 Y94.289
G0 X147.172 Y95.808
G0 X147.982 Y106.625
G0 X148.229 Y106.795
G1 F1200 X147.723 Y107.529 E41.31698
G1 X147.406 Y108.364 E41.35619
G1 X147.299 Y109.25 E41.39537
G1 X147.406 Y110.136 E41.43455
G1 X147.723 Y110.971 E41.47376
G1 X148.229 Y111.705 E41.5129
G1 X148.898 Y112.296 E41.55209
G1 X149.688 Y112.711 E41.59127
G1 X150.554 Y112.924 E41.63043
G1 X151.446 Y112.924 E41.66959
G1 X152.312 Y112.711 E41.70874
G1 X153.102 Y112.296 E41.74792
G1 X153.771 Y111.705 E41.78711
G1 X154.277 Y110.971 E41.82625
G1 X154.594 Y110.136 E41.86546
G1 X154.701 Y109.25 E41.90464
G1 X154.594 Y108.364 E41.94383
G1 X154.277 Y107.529 E41.98304
G1 X153.771 Y106.795 E42.02218
G1 X153.102 Y106.204 E42.06137
G1 X152.312 Y105.789 E42.10055
G1 X151.446 Y105.576 E42.1397
G1 X150.554 Y105.576 E42.17886
G1 X149.688 Y105.789 E42.21802
G1 X148.898 Y106.204 E42.25719
G1 X148.229 Y106.795 E42.29638
G0 F2400 X148.116 Y106.959
G0 X147.869 Y106.789
G0 X147.172 Y108.308
G0 X147.982 Y119.125
G0 X148.229 Y119.295
G1 F1200 X147.723 Y120.029 E42.33552
G1 X147.406 Y120.864 E42.37474
G1 X147.299 Y121.75 E42.41392
G1 X147.406 Y122.636 E42.4531
G1 X147.723 Y123.471 E42.49231
G1 X148.229 Y124.205 E42.53145
G1 X148.898 Y124.796 E42.57064
G1 X149.688 Y125.211 E42.60982
G1 X150.554 Y125.424 E42.64897
G1 X151.446 Y125.424 E42.68814
G1 X152.312 Y125.211 E42.72729
G1 X153.102 Y124.796 E42.76647
G1 X153.771 Y124.205 E42.80566
G1 X154.277 Y123.471 E42.8448
G1 X154.594 Y122.636 E42.88401
G1 X154.701 Y121.75 E42.92319
G1 X154.594 Y120.864 E42.96237
G1 X154.277 Y120.029 E43.00158
G1 X153.771 Y119.295 E43.04073
G1 X153.102 Y118.704 E43.07992
G1 X152.312 Y118.289 E43.11909
G1 X151.446 Y118.076 E43.15825
G1 X150.554 Y118.076 E43.19741
G1 X149.688 Y118.289 E43.23656
G1 X148.898 Y118.704 E43.27574
G1 X148.229 Y119.295 E43.31493
G0 F2400 X148.116 Y119.459
G0 X147.869 Y119.289
G0 X142.177 Y123.673
G0 X142.316 Y123.938
G1 F1200 X141.921 Y124.3 E43.33845
G1 X141.643 Y124.718 E43.36049
G1 X141.475 Y125.189 E43.38245
G1 X141.423 Y125.688 E43.40448
G1 X141.492 Y126.184 E43.42646
G1 X141.677 Y126.649 E43.44843
G1 X141.97 Y127.056 E43.47045
G1 X142.351 Y127.381 E43.49244
G1 X142.798 Y127.606 E43.51441
G1 X143.286 Y127.716 E43.53637
G1 X143.788 Y127.708 E43.55841
G1 X144.272 Y127.579 E43.5804
G1 X144.71 Y127.338 E43.60235
G1 X145.079 Y127 E43.62432
G1 X145.357 Y126.582 E43.64636
G1 X145.525 Y126.111 E43.66831
G1 X145.577 Y125.612 E43.69034
G1 X145.508 Y125.116 E43.71233
G1 X145.323 Y124.651 E43.7343
G1 X145.03 Y124.244 E43.75632
G1 X144.649 Y123.919 E43.7783
G1 X144.202 Y123.694 E43.80027
G1 X143.714 Y123.584 E43.82223
G1 X143.212 Y123.592 E43.84428
G1 X142.73 Y123.72 E43.86617
G1 X142.316 Y123.938 E43.88671
G0 F2400 X142.169 Y124.073
G0 X141.967 Y123.852
G0 X68.181 Y123.353
G0 X67.177 Y123.673
G0 X67.316 Y123.938
G1 F1200 X66.921 Y124.3 E43.91024
G1 X66.643 Y124.718 E43.93228
G1 X66.475 Y125.189 E43.95423
G1 X66.423 Y125.688 E43.97626
G1 X66.492 Y126.184 E43.99824
G1 X66.677 Y126.649 E44.02021
G1 X66.97 Y127.056 E44.04223
G1 X67.351 Y127.381 E44.06422
G1 X67.798 Y127.606 E44.08619
G1 X68.286 Y127.716 E44.10815
G1 X68.788 Y127.708 E44.13019
G1 X69.272 Y127.579 E44.15218
G1 X69.71 Y127.338 E44.17413
G1 X70.079 Y127 E44.1961
G1 X70.357 Y126.582 E44.21814
G1 X70.525 Y126.111 E44.2401
G1 X70.577 Y125.612 E44.26212
G1 X70.508 Y125.116 E44.28411
G1 X70.323 Y124.651 E44.30608
G1 X70.03 Y124.244 E44.3281
G1 X69.649 Y123.919 E44.35008
G1 X69.202 Y123.694 E44.37205
G1 X68.714 Y123.584 E44.39402
G1 X68.212 Y123.592 E44.41606
G1 X67.73 Y123.72 E44.43795
G1 X67.316 Y123.938 E44.4585
G0 F2400 X67.169 Y124.073
G0 X66.967 Y123.852
G0 X61.47 Y131.78
G0 X61.2 Y132.05
G1 F1200 X61.2 Y87.95 E46.39464
G1 X158.8 Y87.95 E50.6796
G1 X158.8 Y132.05 E52.61574
G1 X61.2 Y132.05 E56.90071
G0 F2400 X61.2 Y131.85
G0 X61.47 Y131.78
G0 X69.888 Y95.997
G0 X69.71 Y95.838
G1 F1200 X70.065 Y95.513 E56.92184
G1 X70.079 Y95.5 E56.92268
G1 X70.257 Y95.232 E56.93681
G1 X70.357 Y95.082 E56.94472
G1 X70.525 Y94.611 E56.96668
G1 X70.577 Y94.112 E56.9887
G1 X70.508 Y93.616 E57.01069
G1 X70.323 Y93.151 E57.03266
G1 X70.03 Y92.744 E57.05468
G1 X69.649 Y92.419 E57.07666
G1 X69.202 Y92.194 E57.09864
G1 X68.714 Y92.084 E57.1206
G1 X68.212 Y92.092 E57.14264
G1 X67.73 Y92.22 E57.16453
G1 X67.316 Y92.438 E57.18508
G1 X66.921 Y92.8 E57.2086
G1 X66.643 Y93.218 E57.23064
G1 X66.475 Y93.689 E57.25259
G1 X66.423 Y94.188 E57.27462
G1 X66.492 Y94.684 E57.29661
G1 X66.677 Y95.149 E57.31858
G1 X66.97 Y95.556 E57.34059
G1 X67.351 Y95.881 E57.36258
G1 X67.798 Y96.106 E57.38455
G1 X68.286 Y96.216 E57.40651
G1 X68.788 Y96.208 E57.42856
G1 X69.272 Y96.079 E57.45055
G1 X69.703 Y95.841 E57.47216
G1 X69.71 Y95.838 E57.4725
G0 F2400 X69.857 Y95.703
G0 X70.1 Y95.55
G1 F1200 X70.1 Y95.838 E57.47815
G1 X70.1 Y95.846 E57.4785
G1 X70.1 Y122.45 E58.6465
G1 X142 Y122.45 E61.80315
G1 X142 Y95.92 E62.96791
G1 X142 Y95.881 E62.96962
G1 X142 Y95.582 E62.98275
G1 X142.351 Y95.881 E62.99445
G1 X142.385 Y95.898 E62.99604
G1 X142.798 Y96.106 E63.01634
G1 X143.286 Y96.216 E63.0383
G1 X143.788 Y96.208 E63.06034
G1 X144.272 Y96.079 E63.08233
G1 X144.71 Y95.838 E63.10428
G1 X145.079 Y95.5 E63.12625
G1 X145.357 Y95.082 E63.14829
G1 X145.525 Y94.611 E63.17024
G1 X145.577 Y94.112 E63.19227
G1 X145.508 Y93.616 E63.21426
G1 X145.323 Y93.151 E63.23623
G1 X145.03 Y92.744 E63.25825
G1 X144.649 Y92.419 E63.28023
G1 X144.202 Y92.194 E63.3022
G1 X143.714 Y92.084 E63.32416
G1 X143.212 Y92.092 E63.34621
G1 X142.73 Y92.22 E63.3681
G1 X142.316 Y92.438 E63.38864
G1 X141.921 Y92.8 E63.41217
G1 X141.643 Y93.218 E63.43421
G1 X141.475 Y93.689 E63.45616
G1 X141.423 Y94.188 E63.47819
G1 X141.492 Y94.684 E63.50017
G1 X141.677 Y95.149 E63.52214
G1 X141.738 Y95.234 E63.52674
G1 X141.966 Y95.55 E63.54385
G1 X141.577 Y95.55 E63.55332
G1 X141.576 Y95.55 E63.55336
G1 X70.422 Y95.55 E66.67726
G1 X70.1 Y95.55 E66.68602
G0 F2400 X70.1 Y95.75
G0 X69.996 Y95.561
G0 X69.31 Y96.886
;TYPE:SKIN
G1 F1200 X69.31 Y122.909 E67.82851
G1 X68.796 Y122.793 E67.85165
G1 X68.103 Y122.803 E67.88208
G1 X67.441 Y122.979 E67.91215
G1 X66.858 Y123.286 E67.94108
G1 X66.317 Y123.783 E67.97333
G1 X65.932 Y124.361 E68.00382
G1 X65.699 Y125.013 E68.03422
G1 X65.628 Y125.701 E68.06458
G1 X65.722 Y126.388 E68.09503
G1 X65.979 Y127.032 E68.12547
G1 X66.385 Y127.595 E68.15594
G1 X66.911 Y128.044 E68.18631
G1 X67.529 Y128.355 E68.21668
G1 X68.204 Y128.507 E68.24706
G1 X68.898 Y128.497 E68.27753
G1 X69.568 Y128.318 E68.30798
G1 X70.174 Y127.984 E68.33836
G1 X70.683 Y127.517 E68.36868
G1 X71.068 Y126.939 E68.39917
G1 X71.301 Y126.287 E68.42957
G1 X71.372 Y125.599 E68.45994
G1 X71.278 Y124.912 E68.49038
G1 X71.021 Y124.268 E68.52082
G1 X70.615 Y123.705 E68.5513
G1 X70.089 Y123.256 E68.58166
G1 X70.057 Y123.24 E68.58323
