;FLAVOR:Marlin
;TIME:1320
;Filament used: 0.525322m
;Layer height: 0.1
;MINX:5.748
;MINY:52.968
;MINZ:0.2
;MAXX:23.943
;MAXY:117.813
;MAXZ:7.9
;Generated with Cura_SteamEngine 4.4.1
M140 S60
M105
M190 S60
M104 S220
M105
M109 S220
M82 ;absolute extrusion mode
G28 ;Home
G1 Z15.0 F6000 ;Move the platform down 15mm
;Prime the extruder
G92 E0
G1 F200 E3
G92 E0
G92 E0
G92 E0
G1 F1500 E-6.5
;LAYER_COUNT:78
;LAYER:0
M107
G0 F2400 X12.286 Y53.091 Z0.2
;TYPE:SKIRT
G1 F1500 E0
G1 F1200 X13.07 Y52.991 E0.02372
G1 X13.665 Y52.968 E0.0416
G1 X15.208 Y52.968 E0.08791
G1 X15.997 Y53.008 E0.11163
G1 X16.777 Y53.127 E0.13531
G1 X17.542 Y53.325 E0.15903
G1 X18.282 Y53.599 E0.18272
G1 X18.991 Y53.947 E0.20643
G1 X19.662 Y54.365 E0.23016
G1 X20.286 Y54.848 E0.25384
G1 X20.723 Y55.253 E0.27173
G1 X20.84 Y55.37 E0.27669
G1 X21.37 Y55.956 E0.30041
G1 X21.837 Y56.592 E0.3241
G1 X22.238 Y57.272 E0.34779
G1 X22.568 Y57.99 E0.37151
G1 X22.823 Y58.737 E0.39521
G1 X23.002 Y59.506 E0.41891
G1 X23.102 Y60.29 E0.44263
G1 X23.125 Y60.884 E0.46048
G1 X23.126 Y72.65 E0.81366
G1 X23.086 Y73.439 E0.83737
G1 X22.967 Y74.22 E0.86109
G1 X22.769 Y74.984 E0.88478
G1 X22.495 Y75.725 E0.90849
G1 X22.426 Y75.865 E0.91318
G1 X22.482 Y75.96 E0.91649
G1 X22.812 Y76.678 E0.94021
G1 X23.067 Y77.425 E0.9639
G1 X23.246 Y78.194 E0.9876
G1 X23.346 Y78.978 E1.01133
G1 X23.369 Y79.572 E1.02917
G1 X23.37 Y91.338 E1.38235
G1 X23.33 Y92.127 E1.40607
G1 X23.211 Y92.908 E1.42978
G1 X23.013 Y93.672 E1.45347
G1 X22.837 Y94.148 E1.4687
G1 X23.055 Y94.517 E1.48157
G1 X23.385 Y95.235 E1.50529
G1 X23.64 Y95.982 E1.52898
G1 X23.819 Y96.751 E1.55268
G1 X23.919 Y97.535 E1.57641
G1 X23.942 Y98.129 E1.59425
G1 X23.943 Y109.895 E1.94743
G1 X23.903 Y110.684 E1.97115
G1 X23.784 Y111.465 E1.99486
G1 X23.586 Y112.229 E2.01855
G1 X23.312 Y112.97 E2.04227
G1 X22.964 Y113.679 E2.06598
G1 X22.547 Y114.349 E2.08966
G1 X22.064 Y114.974 E2.11337
G1 X21.658 Y115.411 E2.13128
G1 X21.541 Y115.528 E2.13625
G1 X20.955 Y116.058 E2.15996
G1 X20.319 Y116.525 E2.18365
G1 X19.639 Y116.926 E2.20734
G1 X18.921 Y117.256 E2.23106
G1 X18.174 Y117.511 E2.25476
G1 X17.405 Y117.69 E2.27846
G1 X16.621 Y117.79 E2.30218
G1 X16.026 Y117.813 E2.32006
G1 X14.483 Y117.813 E2.36637
G1 X13.694 Y117.773 E2.39009
G1 X12.914 Y117.654 E2.41377
G1 X12.149 Y117.456 E2.43749
G1 X11.409 Y117.182 E2.46118
G1 X10.7 Y116.834 E2.48489
G1 X10.029 Y116.416 E2.50862
G1 X9.405 Y115.933 E2.5323
G1 X8.968 Y115.528 E2.55019
G1 X8.851 Y115.411 E2.55515
G1 X8.321 Y114.825 E2.57887
G1 X7.854 Y114.189 E2.60256
G1 X7.453 Y113.509 E2.62625
G1 X7.123 Y112.791 E2.64997
G1 X6.868 Y112.044 E2.67367
G1 X6.689 Y111.275 E2.69737
G1 X6.589 Y110.491 E2.72109
G1 X6.566 Y109.897 E2.73893
G1 X6.565 Y98.131 E3.09212
G1 X6.605 Y97.342 E3.11583
G1 X6.724 Y96.561 E3.13954
G1 X6.922 Y95.797 E3.16324
G1 X7.097 Y95.322 E3.17843
G1 X6.879 Y94.952 E3.19132
G1 X6.549 Y94.234 E3.21504
G1 X6.294 Y93.487 E3.23873
G1 X6.115 Y92.718 E3.26244
G1 X6.015 Y91.934 E3.28616
G1 X5.992 Y91.34 E3.304
G1 X5.991 Y79.574 E3.65719
G1 X6.031 Y78.785 E3.6809
G1 X6.15 Y78.004 E3.70461
G1 X6.348 Y77.24 E3.72831
G1 X6.622 Y76.499 E3.75202
G1 X6.691 Y76.358 E3.75673
G1 X6.636 Y76.264 E3.76
G1 X6.306 Y75.546 E3.78372
G1 X6.051 Y74.799 E3.80741
G1 X5.872 Y74.03 E3.83111
G1 X5.772 Y73.246 E3.85484
G1 X5.749 Y72.652 E3.87268
G1 X5.748 Y60.886 E4.22587
G1 X5.788 Y60.097 E4.24958
G1 X5.907 Y59.316 E4.27329
G1 X6.105 Y58.552 E4.29698
G1 X6.379 Y57.811 E4.3207
G1 X6.727 Y57.102 E4.34441
G1 X7.144 Y56.432 E4.3681
G1 X7.627 Y55.807 E4.39181
G1 X8.033 Y55.37 E4.40971
G1 X8.15 Y55.253 E4.41468
G1 X8.736 Y54.723 E4.4384
G1 X9.372 Y54.256 E4.46208
G1 X10.052 Y53.855 E4.48578
G1 X10.77 Y53.525 E4.5095
G1 X11.517 Y53.27 E4.53319
G1 X12.286 Y53.091 E4.55689
G0 F2400 X12.475 Y53.464
G1 F1200 X13.24 Y53.38 E4.57999
G1 X13.665 Y53.368 E4.59275
G1 X15.208 Y53.368 E4.63907
G1 X15.976 Y53.408 E4.66215
G1 X16.736 Y53.527 E4.68525
G1 X17.479 Y53.725 E4.70833
G1 X18.198 Y53.999 E4.73142
G1 X18.884 Y54.346 E4.7545
G1 X19.531 Y54.762 E4.77759
G1 X20.131 Y55.243 E4.80067
G1 X20.441 Y55.535 E4.81346
G1 X20.558 Y55.652 E4.81842
G1 X21.072 Y56.224 E4.84151
G1 X21.525 Y56.846 E4.8646
G1 X21.911 Y57.511 E4.88768
G1 X22.226 Y58.213 E4.91078
G1 X22.466 Y58.944 E4.93388
G1 X22.629 Y59.695 E4.95694
G1 X22.713 Y60.46 E4.98004
G1 X22.725 Y60.884 E4.99278
G1 X22.726 Y72.65 E5.34596
G1 X22.686 Y73.418 E5.36904
G1 X22.567 Y74.178 E5.39214
G1 X22.369 Y74.922 E5.41525
G1 X22.095 Y75.64 E5.43831
G1 X21.972 Y75.884 E5.44652
G1 X22.155 Y76.199 E5.45745
G1 X22.47 Y76.901 E5.48055
G1 X22.71 Y77.632 E5.50364
G1 X22.873 Y78.383 E5.52671
G1 X22.957 Y79.148 E5.54981
G1 X22.969 Y79.572 E5.56254
G1 X22.97 Y91.338 E5.91573
G1 X22.93 Y92.106 E5.93881
G1 X22.811 Y92.866 E5.9619
G1 X22.613 Y93.61 E5.98501
G1 X22.395 Y94.182 E6.00339
G1 X22.728 Y94.756 E6.02331
G1 X23.043 Y95.458 E6.0464
G1 X23.283 Y96.189 E6.0695
G1 X23.446 Y96.94 E6.09257
G1 X23.53 Y97.705 E6.11567
G1 X23.542 Y98.129 E6.1284
G1 X23.543 Y109.895 E6.48158
G1 X23.503 Y110.663 E6.50467
G1 X23.384 Y111.423 E6.52776
G1 X23.186 Y112.167 E6.55087
G1 X22.912 Y112.885 E6.57394
G1 X22.565 Y113.572 E6.59704
G1 X22.149 Y114.219 E6.62013
G1 X21.668 Y114.819 E6.64321
G1 X21.376 Y115.129 E6.656
G1 X21.259 Y115.246 E6.66096
G1 X20.687 Y115.76 E6.68405
G1 X20.065 Y116.213 E6.70715
G1 X19.4 Y116.599 E6.73023
G1 X18.698 Y116.914 E6.75332
G1 X17.967 Y117.154 E6.77642
G1 X17.216 Y117.317 E6.79948
G1 X16.451 Y117.401 E6.82259
G1 X16.026 Y117.413 E6.83535
G1 X14.483 Y117.413 E6.88167
G1 X13.715 Y117.373 E6.90475
G1 X12.955 Y117.254 E6.92784
G1 X12.212 Y117.056 E6.95092
G1 X11.493 Y116.782 E6.97402
G1 X10.807 Y116.435 E6.99709
G1 X10.16 Y116.019 E7.02018
G1 X9.56 Y115.538 E7.04327
G1 X9.25 Y115.246 E7.05605
G1 X9.133 Y115.129 E7.06102
G1 X8.619 Y114.557 E7.0841
G1 X8.166 Y113.935 E7.1072
G1 X7.78 Y113.27 E7.13028
G1 X7.465 Y112.568 E7.15338
G1 X7.225 Y111.837 E7.17647
G1 X7.062 Y111.086 E7.19954
G1 X6.978 Y110.321 E7.22264
G1 X6.966 Y109.897 E7.23537
G1 X6.965 Y98.131 E7.58856
G1 X7.005 Y97.363 E7.61164
G1 X7.124 Y96.603 E7.63473
G1 X7.322 Y95.859 E7.65784
G1 X7.54 Y95.288 E7.67619
G1 X7.206 Y94.713 E7.69615
G1 X6.891 Y94.011 E7.71924
G1 X6.651 Y93.28 E7.74234
G1 X6.488 Y92.529 E7.76541
G1 X6.404 Y91.764 E7.78851
G1 X6.392 Y91.34 E7.80124
G1 X6.391 Y79.574 E8.15442
G1 X6.431 Y78.806 E8.17751
G1 X6.55 Y78.046 E8.2006
G1 X6.748 Y77.302 E8.22371
G1 X7.022 Y76.584 E8.24678
G1 X7.146 Y76.339 E8.25502
G1 X6.963 Y76.025 E8.26593
G1 X6.648 Y75.323 E8.28903
G1 X6.408 Y74.592 E8.31212
G1 X6.245 Y73.841 E8.33519
G1 X6.161 Y73.076 E8.35829
G1 X6.149 Y72.652 E8.37102
G1 X6.148 Y60.886 E8.72421
G1 X6.188 Y60.118 E8.74729
G1 X6.307 Y59.358 E8.77038
G1 X6.505 Y58.614 E8.79349
G1 X6.779 Y57.896 E8.81656
G1 X7.126 Y57.209 E8.83966
G1 X7.542 Y56.562 E8.86275
G1 X8.023 Y55.962 E8.88584
G1 X8.315 Y55.652 E8.89862
G1 X8.432 Y55.535 E8.90359
G1 X9.004 Y55.021 E8.92667
G1 X9.626 Y54.568 E8.94977
G1 X10.291 Y54.182 E8.97285
G1 X10.993 Y53.867 E8.99594
G1 X11.724 Y53.627 E9.01904
G1 X12.475 Y53.464 E9.04211
G0 F2400 X12.661 Y53.84
G1 F1200 X13.665 Y53.768 E9.07232
G1 X15.208 Y53.768 E9.11864
G1 X15.955 Y53.808 E9.14109
G1 X16.693 Y53.927 E9.16353
G1 X17.415 Y54.125 E9.186
G1 X18.111 Y54.398 E9.20845
G1 X18.774 Y54.745 E9.23091
G1 X19.397 Y55.16 E9.25338
G1 X20.158 Y55.818 E9.28358
G1 X20.275 Y55.935 E9.28854
G1 X20.775 Y56.492 E9.31101
G1 X21.212 Y57.098 E9.33344
G1 X21.583 Y57.748 E9.3559
G1 X21.882 Y58.434 E9.37837
G1 X22.106 Y59.148 E9.40083
G1 X22.253 Y59.881 E9.42327
G1 X22.325 Y60.884 E9.45345
G1 X22.326 Y72.65 E9.80664
G1 X22.286 Y73.397 E9.82909
G1 X22.167 Y74.136 E9.85156
G1 X21.969 Y74.857 E9.87401
G1 X21.696 Y75.554 E9.89647
G1 X21.518 Y75.895 E9.90802
G1 X21.827 Y76.436 E9.92672
G1 X22.126 Y77.122 E9.94919
G1 X22.35 Y77.836 E9.97165
G1 X22.497 Y78.569 E9.99409
G1 X22.569 Y79.572 E10.02427
G1 X22.57 Y91.338 E10.37746
G1 X22.53 Y92.085 E10.39991
G1 X22.411 Y92.824 E10.42238
G1 X22.213 Y93.545 E10.44482
G1 X21.946 Y94.227 E10.46681
G1 X22.029 Y94.343 E10.47109
G1 X22.4 Y94.993 E10.49356
G1 X22.699 Y95.679 E10.51602
G1 X22.923 Y96.393 E10.53848
G1 X23.07 Y97.126 E10.56092
G1 X23.142 Y98.129 E10.59111
G1 X23.143 Y109.895 E10.94429
G1 X23.103 Y110.642 E10.96675
G1 X22.984 Y111.381 E10.98921
G1 X22.786 Y112.102 E11.01166
G1 X22.513 Y112.799 E11.03413
G1 X22.167 Y113.462 E11.05658
G1 X21.752 Y114.084 E11.07902
G1 X21.093 Y114.846 E11.10926
G1 X20.976 Y114.963 E11.11423
G1 X20.419 Y115.463 E11.1367
G1 X19.813 Y115.9 E11.15912
G1 X19.163 Y116.271 E11.18159
G1 X18.477 Y116.57 E11.20405
G1 X17.763 Y116.794 E11.22651
G1 X17.03 Y116.941 E11.24895
G1 X16.026 Y117.013 E11.27917
G1 X14.483 Y117.013 E11.32549
G1 X13.736 Y116.973 E11.34794
G1 X12.998 Y116.854 E11.37038
G1 X12.276 Y116.656 E11.39285
G1 X11.58 Y116.383 E11.41529
G1 X10.917 Y116.036 E11.43776
G1 X10.294 Y115.621 E11.46023
G1 X9.533 Y114.963 E11.49042
G1 X9.416 Y114.846 E11.49539
G1 X8.916 Y114.289 E11.51786
G1 X8.479 Y113.683 E11.54029
G1 X8.108 Y113.033 E11.56275
G1 X7.809 Y112.347 E11.58521
G1 X7.585 Y111.633 E11.60768
G1 X7.438 Y110.9 E11.63012
G1 X7.366 Y109.897 E11.6603
G1 X7.365 Y98.131 E12.01349
G1 X7.405 Y97.384 E12.03594
G1 X7.524 Y96.645 E12.05841
G1 X7.722 Y95.924 E12.08085
G1 X7.989 Y95.242 E12.10284
G1 X7.905 Y95.126 E12.10714
G1 X7.534 Y94.476 E12.1296
G1 X7.235 Y93.79 E12.15206
G1 X7.011 Y93.076 E12.17453
G1 X6.864 Y92.343 E12.19697
G1 X6.792 Y91.34 E12.22715
G1 X6.791 Y79.574 E12.58034
G1 X6.831 Y78.827 E12.60279
G1 X6.95 Y78.088 E12.62526
G1 X7.148 Y77.367 E12.6477
G1 X7.421 Y76.67 E12.67017
G1 X7.599 Y76.328 E12.68175
G1 X7.291 Y75.788 E12.70041
G1 X6.992 Y75.102 E12.72287
G1 X6.768 Y74.388 E12.74533
G1 X6.621 Y73.655 E12.76777
G1 X6.549 Y72.652 E12.79796
G1 X6.548 Y60.886 E13.15114
G1 X6.588 Y60.139 E13.1736
G1 X6.707 Y59.4 E13.19606
G1 X6.905 Y58.679 E13.21851
G1 X7.178 Y57.982 E13.24098
G1 X7.524 Y57.319 E13.26343
G1 X7.939 Y56.697 E13.28587
G1 X8.598 Y55.935 E13.31611
G1 X8.715 Y55.818 E13.32108
G1 X9.272 Y55.318 E13.34355
G1 X9.878 Y54.881 E13.36597
G1 X10.528 Y54.51 E13.38844
G1 X11.214 Y54.211 E13.4109
G1 X11.928 Y53.987 E13.43336
G1 X12.661 Y53.84 E13.4558
G0 F2400 X12.844 Y54.219
G1 F1200 X13.665 Y54.168 E13.4805
G1 X15.208 Y54.168 E13.52681
G1 X15.933 Y54.208 E13.54861
G1 X16.65 Y54.327 E13.57042
G1 X17.349 Y54.525 E13.59223
G1 X18.022 Y54.798 E13.61403
G1 X18.661 Y55.143 E13.63583
G1 X19.258 Y55.557 E13.65764
G1 X19.875 Y56.101 E13.68233
G1 X19.992 Y56.218 E13.6873
G1 X20.476 Y56.759 E13.70909
G1 X20.899 Y57.35 E13.7309
G1 X21.253 Y57.984 E13.7527
G1 X21.536 Y58.653 E13.7745
G1 X21.744 Y59.349 E13.79631
G1 X21.874 Y60.064 E13.81812
G1 X21.925 Y60.884 E13.84278
G1 X21.926 Y72.65 E14.19597
G1 X21.886 Y73.376 E14.21779
G1 X21.767 Y74.092 E14.23958
G1 X21.569 Y74.791 E14.26139
G1 X21.296 Y75.464 E14.28319
G1 X21.054 Y75.913 E14.2985
G1 X21.143 Y76.038 E14.30311
G1 X21.497 Y76.672 E14.3249
G1 X21.78 Y77.341 E14.34671
G1 X21.988 Y78.037 E14.36851
G1 X22.118 Y78.752 E14.39033
G1 X22.169 Y79.572 E14.41499
G1 X22.17 Y91.338 E14.76817
G1 X22.13 Y92.064 E14.79
G1 X22.011 Y92.78 E14.81178
G1 X21.813 Y93.479 E14.83359
G1 X21.54 Y94.152 E14.85539
G1 X21.479 Y94.264 E14.85922
G1 X21.716 Y94.595 E14.87144
G1 X22.07 Y95.229 E14.89324
G1 X22.353 Y95.898 E14.91504
G1 X22.561 Y96.594 E14.93685
G1 X22.691 Y97.309 E14.95866
G1 X22.742 Y98.129 E14.98332
G1 X22.743 Y109.895 E15.3365
G1 X22.703 Y110.621 E15.35833
G1 X22.584 Y111.337 E15.38012
G1 X22.386 Y112.036 E15.40193
G1 X22.113 Y112.709 E15.42373
G1 X21.768 Y113.348 E15.44552
G1 X21.355 Y113.946 E15.46734
G1 X20.81 Y114.563 E15.49205
G1 X20.693 Y114.68 E15.49702
G1 X20.152 Y115.164 E15.51881
G1 X19.561 Y115.587 E15.54062
G1 X18.927 Y115.941 E15.56242
G1 X18.258 Y116.224 E15.58422
G1 X17.562 Y116.432 E15.60603
G1 X16.847 Y116.562 E15.62784
G1 X16.026 Y116.613 E15.65253
G1 X14.483 Y116.613 E15.69885
G1 X13.758 Y116.573 E15.72065
G1 X13.041 Y116.454 E15.74246
G1 X12.342 Y116.256 E15.76427
G1 X11.669 Y115.983 E15.78607
G1 X11.03 Y115.638 E15.80787
G1 X10.433 Y115.224 E15.82968
G1 X9.816 Y114.68 E15.85437
G1 X9.699 Y114.563 E15.85934
G1 X9.215 Y114.022 E15.88112
G1 X8.792 Y113.431 E15.90294
G1 X8.438 Y112.797 E15.92474
G1 X8.155 Y112.128 E15.94654
G1 X7.947 Y111.432 E15.96835
G1 X7.817 Y110.717 E15.99016
G1 X7.766 Y109.897 E16.01482
G1 X7.765 Y98.131 E16.36801
G1 X7.805 Y97.405 E16.38983
G1 X7.924 Y96.689 E16.41162
G1 X8.122 Y95.99 E16.43343
G1 X8.395 Y95.317 E16.45523
G1 X8.455 Y95.205 E16.45904
G1 X8.218 Y94.874 E16.47126
G1 X7.864 Y94.24 E16.49306
G1 X7.581 Y93.571 E16.51486
G1 X7.373 Y92.875 E16.53667
G1 X7.243 Y92.16 E16.55848
G1 X7.192 Y91.34 E16.58314
G1 X7.191 Y79.574 E16.93633
G1 X7.231 Y78.848 E16.95815
G1 X7.35 Y78.132 E16.97994
G1 X7.548 Y77.433 E17.00175
G1 X7.821 Y76.76 E17.02355
G1 X8.064 Y76.31 E17.0389
G1 X7.975 Y76.186 E17.04348
G1 X7.621 Y75.552 E17.06528
G1 X7.338 Y74.883 E17.08708
G1 X7.13 Y74.187 E17.10889
G1 X7 Y73.472 E17.1307
G1 X6.949 Y72.652 E17.15536
G1 X6.948 Y60.886 E17.50855
G1 X6.988 Y60.16 E17.53037
G1 X7.107 Y59.444 E17.55216
G1 X7.305 Y58.745 E17.57397
G1 X7.578 Y58.072 E17.59577
G1 X7.923 Y57.433 E17.61756
G1 X8.336 Y56.835 E17.63938
G1 X8.881 Y56.218 E17.66409
G1 X8.998 Y56.101 E17.66906
G1 X9.539 Y55.617 E17.69085
G1 X10.13 Y55.194 E17.71266
G1 X10.764 Y54.84 E17.73446
G1 X11.433 Y54.557 E17.75626
G1 X12.129 Y54.349 E17.77807
G1 X12.844 Y54.219 E17.79988
G0 F2400 X12.328 Y54.714
G1 F1200 X13.023 Y54.601 E17.82102
G1 X13.665 Y54.568 E17.84032
G1 X15.208 Y54.568 E17.88663
G1 X15.911 Y54.608 E17.90777
G1 X16.605 Y54.727 E17.9289
G1 X17.28 Y54.925 E17.95002
G1 X17.929 Y55.197 E17.97114
G1 X18.543 Y55.542 E17.99228
G1 X19.114 Y55.953 E18.0134
G1 X19.592 Y56.384 E18.03272
G1 X19.709 Y56.501 E18.03769
G1 X20.178 Y57.026 E18.05882
G1 X20.584 Y57.601 E18.07995
G1 X20.922 Y58.219 E18.10109
G1 X21.189 Y58.87 E18.12221
G1 X21.379 Y59.548 E18.14335
G1 X21.492 Y60.243 E18.16449
G1 X21.525 Y60.884 E18.18375
G1 X21.526 Y72.65 E18.53693
G1 X21.486 Y73.353 E18.55807
G1 X21.367 Y74.047 E18.57921
G1 X21.17 Y74.723 E18.60034
G1 X20.897 Y75.372 E18.62148
G1 X20.58 Y75.938 E18.64095
G1 X20.828 Y76.289 E18.65385
G1 X21.166 Y76.907 E18.675
G1 X21.433 Y77.558 E18.69612
G1 X21.623 Y78.236 E18.71725
G1 X21.736 Y78.931 E18.73839
G1 X21.769 Y79.572 E18.75765
G1 X21.77 Y91.338 E19.11084
G1 X21.73 Y92.041 E19.13197
G1 X21.611 Y92.735 E19.15311
G1 X21.414 Y93.411 E19.17425
G1 X21.141 Y94.06 E19.19538
G1 X21.01 Y94.293 E19.2034
G1 X21.401 Y94.846 E19.22373
G1 X21.739 Y95.464 E19.24488
G1 X22.006 Y96.115 E19.266
G1 X22.196 Y96.793 E19.28713
G1 X22.309 Y97.488 E19.30827
G1 X22.342 Y98.129 E19.32754
G1 X22.343 Y109.895 E19.68072
G1 X22.303 Y110.598 E19.70186
G1 X22.184 Y111.292 E19.72299
G1 X21.987 Y111.968 E19.74413
G1 X21.714 Y112.617 E19.76526
G1 X21.37 Y113.231 E19.78639
G1 X20.958 Y113.802 E19.80752
G1 X20.527 Y114.28 E19.82684
G1 X20.41 Y114.397 E19.83181
G1 X19.885 Y114.866 E19.85294
G1 X19.31 Y115.272 E19.87407
G1 X18.692 Y115.61 E19.89522
G1 X18.041 Y115.877 E19.91634
G1 X17.363 Y116.067 E19.93747
G1 X16.668 Y116.18 E19.95861
G1 X16.026 Y116.213 E19.9779
G1 X14.483 Y116.213 E20.02422
G1 X13.78 Y116.173 E20.04536
G1 X13.086 Y116.054 E20.06649
G1 X12.411 Y115.856 E20.08761
G1 X11.762 Y115.584 E20.10873
G1 X11.148 Y115.239 E20.12987
G1 X10.577 Y114.828 E20.15099
G1 X10.099 Y114.397 E20.17031
G1 X9.982 Y114.28 E20.17528
G1 X9.513 Y113.755 E20.19641
G1 X9.107 Y113.18 E20.21754
G1 X8.769 Y112.562 E20.23868
G1 X8.502 Y111.911 E20.2598
G1 X8.312 Y111.233 E20.28094
G1 X8.199 Y110.538 E20.30207
G1 X8.166 Y109.897 E20.32134
G1 X8.165 Y98.131 E20.67452
G1 X8.205 Y97.428 E20.69566
G1 X8.324 Y96.734 E20.7168
G1 X8.521 Y96.058 E20.73793
G1 X8.794 Y95.409 E20.75907
G1 X8.924 Y95.177 E20.76705
G1 X8.533 Y94.623 E20.7874
G1 X8.195 Y94.005 E20.80855
G1 X7.928 Y93.354 E20.82967
G1 X7.738 Y92.676 E20.8508
G1 X7.625 Y91.981 E20.87194
G1 X7.592 Y91.34 E20.89121
G1 X7.591 Y79.574 E21.24439
G1 X7.631 Y78.871 E21.26553
G1 X7.75 Y78.177 E21.28666
G1 X7.947 Y77.501 E21.3078
G1 X8.22 Y76.852 E21.32893
