;FLAVOR:Marlin
;TIME:7620
;Filament used: 3.78956m
;Layer height: 0.1
;MINX:15.376
;MINY:62.2
;MINZ:0.3
;MAXX:55.976
;MAXY:157.8
;MAXZ:31.5
;Generated with Cura_SteamEngine 4.4.1
M140 S60
M105
M190 S60
M104 S220
M105
M109 S220
M82 ;absolute extrusion mode
G28 ;Home
G1 Z15.0 F6000 ;Move the platform down 15mm
;Prime the extruder
G92 E0
G1 F200 E3
G92 E0
G92 E0
G92 E0
G1 F1500 E-6.5
;LAYER_COUNT:313
;LAYER:0
M107
G0 F2400 X21.145 Y62.502 Z0.3
;TYPE:SKIRT
G1 F1500 E0
G1 F1200 X21.914 Y62.323 E0.03555
G1 X22.698 Y62.223 E0.07114
G1 X23.293 Y62.2 E0.09795
G1 X48.059 Y62.2 E1.21306
G1 X48.848 Y62.24 E1.24863
G1 X49.628 Y62.359 E1.28416
G1 X50.393 Y62.557 E1.31974
G1 X51.133 Y62.831 E1.35527
G1 X51.842 Y63.179 E1.39083
G1 X52.513 Y63.597 E1.42642
G1 X53.137 Y64.08 E1.46195
G1 X53.574 Y64.485 E1.48878
G1 X53.691 Y64.602 E1.49623
G1 X54.221 Y65.188 E1.53181
G1 X54.688 Y65.824 E1.56733
G1 X55.089 Y66.504 E1.60288
G1 X55.419 Y67.222 E1.63846
G1 X55.674 Y67.969 E1.674
G1 X55.853 Y68.738 E1.70955
G1 X55.953 Y69.522 E1.74513
G1 X55.976 Y70.117 E1.77194
G1 X55.976 Y100.687 E3.14839
G1 X55.936 Y101.476 E3.18396
G1 X55.817 Y102.256 E3.21948
G1 X55.619 Y103.021 E3.25506
G1 X55.345 Y103.761 E3.29059
G1 X54.997 Y104.47 E3.32616
G1 X54.828 Y104.742 E3.34057
G1 X55.089 Y105.185 E3.36373
G1 X55.419 Y105.903 E3.3993
G1 X55.674 Y106.65 E3.43484
G1 X55.853 Y107.419 E3.4704
G1 X55.953 Y108.203 E3.50598
G1 X55.976 Y108.798 E3.53279
G1 X55.976 Y111.201 E3.64099
G1 X55.936 Y111.99 E3.67656
G1 X55.817 Y112.77 E3.71209
G1 X55.619 Y113.535 E3.74767
G1 X55.345 Y114.275 E3.7832
G1 X54.997 Y114.984 E3.81876
G1 X54.83 Y115.252 E3.83298
G1 X55.177 Y115.875 E3.86509
G1 X55.489 Y116.6 E3.90062
G1 X55.726 Y117.354 E3.93621
G1 X55.885 Y118.127 E3.97174
G1 X55.966 Y118.913 E4.00732
G1 X55.976 Y119.314 E4.02538
G1 X55.976 Y149.883 E5.40178
G1 X55.936 Y150.672 E5.43735
G1 X55.817 Y151.452 E5.47288
G1 X55.619 Y152.217 E5.50846
G1 X55.345 Y152.957 E5.54399
G1 X54.997 Y153.666 E5.57955
G1 X54.579 Y154.337 E5.61514
G1 X54.096 Y154.961 E5.65067
G1 X53.691 Y155.398 E5.6775
G1 X53.574 Y155.515 E5.68495
G1 X52.988 Y156.045 E5.72053
G1 X52.352 Y156.512 E5.75605
G1 X51.672 Y156.913 E5.7916
G1 X50.954 Y157.243 E5.82718
G1 X50.207 Y157.498 E5.86272
G1 X49.438 Y157.677 E5.89827
G1 X48.654 Y157.777 E5.93386
G1 X48.059 Y157.8 E5.96067
G1 X23.293 Y157.8 E7.07578
G1 X22.504 Y157.76 E7.11135
G1 X21.724 Y157.641 E7.14688
G1 X20.959 Y157.443 E7.18245
G1 X20.219 Y157.169 E7.21798
G1 X19.51 Y156.821 E7.25355
G1 X18.839 Y156.403 E7.28914
G1 X18.215 Y155.92 E7.32467
G1 X17.778 Y155.515 E7.3515
G1 X17.661 Y155.398 E7.35895
G1 X17.131 Y154.812 E7.39452
G1 X16.664 Y154.176 E7.43005
G1 X16.263 Y153.496 E7.4656
G1 X15.933 Y152.778 E7.50118
G1 X15.678 Y152.031 E7.53672
G1 X15.499 Y151.262 E7.57227
G1 X15.399 Y150.478 E7.60785
G1 X15.376 Y149.883 E7.63466
G1 X15.376 Y119.313 E9.01111
G1 X15.416 Y118.524 E9.04668
G1 X15.535 Y117.744 E9.0822
G1 X15.733 Y116.979 E9.11778
G1 X16.007 Y116.239 E9.15331
G1 X16.355 Y115.53 E9.18887
G1 X16.524 Y115.258 E9.20329
G1 X16.263 Y114.815 E9.22644
G1 X15.933 Y114.097 E9.26202
G1 X15.678 Y113.35 E9.29756
G1 X15.499 Y112.581 E9.33311
G1 X15.399 Y111.797 E9.3687
G1 X15.376 Y111.202 E9.39551
G1 X15.376 Y108.799 E9.50371
G1 X15.416 Y108.01 E9.53928
G1 X15.535 Y107.23 E9.57481
G1 X15.733 Y106.465 E9.61039
G1 X16.007 Y105.725 E9.64592
G1 X16.355 Y105.016 E9.68148
G1 X16.525 Y104.742 E9.696
G1 X16.297 Y104.363 E9.71591
G1 X15.96 Y103.648 E9.7515
G1 X15.698 Y102.903 E9.78706
G1 X15.512 Y102.136 E9.82259
G1 X15.405 Y101.354 E9.85813
G1 X15.376 Y100.686 E9.88824
G1 X15.376 Y70.117 E11.26464
G1 X15.416 Y69.328 E11.30021
G1 X15.535 Y68.548 E11.33573
G1 X15.733 Y67.783 E11.37131
G1 X16.007 Y67.043 E11.40684
G1 X16.355 Y66.334 E11.4424
G1 X16.773 Y65.663 E11.478
G1 X17.256 Y65.039 E11.51353
G1 X17.661 Y64.602 E11.54036
G1 X17.778 Y64.485 E11.54781
G1 X18.364 Y63.955 E11.58338
G1 X19 Y63.488 E11.61891
G1 X19.68 Y63.087 E11.65445
G1 X20.398 Y62.757 E11.69003
G1 X21.145 Y62.502 E11.72557
G0 F2400 X21.352 Y62.859
G1 F1200 X22.103 Y62.696 E11.76018
G1 X22.868 Y62.612 E11.79483
G1 X23.293 Y62.6 E11.81397
G1 X48.059 Y62.6 E12.92908
G1 X48.827 Y62.64 E12.96371
G1 X49.587 Y62.759 E12.99835
G1 X50.33 Y62.957 E13.03297
G1 X51.049 Y63.231 E13.06761
G1 X51.735 Y63.578 E13.10223
G1 X52.382 Y63.994 E13.13686
G1 X52.982 Y64.475 E13.17149
G1 X53.292 Y64.767 E13.19066
G1 X53.409 Y64.884 E13.19811
G1 X53.923 Y65.456 E13.23274
G1 X54.376 Y66.078 E13.26738
G1 X54.762 Y66.743 E13.302
G1 X55.077 Y67.445 E13.33665
G1 X55.317 Y68.176 E13.37129
G1 X55.48 Y68.927 E13.40589
G1 X55.564 Y69.692 E13.44054
G1 X55.576 Y70.117 E13.45969
G1 X55.576 Y100.687 E14.83613
G1 X55.536 Y101.455 E14.87076
G1 X55.417 Y102.215 E14.90539
G1 X55.219 Y102.958 E14.94002
G1 X54.945 Y103.677 E14.97466
G1 X54.598 Y104.363 E15.00927
G1 X54.359 Y104.735 E15.02918
G1 X54.376 Y104.759 E15.03051
G1 X54.762 Y105.424 E15.06513
G1 X55.077 Y106.126 E15.09977
G1 X55.317 Y106.857 E15.13442
G1 X55.48 Y107.608 E15.16902
G1 X55.564 Y108.373 E15.20367
G1 X55.576 Y108.798 E15.22281
G1 X55.576 Y111.201 E15.33101
G1 X55.536 Y111.969 E15.36564
G1 X55.417 Y112.729 E15.40027
G1 X55.219 Y113.472 E15.43489
G1 X54.945 Y114.191 E15.46954
G1 X54.598 Y114.877 E15.50415
G1 X54.353 Y115.258 E15.52455
G1 X54.557 Y115.567 E15.54122
G1 X54.912 Y116.25 E15.57588
G1 X55.194 Y116.966 E15.61053
G1 X55.399 Y117.707 E15.64515
G1 X55.527 Y118.465 E15.67976
G1 X55.576 Y119.314 E15.71805
G1 X55.576 Y149.883 E17.09445
G1 X55.536 Y150.651 E17.12907
G1 X55.417 Y151.411 E17.16371
G1 X55.219 Y152.154 E17.19833
G1 X54.945 Y152.873 E17.23298
G1 X54.598 Y153.559 E17.26759
G1 X54.182 Y154.206 E17.30222
G1 X53.701 Y154.806 E17.33685
G1 X53.409 Y155.116 E17.35602
G1 X53.292 Y155.233 E17.36348
G1 X52.72 Y155.747 E17.3981
G1 X52.098 Y156.2 E17.43275
G1 X51.433 Y156.586 E17.46737
G1 X50.731 Y156.901 E17.50201
G1 X50 Y157.141 E17.53665
G1 X49.249 Y157.304 E17.57126
G1 X48.484 Y157.388 E17.60591
G1 X48.059 Y157.4 E17.62505
G1 X23.293 Y157.4 E18.74016
G1 X22.525 Y157.36 E18.77479
G1 X21.765 Y157.241 E18.80943
G1 X21.022 Y157.043 E18.84405
G1 X20.303 Y156.769 E18.87869
G1 X19.617 Y156.422 E18.91331
G1 X18.97 Y156.006 E18.94794
G1 X18.37 Y155.525 E18.98257
G1 X18.06 Y155.233 E19.00174
G1 X17.943 Y155.116 E19.00919
G1 X17.429 Y154.544 E19.04382
G1 X16.976 Y153.922 E19.07846
G1 X16.59 Y153.257 E19.11308
G1 X16.275 Y152.555 E19.14773
G1 X16.035 Y151.824 E19.18237
G1 X15.872 Y151.073 E19.21697
G1 X15.788 Y150.308 E19.25163
G1 X15.776 Y149.883 E19.27077
G1 X15.776 Y119.313 E20.64721
G1 X15.816 Y118.545 E20.68184
G1 X15.935 Y117.785 E20.71647
G1 X16.133 Y117.042 E20.7511
G1 X16.407 Y116.323 E20.78574
G1 X16.754 Y115.637 E20.82036
G1 X16.993 Y115.265 E20.84026
G1 X16.976 Y115.241 E20.84159
G1 X16.59 Y114.576 E20.87621
G1 X16.275 Y113.874 E20.91085
G1 X16.035 Y113.143 E20.9455
G1 X15.872 Y112.392 E20.9801
G1 X15.788 Y111.627 E21.01475
G1 X15.776 Y111.202 E21.03389
G1 X15.776 Y108.799 E21.14209
G1 X15.816 Y108.031 E21.17672
G1 X15.935 Y107.271 E21.21135
G1 X16.133 Y106.528 E21.24598
G1 X16.407 Y105.809 E21.28062
G1 X16.754 Y105.123 E21.31523
G1 X16.996 Y104.747 E21.33537
G1 X16.926 Y104.649 E21.34079
G1 X16.549 Y103.979 E21.37541
G1 X16.243 Y103.273 E21.41005
G1 X16.012 Y102.539 E21.4447
G1 X15.858 Y101.786 E21.4793
G1 X15.776 Y100.686 E21.52897
G1 X15.776 Y70.117 E22.90537
G1 X15.816 Y69.349 E22.93999
G1 X15.935 Y68.589 E22.97463
G1 X16.133 Y67.846 E23.00925
G1 X16.407 Y67.127 E23.0439
G1 X16.754 Y66.441 E23.07851
G1 X17.17 Y65.794 E23.11315
G1 X17.651 Y65.194 E23.14777
G1 X17.943 Y64.884 E23.16695
G1 X18.06 Y64.767 E23.1744
G1 X18.632 Y64.253 E23.20902
G1 X19.254 Y63.8 E23.24367
G1 X19.919 Y63.414 E23.27829
G1 X20.621 Y63.099 E23.31293
G1 X21.352 Y62.859 E23.34758
G0 F2400 X21.556 Y63.219
G1 F1200 X22.289 Y63.072 E23.38124
G1 X23.293 Y63 E23.42656
G1 X48.059 Y63 E24.54167
G1 X48.806 Y63.04 E24.57535
G1 X49.544 Y63.159 E24.60901
G1 X50.266 Y63.357 E24.64272
G1 X50.962 Y63.63 E24.67638
G1 X51.625 Y63.977 E24.71008
G1 X52.248 Y64.392 E24.74378
G1 X53.009 Y65.05 E24.78908
G1 X53.126 Y65.167 E24.79653
G1 X53.626 Y65.724 E24.83023
G1 X54.063 Y66.33 E24.86387
G1 X54.434 Y66.98 E24.89757
G1 X54.733 Y67.666 E24.93126
G1 X54.957 Y68.38 E24.96496
G1 X55.104 Y69.113 E24.99862
G1 X55.176 Y70.117 E25.04394
G1 X55.176 Y100.687 E26.42038
G1 X55.136 Y101.434 E26.45406
G1 X55.017 Y102.172 E26.48772
G1 X54.819 Y102.894 E26.52143
G1 X54.546 Y103.59 E26.55509
G1 X54.199 Y104.253 E26.58879
G1 X53.871 Y104.745 E26.61541
G1 X54.063 Y105.011 E26.63018
G1 X54.434 Y105.661 E26.66388
G1 X54.733 Y106.347 E26.69758
G1 X54.957 Y107.061 E26.73127
G1 X55.104 Y107.794 E26.76493
G1 X55.176 Y108.798 E26.81025
G1 X55.176 Y111.201 E26.91845
G1 X55.136 Y111.948 E26.95213
G1 X55.017 Y112.686 E26.98579
G1 X54.819 Y113.408 E27.0195
G1 X54.546 Y114.104 E27.05316
G1 X54.199 Y114.767 E27.08686
G1 X53.874 Y115.254 E27.11322
G1 X53.92 Y115.313 E27.11659
G1 X54.314 Y115.948 E27.15023
G1 X54.638 Y116.622 E27.18391
G1 X54.888 Y117.327 E27.21759
G1 X55.062 Y118.055 E27.25129
G1 X55.157 Y118.797 E27.28497
G1 X55.176 Y119.314 E27.30826
G1 X55.176 Y149.883 E28.68466
G1 X55.136 Y150.63 E28.71834
G1 X55.017 Y151.368 E28.752
G1 X54.819 Y152.09 E28.78571
G1 X54.546 Y152.786 E28.81937
G1 X54.199 Y153.449 E28.85307
G1 X53.784 Y154.072 E28.88677
G1 X53.126 Y154.833 E28.93207
G1 X53.009 Y154.95 E28.93952
G1 X52.452 Y155.45 E28.97322
G1 X51.846 Y155.887 E29.00686
G1 X51.196 Y156.258 E29.04056
G1 X50.51 Y156.557 E29.07425
G1 X49.796 Y156.781 E29.10795
G1 X49.063 Y156.928 E29.14161
G1 X48.059 Y157 E29.18693
G1 X23.293 Y157 E30.30204
G1 X22.546 Y156.96 E30.33573
G1 X21.808 Y156.841 E30.36938
G1 X21.086 Y156.643 E30.40309
G1 X20.39 Y156.37 E30.43676
G1 X19.727 Y156.023 E30.47045
G1 X19.104 Y155.608 E30.50415
G1 X18.343 Y154.95 E30.54945
G1 X18.226 Y154.833 E30.5569
G1 X17.726 Y154.276 E30.5906
G1 X17.289 Y153.67 E30.62424
G1 X16.918 Y153.02 E30.65794
G1 X16.619 Y152.334 E30.69164
G1 X16.395 Y151.62 E30.72533
G1 X16.248 Y150.887 E30.75899
G1 X16.176 Y149.883 E30.80431
G1 X16.176 Y119.313 E32.18075
G1 X16.216 Y118.566 E32.21444
G1 X16.335 Y117.828 E32.2481
G1 X16.533 Y117.106 E32.2818
G1 X16.806 Y116.41 E32.31547
G1 X17.153 Y115.747 E32.34916
G1 X17.481 Y115.255 E32.37579
G1 X17.289 Y114.989 E32.39056
G1 X16.918 Y114.339 E32.42425
G1 X16.619 Y113.653 E32.45795
G1 X16.395 Y112.939 E32.49164
G1 X16.248 Y112.206 E32.5253
G1 X16.176 Y111.202 E32.57063
G1 X16.176 Y108.799 E32.67882
G1 X16.216 Y108.052 E32.71251
G1 X16.335 Y107.314 E32.74616
G1 X16.533 Y106.592 E32.77987
G1 X16.806 Y105.896 E32.81354
G1 X17.153 Y105.233 E32.84723
G1 X17.48 Y104.743 E32.87375
G1 X17.157 Y104.26 E32.89992
G1 X16.81 Y103.597 E32.93361
G1 X16.536 Y102.901 E32.96729
G1 X16.337 Y102.18 E33.00097
G1 X16.217 Y101.441 E33.03468
G1 X16.176 Y100.686 E33.06872
G1 X16.176 Y70.117 E34.44512
G1 X16.216 Y69.37 E34.4788
G1 X16.335 Y68.632 E34.51246
G1 X16.533 Y67.91 E34.54617
G1 X16.806 Y67.214 E34.57983
G1 X17.153 Y66.551 E34.61352
G1 X17.568 Y65.928 E34.64723
G1 X18.226 Y65.167 E34.69253
G1 X18.343 Y65.05 E34.69998
G1 X18.9 Y64.55 E34.73368
G1 X19.506 Y64.113 E34.76732
G1 X20.156 Y63.742 E34.80102
G1 X20.842 Y63.443 E34.83471
G1 X21.556 Y63.219 E34.8684
G0 F2400 X21.757 Y63.581
G1 F1200 X22.472 Y63.451 E34.90113
G1 X23.293 Y63.4 E34.93816
G1 X48.059 Y63.4 E36.05327
G1 X48.784 Y63.44 E36.08597
G1 X49.501 Y63.559 E36.11869
G1 X50.2 Y63.757 E36.1514
G1 X50.873 Y64.03 E36.18411
G1 X51.512 Y64.375 E36.2168
G1 X52.109 Y64.789 E36.24951
G1 X52.726 Y65.333 E36.28655
G1 X52.843 Y65.45 E36.294
G1 X53.327 Y65.991 E36.32669
G1 X53.75 Y66.582 E36.35941
G1 X54.104 Y67.216 E36.3921
G1 X54.387 Y67.885 E36.42481
G1 X54.595 Y68.581 E36.45752
G1 X54.725 Y69.296 E36.49024
G1 X54.776 Y70.117 E36.52728
G1 X54.776 Y100.687 E37.90372
G1 X54.736 Y101.412 E37.93641
G1 X54.617 Y102.129 E37.96914
G1 X54.419 Y102.828 E38.00185
G1 X54.146 Y103.501 E38.03455
G1 X53.801 Y104.14 E38.06725
G1 X53.387 Y104.737 E38.09996
G1 X53.38 Y104.746 E38.10047
G1 X53.75 Y105.263 E38.1291
G1 X54.104 Y105.897 E38.16179
G1 X54.387 Y106.566 E38.1945
G1 X54.595 Y107.262 E38.22721
G1 X54.725 Y107.977 E38.25993
G1 X54.776 Y108.798 E38.29697
G1 X54.776 Y111.201 E38.40516
G1 X54.736 Y111.926 E38.43786
G1 X54.617 Y112.643 E38.47058
G1 X54.419 Y113.342 E38.50329
G1 X54.146 Y114.015 E38.53599
G1 X53.801 Y114.654 E38.56869
G1 X53.387 Y115.251 E38.6014
G1 X53.377 Y115.262 E38.60207
G1 X53.698 Y115.698 E38.62645
G1 X54.061 Y116.327 E38.65915
G1 X54.354 Y116.992 E38.69187
G1 X54.572 Y117.685 E38.72458
G1 X54.712 Y118.397 E38.75725
G1 X54.776 Y119.314 E38.79864
G1 X54.776 Y149.883 E40.17504
G1 X54.736 Y150.608 E40.20773
G1 X54.617 Y151.325 E40.24046
G1 X54.419 Y152.024 E40.27317
G1 X54.146 Y152.697 E40.30587
G1 X53.801 Y153.336 E40.33856
G1 X53.387 Y153.933 E40.37128
G1 X52.843 Y154.55 E40.40831
G1 X52.726 Y154.667 E40.41576
G1 X52.185 Y155.151 E40.44845
G1 X51.594 Y155.574 E40.48117
G1 X50.96 Y155.928 E40.51387
G1 X50.291 Y156.211 E40.54657
G1 X49.595 Y156.419 E40.57928
G1 X48.88 Y156.549 E40.612
G1 X48.059 Y156.6 E40.64904
G1 X23.293 Y156.6 E41.76415
G1 X22.568 Y156.56 E41.79684
G1 X21.851 Y156.441 E41.82957
G1 X21.152 Y156.243 E41.86228
G1 X20.479 Y155.97 E41.89498
G1 X19.84 Y155.625 E41.92768
G1 X19.243 Y155.211 E41.96039
G1 X18.626 Y154.667 E41.99743
G1 X18.509 Y154.55 E42.00488
G1 X18.025 Y154.009 E42.03756
G1 X17.602 Y153.418 E42.07029
G1 X17.248 Y152.784 E42.10298
G1 X16.965 Y152.115 E42.13569
G1 X16.757 Y151.419 E42.1684
G1 X16.627 Y150.704 E42.20112
G1 X16.576 Y149.883 E42.23815
G1 X16.576 Y119.313 E43.6146
G1 X16.616 Y118.588 E43.64729
G1 X16.735 Y117.871 E43.68001
G1 X16.933 Y117.172 E43.71273
G1 X17.206 Y116.499 E43.74543
G1 X17.551 Y115.86 E43.77812
G1 X17.965 Y115.263 E43.81084
G1 X17.972 Y115.254 E43.81135
G1 X17.602 Y114.737 E43.83997
G1 X17.248 Y114.103 E43.87267
G1 X16.965 Y113.434 E43.90538
G1 X16.757 Y112.738 E43.93808
G1 X16.627 Y112.023 E43.9708
G1 X16.576 Y111.202 E44.00784
G1 X16.576 Y108.799 E44.11604
G1 X16.616 Y108.074 E44.14873
G1 X16.735 Y107.357 E44.18146
G1 X16.933 Y106.658 E44.21417
G1 X17.206 Y105.985 E44.24687
G1 X17.551 Y105.346 E44.27957
G1 X17.965 Y104.749 E44.31228
G1 X17.977 Y104.736 E44.31308
G1 X17.781 Y104.488 E44.32731
G1 X17.396 Y103.873 E44.35998
G1 X17.081 Y103.218 E44.3927
G1 X16.84 Y102.533 E44.4254
G1 X16.675 Y101.826 E44.45809
G1 X16.589 Y101.104 E44.49083
G1 X16.576 Y100.686 E44.50966
G1 X16.576 Y70.117 E45.88605
G1 X16.616 Y69.392 E45.91875
G1 X16.735 Y68.675 E45.95147
G1 X16.933 Y67.976 E45.98418
G1 X17.206 Y67.303 E46.01688
G1 X17.551 Y66.664 E46.04958
G1 X17.965 Y66.067 E46.08229
G1 X18.509 Y65.45 E46.11933
G1 X18.626 Y65.333 E46.12678
G1 X19.167 Y64.849 E46.15946
G1 X19.758 Y64.426 E46.19219
G1 X20.392 Y64.072 E46.22488
G1 X21.061 Y63.789 E46.25759
G1 X21.757 Y63.581 E46.2903
G0 F2400 X21.278 Y64.136
G1 F1200 X21.956 Y63.946 E46.322
G1 X22.651 Y63.833 E46.3537
G1 X23.293 Y63.8 E46.38265
G1 X48.059 Y63.8 E47.49776
G1 X48.762 Y63.84 E47.52947
G1 X49.456 Y63.959 E47.56117
G1 X50.131 Y64.157 E47.59284
G1 X50.78 Y64.429 E47.62453
G1 X51.394 Y64.774 E47.65624
G1 X51.965 Y65.185 E47.68792
G1 X52.443 Y65.616 E47.71689
G1 X52.56 Y65.733 E47.72434
G1 X53.029 Y66.258 E47.75604
G1 X53.435 Y66.833 E47.78774
G1 X53.773 Y67.451 E47.81945
G1 X54.04 Y68.102 E47.85113
G1 X54.23 Y68.78 E47.88284
G1 X54.343 Y69.475 E47.91454
G1 X54.376 Y70.117 E47.94349
G1 X54.376 Y100.687 E49.31993
G1 X54.336 Y101.39 E49.35163
G1 X54.217 Y102.084 E49.38334
G1 X54.019 Y102.759 E49.41501
G1 X53.747 Y103.408 E49.44669
G1 X53.402 Y104.022 E49.4784
G1 X52.991 Y104.593 E49.51008
G1 X52.854 Y104.743 E49.51923
G1 X53.029 Y104.939 E49.53106
G1 X53.435 Y105.514 E49.56275
G1 X53.773 Y106.132 E49.59447
G1 X54.04 Y106.783 E49.62615
G1 X54.23 Y107.461 E49.65785
G1 X54.343 Y108.156 E49.68956
G1 X54.376 Y108.798 E49.7185
G1 X54.376 Y111.201 E49.8267
G1 X54.336 Y111.904 E49.8584
G1 X54.217 Y112.598 E49.89011
G1 X54.019 Y113.273 E49.92178
G1 X53.747 Y113.922 E49.95347
G1 X53.402 Y114.536 E49.98518
G1 X52.991 Y115.107 E50.01685
