;FLAVOR:Marlin
;TIME:7943
;Filament used: 3.62656m
;Layer height: 0.1
;MINX:19.697
;MINY:66.035
;MINZ:0.3
;MAXX:107.603
;MAXY:153.965
;MAXZ:15
;Generated with Cura_SteamEngine 4.4.1
M140 S60
M105
M190 S60
M104 S220
M105
M109 S220
M82 ;absolute extrusion mode
G28 ;Home
G1 Z15.0 F6000 ;Move the platform down 15mm
;Prime the extruder
G92 E0
G1 F200 E3
G92 E0
G92 E0
G92 E0
G1 F1500 E-6.5
;LAYER_COUNT:148
;LAYER:0
M107
G0 F2400 X43.996 Y75.868 Z0.3
;TYPE:SKIRT
G1 F1500 E0
G1 F1200 X44.48 Y75.611 E0.02467
G1 X44.53 Y75.585 E0.02721
G1 X46.786 Y74.432 E0.14129
G1 X46.832 Y74.409 E0.1436
G1 X47.465 Y74.097 E0.17538
G1 X47.647 Y74.013 E0.1844
G1 X47.882 Y73.913 E0.1959
G1 X47.996 Y73.867 E0.20144
G1 X50.559 Y72.878 E0.32513
G1 X50.606 Y72.861 E0.32738
G1 X51.217 Y72.635 E0.35672
G1 X51.41 Y72.569 E0.3659
G1 X51.648 Y72.496 E0.37711
G1 X51.733 Y72.472 E0.38109
G1 X51.94 Y72.414 E0.39077
G1 X51.971 Y72.405 E0.39222
G1 X54.464 Y71.731 E0.5085
G1 X54.512 Y71.718 E0.51074
G1 X55.177 Y71.548 E0.54164
G1 X55.341 Y71.51 E0.54922
G1 X55.554 Y71.466 E0.55902
G1 X55.685 Y71.442 E0.56501
G1 X56.012 Y71.387 E0.57994
G1 X56.036 Y71.383 E0.58104
G1 X58.554 Y70.977 E0.69588
G1 X58.602 Y70.97 E0.69806
G1 X59.28 Y70.87 E0.72892
G1 X59.538 Y70.841 E0.74061
G1 X60.076 Y70.801 E0.7649
G1 X60.148 Y70.796 E0.76815
G1 X62.715 Y70.657 E0.8839
G1 X62.763 Y70.655 E0.88606
G1 X63.424 Y70.628 E0.91585
G1 X63.625 Y70.625 E0.9249
G1 X63.825 Y70.628 E0.93391
G1 X63.918 Y70.631 E0.9381
G1 X64.236 Y70.644 E0.95243
G1 X64.274 Y70.646 E0.95414
G1 X66.873 Y70.78 E1.07132
G1 X66.925 Y70.783 E1.07366
G1 X67.591 Y70.827 E1.10372
G1 X67.79 Y70.846 E1.11272
G1 X68.003 Y70.872 E1.12238
G1 X68.084 Y70.882 E1.12605
G1 X68.325 Y70.917 E1.13702
G1 X68.371 Y70.924 E1.13911
G1 X70.822 Y71.312 E1.25085
G1 X70.875 Y71.321 E1.25327
G1 X71.531 Y71.435 E1.28325
G1 X71.713 Y71.472 E1.29161
G1 X72.056 Y71.55 E1.30745
G1 X72.175 Y71.579 E1.31296
G1 X74.858 Y72.286 E1.43789
G1 X74.91 Y72.3 E1.44032
G1 X75.554 Y72.48 E1.47042
G1 X75.8 Y72.558 E1.48204
G1 X76.302 Y72.738 E1.50606
G1 X76.368 Y72.763 E1.50923
G1 X78.731 Y73.663 E1.62309
G1 X78.78 Y73.682 E1.62545
G1 X79.449 Y73.948 E1.65787
G1 X79.693 Y74.055 E1.66986
G1 X80.236 Y74.319 E1.69705
G1 X80.291 Y74.346 E1.69981
G1 X82.499 Y75.466 E1.81128
G1 X82.542 Y75.489 E1.81348
G1 X83.16 Y75.813 E1.8449
G1 X83.384 Y75.941 E1.85651
G1 X83.789 Y76.192 E1.87797
G1 X83.853 Y76.233 E1.88139
G1 X86.031 Y77.647 E1.99831
G1 X86.071 Y77.673 E2.00046
G1 X86.665 Y78.07 E2.03263
G1 X86.876 Y78.222 E2.04434
G1 X87.268 Y78.527 E2.0667
G1 X87.324 Y78.571 E2.06991
G1 X89.207 Y80.097 E2.17904
G1 X89.245 Y80.128 E2.18125
G1 X89.773 Y80.568 E2.21219
G1 X89.923 Y80.701 E2.22122
G1 X90.175 Y80.936 E2.23673
G1 X90.255 Y81.013 E2.24173
G1 X92.208 Y82.95 E2.36558
G1 X92.245 Y82.988 E2.36797
G1 X92.711 Y83.464 E2.39796
G1 X92.887 Y83.656 E2.40969
G1 X93.289 Y84.131 E2.43771
G1 X93.334 Y84.186 E2.44091
G1 X94.911 Y86.125 E2.55345
G1 X94.94 Y86.161 E2.55553
G1 X95.362 Y86.694 E2.58614
G1 X95.521 Y86.91 E2.59821
G1 X95.817 Y87.347 E2.62198
G1 X95.853 Y87.401 E2.6249
G1 X97.246 Y89.54 E2.73983
G1 X97.273 Y89.583 E2.74212
G1 X97.645 Y90.172 E2.77349
G1 X97.775 Y90.395 E2.78511
G1 X98.034 Y90.879 E2.80983
G1 X98.066 Y90.941 E2.81297
G1 X99.131 Y93.027 E2.91842
G1 X99.153 Y93.07 E2.9206
G1 X99.477 Y93.726 E2.95354
G1 X99.562 Y93.912 E2.96275
G1 X99.681 Y94.192 E2.97645
G1 X99.724 Y94.298 E2.9816
G1 X100.742 Y96.922 E3.10833
G1 X100.76 Y96.968 E3.11055
G1 X100.986 Y97.575 E3.13971
G1 X101.053 Y97.774 E3.14917
G1 X101.123 Y98.002 E3.15991
G1 X101.146 Y98.079 E3.16353
G1 X101.217 Y98.33 E3.17527
G1 X101.228 Y98.37 E3.17714
G1 X101.9 Y100.853 E3.29296
G1 X101.912 Y100.897 E3.29501
G1 X102.097 Y101.617 E3.32849
G1 X102.154 Y101.878 E3.34051
G1 X102.23 Y102.302 E3.35991
G1 X102.24 Y102.366 E3.36283
G1 X102.661 Y104.987 E3.48235
G1 X102.669 Y105.037 E3.48463
G1 X102.764 Y105.687 E3.51421
G1 X102.787 Y105.881 E3.52301
G1 X102.806 Y106.089 E3.53241
G1 X102.814 Y106.193 E3.53711
G1 X102.836 Y106.548 E3.55312
G1 X102.838 Y106.579 E3.55452
G1 X102.964 Y108.937 E3.66084
G1 X102.966 Y108.984 E3.66296
G1 X102.995 Y109.703 E3.69536
G1 X102.998 Y109.901 E3.70428
G1 X102.994 Y110.173 E3.71653
G1 X102.99 Y110.292 E3.72189
G1 X102.853 Y113.16 E3.85117
G1 X102.85 Y113.213 E3.85356
G1 X102.809 Y113.869 E3.88315
G1 X102.782 Y114.14 E3.89542
G1 X102.697 Y114.751 E3.92319
G1 X102.688 Y114.812 E3.92597
G1 X102.315 Y117.195 E4.03457
G1 X102.187 Y117.947 E4.06892
G1 X102.143 Y118.165 E4.07893
G1 X102.09 Y118.391 E4.08938
G1 X102.073 Y118.458 E4.09249
G1 X101.995 Y118.764 E4.10671
G1 X101.987 Y118.798 E4.10829
G1 X101.351 Y121.197 E4.22003
G1 X101.337 Y121.246 E4.22233
G1 X101.132 Y121.977 E4.25651
G1 X101.052 Y122.227 E4.26833
G1 X100.864 Y122.748 E4.29327
G1 X100.841 Y122.81 E4.29625
G1 X99.945 Y125.156 E4.40932
G1 X99.928 Y125.199 E4.4114
G1 X99.673 Y125.842 E4.44255
G1 X99.593 Y126.029 E4.45171
G1 X99.498 Y126.234 E4.46188
G1 X99.463 Y126.307 E4.46552
G1 X99.351 Y126.535 E4.47696
G1 X99.329 Y126.58 E4.47922
G1 X98.191 Y128.818 E4.59226
G1 X98.168 Y128.862 E4.5945
G1 X97.857 Y129.453 E4.62457
G1 X97.738 Y129.663 E4.63544
G1 X97.473 Y130.094 E4.65822
G1 X97.429 Y130.162 E4.66187
G1 X96.049 Y132.297 E4.77633
G1 X96.021 Y132.34 E4.77864
G1 X95.631 Y132.925 E4.8103
G1 X95.518 Y133.086 E4.81915
G1 X95.354 Y133.305 E4.83147
G1 X95.279 Y133.401 E4.83696
G1 X93.523 Y135.588 E4.96324
G1 X93.485 Y135.634 E4.96593
G1 X93.039 Y136.171 E4.99736
G1 X92.869 Y136.362 E5.00887
G1 X92.48 Y136.768 E5.03419
G1 X92.433 Y136.816 E5.03721
G1 X90.663 Y138.595 E5.15021
G1 X90.626 Y138.631 E5.15253
G1 X90.11 Y139.135 E5.18501
G1 X89.908 Y139.318 E5.19728
G1 X89.443 Y139.708 E5.22461
G1 X89.397 Y139.746 E5.2273
G1 X87.515 Y141.272 E5.33639
G1 X87.478 Y141.302 E5.33853
G1 X86.895 Y141.762 E5.37197
G1 X86.737 Y141.88 E5.38085
G1 X86.548 Y142.013 E5.39126
G1 X86.463 Y142.071 E5.39589
G1 X86.253 Y142.21 E5.40723
G1 X86.227 Y142.227 E5.40863
G1 X84.209 Y143.538 E5.51698
G1 X84.16 Y143.569 E5.51959
G1 X83.533 Y143.962 E5.55291
G1 X83.368 Y144.059 E5.56153
G1 X83.087 Y144.215 E5.576
G1 X82.989 Y144.268 E5.58102
G1 X80.6 Y145.499 E5.70202
G1 X80.555 Y145.522 E5.7043
G1 X79.866 Y145.865 E5.73895
G1 X79.624 Y145.974 E5.7509
G1 X79.125 Y146.178 E5.77518
G1 X79.063 Y146.203 E5.77819
G1 X76.734 Y147.105 E5.89064
G1 X76.683 Y147.124 E5.89309
G1 X75.98 Y147.384 E5.92684
G1 X75.729 Y147.467 E5.93874
G1 X75.209 Y147.617 E5.96311
G1 X75.148 Y147.634 E5.96596
G1 X72.71 Y148.291 E6.07965
G1 X72.662 Y148.304 E6.08189
G1 X71.983 Y148.477 E6.11344
G1 X71.725 Y148.532 E6.12532
G1 X71.186 Y148.628 E6.14997
G1 X71.119 Y148.64 E6.15304
G1 X68.604 Y149.039 E6.26769
G1 X68.554 Y149.046 E6.26996
G1 X67.888 Y149.142 E6.30026
G1 X67.691 Y149.165 E6.30919
G1 X67.476 Y149.184 E6.31891
G1 X67.393 Y149.19 E6.32266
G1 X67.147 Y149.206 E6.33376
G1 X67.101 Y149.209 E6.33583
G1 X64.609 Y149.339 E6.44819
G1 X64.561 Y149.341 E6.45035
G1 X63.894 Y149.367 E6.48041
G1 X63.685 Y149.369 E6.48982
G1 X63.374 Y149.363 E6.50382
G1 X63.268 Y149.36 E6.5086
G1 X60.514 Y149.226 E6.63275
G1 X60.465 Y149.223 E6.63496
G1 X59.758 Y149.179 E6.66685
G1 X59.551 Y149.16 E6.67621
G1 X59.327 Y149.133 E6.68637
G1 X59.24 Y149.122 E6.69032
G1 X58.944 Y149.079 E6.70379
G1 X58.908 Y149.073 E6.70543
G1 X56.406 Y148.683 E6.81945
G1 X56.354 Y148.675 E6.82181
G1 X55.634 Y148.552 E6.8547
G1 X55.391 Y148.502 E6.86587
G1 X54.917 Y148.387 E6.88783
G1 X54.839 Y148.366 E6.89147
G1 X52.311 Y147.692 E7.00927
G1 X52.263 Y147.679 E7.01151
G1 X51.641 Y147.504 E7.04061
G1 X51.456 Y147.447 E7.04932
G1 X51.218 Y147.366 E7.06064
G1 X51.137 Y147.337 E7.06452
G1 X50.9 Y147.25 E7.07588
G1 X50.854 Y147.233 E7.07809
G1 X48.556 Y146.353 E7.18889
G1 X48.504 Y146.333 E7.1914
G1 X47.86 Y146.075 E7.22263
G1 X47.686 Y146 E7.23116
G1 X47.455 Y145.893 E7.24263
G1 X47.371 Y145.852 E7.24684
G1 X47.175 Y145.755 E7.25668
G1 X47.147 Y145.741 E7.25809
G1 X44.827 Y144.567 E7.37517
G1 X44.785 Y144.546 E7.37728
G1 X44.159 Y144.219 E7.40908
G1 X43.925 Y144.085 E7.42122
G1 X43.473 Y143.804 E7.44519
G1 X43.422 Y143.772 E7.4479
G1 X41.303 Y142.405 E7.56144
G1 X41.259 Y142.376 E7.56381
G1 X40.669 Y141.983 E7.59573
G1 X40.516 Y141.875 E7.60416
G1 X40.348 Y141.75 E7.61359
G1 X40.264 Y141.686 E7.61834
G1 X40.011 Y141.486 E7.63287
G1 X39.985 Y141.465 E7.63437
G1 X37.997 Y139.863 E7.74933
G1 X37.953 Y139.827 E7.75189
G1 X37.417 Y139.381 E7.78328
G1 X37.23 Y139.214 E7.79457
G1 X36.855 Y138.855 E7.81795
G1 X36.801 Y138.802 E7.82135
G1 X35.019 Y137.022 E7.93476
G1 X34.984 Y136.987 E7.93699
G1 X34.456 Y136.445 E7.97106
G1 X34.274 Y136.243 E7.9833
G1 X33.921 Y135.821 E8.00807
G1 X33.884 Y135.776 E8.0107
G1 X32.393 Y133.934 E8.1174
G1 X32.36 Y133.893 E8.11977
G1 X31.931 Y133.347 E8.15104
G1 X31.808 Y133.181 E8.16034
G1 X31.615 Y132.904 E8.17554
G1 X31.558 Y132.82 E8.18011
G1 X30.043 Y130.509 E8.30453
G1 X30.019 Y130.472 E8.30652
G1 X29.652 Y129.897 E8.33723
G1 X29.508 Y129.65 E8.3501
G1 X29.239 Y129.144 E8.37591
G1 X29.214 Y129.096 E8.37834
G1 X28.08 Y126.883 E8.49031
G1 X28.057 Y126.837 E8.49262
G1 X27.743 Y126.202 E8.52452
G1 X27.635 Y125.962 E8.53637
G1 X27.428 Y125.453 E8.56111
G1 X27.405 Y125.393 E8.564
G1 X26.494 Y123.033 E8.67791
G1 X26.474 Y122.982 E8.68037
G1 X26.233 Y122.328 E8.71175
G1 X26.153 Y122.085 E8.72327
G1 X26.013 Y121.602 E8.74592
G1 X25.994 Y121.532 E8.74918
G1 X25.33 Y119.055 E8.86465
G1 X25.315 Y118.997 E8.86735
G1 X25.142 Y118.306 E8.89942
G1 X25.102 Y118.127 E8.90768
G1 X25.053 Y117.878 E8.9191
G1 X25.036 Y117.789 E8.92318
G1 X25.002 Y117.59 E8.93227
G1 X24.995 Y117.548 E8.93419
G1 X24.603 Y115.075 E9.04693
G1 X24.596 Y115.024 E9.04925
G1 X24.501 Y114.364 E9.07927
G1 X24.478 Y114.164 E9.08834
G1 X24.454 Y113.889 E9.10077
G1 X24.446 Y113.777 E9.10582
G1 X24.291 Y111.01 E9.2306
G1 X24.288 Y110.96 E9.23286
G1 X24.257 Y110.221 E9.26616
G1 X24.256 Y109.963 E9.27778
G1 X24.27 Y109.491 E9.29904
G1 X24.273 Y109.416 E9.30242
G1 X24.403 Y106.841 E9.41851
G1 X24.405 Y106.793 E9.42067
G1 X24.451 Y106.074 E9.45311
G1 X24.478 Y105.807 E9.4652
G1 X24.556 Y105.247 E9.49065
G1 X24.566 Y105.184 E9.49353
G1 X24.952 Y102.735 E9.60516
G1 X24.959 Y102.691 E9.60716
G1 X25.083 Y101.963 E9.64041
G1 X25.139 Y101.694 E9.65278
G1 X25.267 Y101.182 E9.67655
G1 X25.283 Y101.124 E9.67926
G1 X25.902 Y98.813 E9.78698
G1 X25.914 Y98.766 E9.78916
G1 X26.104 Y98.093 E9.82065
G1 X26.172 Y97.879 E9.83076
G1 X26.266 Y97.611 E9.84355
G1 X26.296 Y97.53 E9.84744
G1 X27.287 Y94.909 E9.9736
G1 X27.306 Y94.858 E9.97605
G1 X27.554 Y94.231 E10.00641
G1 X27.661 Y93.987 E10.01841
G1 X27.915 Y93.462 E10.04467
G1 X27.943 Y93.406 E10.04749
G1 X29.072 Y91.173 E10.16015
G1 X29.095 Y91.128 E10.16243
G1 X29.422 Y90.503 E10.19419
G1 X29.527 Y90.317 E10.2038
G1 X29.634 Y90.139 E10.21316
G1 X29.672 Y90.077 E10.21643
G1 X29.818 Y89.845 E10.22877
G1 X29.842 Y89.807 E10.2308
G1 X31.245 Y87.638 E10.34711
G1 X31.669 Y87.002 E10.38152
G1 X31.822 Y86.789 E10.39333
G1 X32.147 Y86.371 E10.41717
G1 X32.19 Y86.317 E10.42028
G1 X33.771 Y84.363 E10.53345
G1 X33.806 Y84.32 E10.53595
G1 X34.29 Y83.74 E10.56996
G1 X34.462 Y83.549 E10.58154
G1 X34.807 Y83.191 E10.60392
G1 X34.853 Y83.143 E10.60692
G1 X36.541 Y81.455 E10.7144
G1 X36.577 Y81.421 E10.71663
G1 X37.092 Y80.92 E10.74898
G1 X37.243 Y80.781 E10.75822
G1 X37.447 Y80.604 E10.77038
G1 X37.515 Y80.546 E10.77441
G1 X37.721 Y80.376 E10.78643
G1 X37.735 Y80.364 E10.78726
G1 X39.669 Y78.785 E10.89968
G1 X39.712 Y78.751 E10.90215
G1 X40.311 Y78.277 E10.93654
G1 X40.511 Y78.13 E10.94772
G1 X40.863 Y77.889 E10.96693
G1 X40.929 Y77.845 E10.9705
G1 X43.145 Y76.398 E11.08966
G1 X43.178 Y76.376 E11.09145
G1 X43.749 Y76.012 E11.12194
G1 X43.996 Y75.868 E11.13481
G0 F2400 X44.183 Y76.222
G1 F1200 X44.667 Y75.965 E11.15949
G1 X44.712 Y75.942 E11.16176
G1 X46.968 Y74.789 E11.27584
G1 X47.009 Y74.768 E11.27791
G1 X47.642 Y74.456 E11.30969
G1 X47.804 Y74.382 E11.31771
G1 X48.039 Y74.282 E11.3292
G1 X48.14 Y74.241 E11.33411
G1 X50.703 Y73.252 E11.45781
G1 X50.745 Y73.236 E11.45983
G1 X51.356 Y73.01 E11.48916
G1 X51.528 Y72.952 E11.49734
G1 X51.766 Y72.879 E11.50855
G1 X51.841 Y72.857 E11.51207
G1 X52.048 Y72.799 E11.52174
G1 X52.076 Y72.791 E11.52306
G1 X54.569 Y72.117 E11.63934
G1 X54.611 Y72.106 E11.64129
G1 X55.276 Y71.936 E11.6722
G1 X55.422 Y71.902 E11.67894
G1 X55.635 Y71.858 E11.68874
G1 X55.751 Y71.836 E11.69405
G1 X56.078 Y71.781 E11.70898
G1 X56.1 Y71.778 E11.70998
G1 X58.618 Y71.372 E11.82482
G1 X58.66 Y71.365 E11.82674
G1 X59.338 Y71.265 E11.8576
G1 X59.568 Y71.24 E11.86802
G1 X60.106 Y71.2 E11.89231
G1 X60.17 Y71.196 E11.89519
G1 X62.737 Y71.057 E12.01094
G1 X62.779 Y71.055 E12.01284
G1 X63.44 Y71.028 E12.04262
G1 X63.619 Y71.025 E12.05069
G1 X63.819 Y71.028 E12.05969
G1 X63.902 Y71.031 E12.06343
G1 X64.22 Y71.044 E12.07776
G1 X64.254 Y71.045 E12.07929
G1 X66.853 Y71.179 E12.19647
G1 X66.899 Y71.182 E12.19855
G1 X67.565 Y71.226 E12.2286
G1 X67.742 Y71.243 E12.23661
G1 X67.955 Y71.269 E12.24627
G1 X68.027 Y71.278 E12.24953
G1 X68.268 Y71.313 E12.2605
G1 X68.308 Y71.319 E12.26232
G1 X70.759 Y71.707 E12.37405
G1 X70.807 Y71.715 E12.37624
G1 X71.463 Y71.829 E12.40622
G1 X71.625 Y71.862 E12.41367
G1 X71.968 Y71.94 E12.42951
G1 X72.073 Y71.966 E12.43438
G1 X74.756 Y72.673 E12.5593
G1 X74.802 Y72.685 E12.56145
G1 X75.446 Y72.865 E12.59155
G1 X75.665 Y72.935 E12.60191
G1 X76.167 Y73.115 E12.62592
G1 X76.226 Y73.137 E12.62875
G1 X78.589 Y74.037 E12.7426
G1 X78.632 Y74.053 E12.74467
G1 X79.301 Y74.319 E12.77709
G1 X79.518 Y74.415 E12.78777
G1 X80.061 Y74.679 E12.81496
G1 X80.11 Y74.703 E12.81741
G1 X82.318 Y75.823 E12.92889
G1 X82.356 Y75.843 E12.93082
G1 X82.974 Y76.167 E12.96224
G1 X83.174 Y76.281 E12.97261
G1 X83.579 Y76.532 E12.99406
G1 X83.635 Y76.568 E12.99706
G1 X85.813 Y77.982 E13.11398
G1 X85.849 Y78.006 E13.11593
G1 X86.443 Y78.403 E13.14809
G1 X86.63 Y78.537 E13.15845
G1 X87.022 Y78.842 E13.18082
G1 X87.072 Y78.882 E13.1837
G1 X88.955 Y80.408 E13.29283
G1 X88.989 Y80.436 E13.29481
G1 X89.517 Y80.876 E13.32576
G1 X89.65 Y80.994 E13.33376
G1 X89.902 Y81.229 E13.34928
G1 X89.973 Y81.297 E13.35371
G1 X91.926 Y83.234 E13.47756
G1 X91.96 Y83.267 E13.47969
G1 X92.426 Y83.743 E13.50968
G1 X92.582 Y83.915 E13.52014
G1 X92.984 Y84.39 E13.54816
G1 X93.024 Y84.438 E13.55097
G1 X94.601 Y86.377 E13.66351
G1 X94.627 Y86.41 E13.6654
G1 X95.049 Y86.943 E13.69601
G1 X95.189 Y87.134 E13.70667
G1 X95.485 Y87.571 E13.73044
G1 X95.518 Y87.62 E13.7331
G1 X96.911 Y89.759 E13.84803
G1 X96.935 Y89.796 E13.85001
G1 X97.307 Y90.385 E13.88138
G1 X97.422 Y90.584 E13.89173
G1 X97.681 Y91.068 E13.91645
G1 X97.71 Y91.123 E13.91925
G1 X98.775 Y93.209 E14.0247
G1 X98.794 Y93.247 E14.02662
G1 X99.118 Y93.903 E14.05956
G1 X99.194 Y94.068 E14.06774
G1 X99.313 Y94.348 E14.08144
G1 X99.351 Y94.443 E14.08604
G1 X100.369 Y97.067 E14.21277
G1 X100.385 Y97.107 E14.21471
G1 X100.611 Y97.714 E14.24388
G1 X100.671 Y97.892 E14.25233
G1 X100.741 Y98.12 E14.26307
G1 X100.761 Y98.188 E14.26626
G1 X100.832 Y98.439 E14.27801
G1 X100.842 Y98.474 E14.27965
G1 X101.514 Y100.957 E14.39547
G1 X101.524 Y100.997 E14.39732
G1 X101.709 Y101.717 E14.4308
G1 X101.76 Y101.948 E14.44145
G1 X101.836 Y102.372 E14.46084
G1 X101.846 Y102.43 E14.46349
G1 X102.267 Y105.051 E14.58302
G1 X102.273 Y105.095 E14.58502
G1 X102.368 Y105.745 E14.6146
G1 X102.389 Y105.917 E14.6224
G1 X102.408 Y106.125 E14.6318
G1 X102.415 Y106.218 E14.636
G1 X102.437 Y106.573 E14.65202
G1 X102.438 Y106.6 E14.65323
G1 X102.564 Y108.958 E14.75956
G1 X102.566 Y109 E14.76145
G1 X102.595 Y109.719 E14.79385
G1 X102.598 Y109.895 E14.80177
G1 X102.594 Y110.167 E14.81402
G1 X102.59 Y110.273 E14.8188
G1 X102.453 Y113.141 E14.94808
G1 X102.451 Y113.188 E14.9502
G1 X102.41 Y113.844 E14.97979
G1 X102.385 Y114.085 E14.9907
G1 X102.3 Y114.696 E15.01848
G1 X102.293 Y114.75 E15.02093
G1 X101.92 Y117.133 E15.12953
G1 X101.913 Y117.175 E15.13145
G1 X101.793 Y117.88 E15.16365
G1 X101.753 Y118.074 E15.17257
G1 X101.7 Y118.3 E15.18302
G1 X101.686 Y118.359 E15.18575
G1 X101.608 Y118.665 E15.19997
G1 X101.6 Y118.695 E15.20137
