;FLAVOR:Marlin
;TIME:3905
;Filament used: 1.70753m
;Layer height: 0.1
;MINX:2.932
;MINY:72.2
;MINZ:0.2
;MAXX:54.532
;MAXY:147.8
;MAXZ:8.5
;Generated with Cura_SteamEngine 4.4.1
M140 S60
M105
M190 S60
M104 S200
M105
M109 S200
M82 ;absolute extrusion mode
G28 ;Home
G1 Z15.0 F6000 ;Move the platform down 15mm
;Prime the extruder
G92 E0
G1 F200 E3
G92 E0
G92 E0
G92 E0
G1 F1500 E-6.5
;LAYER_COUNT:84
;LAYER:0
M107
G0 F2400 X9.47 Y72.323 Z0.2
;TYPE:SKIRT
G1 F1500 E0
G1 F1200 X10.254 Y72.223 E0.02372
G1 X10.849 Y72.2 E0.0416
G1 X46.615 Y72.2 E1.1152
G1 X47.404 Y72.24 E1.13891
G1 X48.184 Y72.359 E1.16259
G1 X48.949 Y72.557 E1.18631
G1 X49.689 Y72.831 E1.21
G1 X50.398 Y73.179 E1.23371
G1 X51.069 Y73.597 E1.25744
G1 X51.693 Y74.08 E1.28112
G1 X52.266 Y74.623 E1.30482
G1 X52.781 Y75.222 E1.32853
G1 X53.232 Y75.87 E1.35223
G1 X53.616 Y76.561 E1.37596
G1 X53.928 Y77.286 E1.39965
G1 X54.165 Y78.039 E1.42335
G1 X54.324 Y78.813 E1.44707
G1 X54.415 Y79.985 E1.48235
G1 X54.532 Y139.868 E3.27988
G1 X54.494 Y140.657 E3.30359
G1 X54.376 Y141.437 E3.32727
G1 X54.179 Y142.202 E3.35099
G1 X53.907 Y142.943 E3.37468
G1 X53.56 Y143.653 E3.3984
G1 X53.144 Y144.324 E3.4221
G1 X52.662 Y144.95 E3.44581
G1 X52.247 Y145.398 E3.46415
G1 X52.13 Y145.515 E3.46911
G1 X51.544 Y146.045 E3.49283
G1 X50.908 Y146.512 E3.51651
G1 X50.228 Y146.913 E3.54021
G1 X49.51 Y147.243 E3.56393
G1 X48.763 Y147.498 E3.58762
G1 X47.994 Y147.677 E3.61132
G1 X47.21 Y147.777 E3.63505
G1 X46.615 Y147.8 E3.65292
G1 X10.849 Y147.8 E4.72652
G1 X10.06 Y147.76 E4.75023
G1 X9.28 Y147.641 E4.77392
G1 X8.515 Y147.443 E4.79764
G1 X7.775 Y147.169 E4.82132
G1 X7.066 Y146.821 E4.84503
G1 X6.395 Y146.403 E4.86876
G1 X5.771 Y145.92 E4.89245
G1 X5.334 Y145.515 E4.91033
G1 X5.217 Y145.398 E4.9153
G1 X4.687 Y144.812 E4.93902
G1 X4.22 Y144.176 E4.9627
G1 X3.819 Y143.496 E4.9864
G1 X3.489 Y142.778 E5.01012
G1 X3.234 Y142.031 E5.03381
G1 X3.055 Y141.262 E5.05751
G1 X2.955 Y140.478 E5.08124
G1 X2.932 Y139.883 E5.09911
G1 X2.932 Y80.117 E6.89312
G1 X2.972 Y79.328 E6.91684
G1 X3.091 Y78.548 E6.94052
G1 X3.289 Y77.783 E6.96424
G1 X3.563 Y77.043 E6.98793
G1 X3.911 Y76.334 E7.01164
G1 X4.329 Y75.663 E7.03537
G1 X4.812 Y75.039 E7.05905
G1 X5.217 Y74.602 E7.07694
G1 X5.334 Y74.485 E7.0819
G1 X5.92 Y73.955 E7.10562
G1 X6.556 Y73.488 E7.12931
G1 X7.236 Y73.087 E7.153
G1 X7.954 Y72.757 E7.17672
G1 X8.701 Y72.502 E7.20042
G1 X9.47 Y72.323 E7.22412
G0 F2400 X9.659 Y72.696
G1 F1200 X10.424 Y72.612 E7.24722
G1 X10.849 Y72.6 E7.25998
G1 X46.615 Y72.6 E8.33358
G1 X47.383 Y72.64 E8.35666
G1 X48.143 Y72.759 E8.37975
G1 X48.886 Y72.957 E8.40283
G1 X49.605 Y73.231 E8.42593
G1 X50.291 Y73.578 E8.44901
G1 X50.938 Y73.994 E8.4721
G1 X51.538 Y74.475 E8.49518
G1 X52.085 Y75.016 E8.51827
G1 X52.573 Y75.611 E8.54137
G1 X52.996 Y76.253 E8.56445
G1 X53.351 Y76.936 E8.58756
G1 X53.632 Y77.651 E8.61062
G1 X53.838 Y78.393 E8.63373
G1 X53.966 Y79.151 E8.65681
G1 X54.015 Y79.986 E8.68191
G1 X54.132 Y139.869 E10.47944
G1 X54.094 Y140.637 E10.50252
G1 X53.976 Y141.397 E10.52561
G1 X53.779 Y142.14 E10.54868
G1 X53.507 Y142.86 E10.57179
G1 X53.161 Y143.547 E10.59488
G1 X52.746 Y144.194 E10.61795
G1 X52.266 Y144.795 E10.64104
G1 X51.965 Y145.116 E10.65425
G1 X51.848 Y145.233 E10.65921
G1 X51.276 Y145.747 E10.6823
G1 X50.654 Y146.2 E10.70539
G1 X49.989 Y146.586 E10.72847
G1 X49.287 Y146.901 E10.75157
G1 X48.556 Y147.141 E10.77467
G1 X47.805 Y147.304 E10.79773
G1 X47.04 Y147.388 E10.82083
G1 X46.615 Y147.4 E10.8336
G1 X10.849 Y147.4 E11.90719
G1 X10.081 Y147.36 E11.93028
G1 X9.321 Y147.241 E11.95337
G1 X8.578 Y147.043 E11.97645
G1 X7.859 Y146.769 E11.99955
G1 X7.173 Y146.422 E12.02262
G1 X6.526 Y146.006 E12.04571
G1 X5.926 Y145.525 E12.0688
G1 X5.616 Y145.233 E12.08158
G1 X5.499 Y145.116 E12.08655
G1 X4.985 Y144.544 E12.10963
G1 X4.532 Y143.922 E12.13273
G1 X4.146 Y143.257 E12.15581
G1 X3.831 Y142.555 E12.17891
G1 X3.591 Y141.824 E12.202
G1 X3.428 Y141.073 E12.22507
G1 X3.344 Y140.308 E12.24817
G1 X3.332 Y139.883 E12.26093
G1 X3.332 Y80.117 E14.05494
G1 X3.372 Y79.349 E14.07803
G1 X3.491 Y78.589 E14.10112
G1 X3.689 Y77.846 E14.1242
G1 X3.963 Y77.127 E14.1473
G1 X4.31 Y76.441 E14.17037
G1 X4.726 Y75.794 E14.19346
G1 X5.207 Y75.194 E14.21655
G1 X5.499 Y74.884 E14.22933
G1 X5.616 Y74.767 E14.2343
G1 X6.188 Y74.253 E14.25738
G1 X6.81 Y73.8 E14.28048
G1 X7.475 Y73.414 E14.30356
G1 X8.177 Y73.099 E14.32665
G1 X8.908 Y72.859 E14.34975
G1 X9.659 Y72.696 E14.37282
G0 F2400 X9.845 Y73.072
G1 F1200 X10.849 Y73 E14.40303
G1 X46.615 Y73 E15.47663
G1 X47.362 Y73.04 E15.49908
G1 X48.1 Y73.159 E15.52152
G1 X48.822 Y73.357 E15.544
G1 X49.518 Y73.63 E15.56644
G1 X50.181 Y73.977 E15.5889
G1 X50.804 Y74.392 E15.61137
G1 X51.378 Y74.871 E15.63381
G1 X51.899 Y75.408 E15.65627
G1 X52.358 Y75.998 E15.67871
G1 X52.753 Y76.634 E15.70118
G1 X53.077 Y77.308 E15.72363
G1 X53.327 Y78.013 E15.74608
G1 X53.501 Y78.741 E15.76855
G1 X53.596 Y79.483 E15.79101
G1 X53.615 Y79.986 E15.80612
G1 X53.732 Y139.869 E17.60364
G1 X53.693 Y140.616 E17.6261
G1 X53.575 Y141.355 E17.64856
G1 X53.379 Y142.077 E17.67102
G1 X53.107 Y142.774 E17.69348
G1 X52.762 Y143.438 E17.71594
G1 X52.349 Y144.061 E17.73837
G1 X51.682 Y144.833 E17.769
G1 X51.565 Y144.95 E17.77397
G1 X51.008 Y145.45 E17.79643
G1 X50.402 Y145.887 E17.81886
G1 X49.752 Y146.258 E17.84133
G1 X49.066 Y146.557 E17.86379
G1 X48.352 Y146.781 E17.88625
G1 X47.619 Y146.928 E17.90869
G1 X46.615 Y147 E17.93891
G1 X10.849 Y147 E19.0125
G1 X10.102 Y146.96 E19.03496
G1 X9.364 Y146.841 E19.0574
G1 X8.642 Y146.643 E19.07987
G1 X7.946 Y146.37 E19.10231
G1 X7.283 Y146.023 E19.12477
G1 X6.66 Y145.608 E19.14724
G1 X5.899 Y144.95 E19.17744
G1 X5.782 Y144.833 E19.18241
G1 X5.282 Y144.276 E19.20488
G1 X4.845 Y143.67 E19.2273
G1 X4.474 Y143.02 E19.24977
G1 X4.175 Y142.334 E19.27223
G1 X3.951 Y141.62 E19.2947
G1 X3.804 Y140.887 E19.31714
G1 X3.732 Y139.883 E19.34735
G1 X3.732 Y80.117 E21.14136
G1 X3.772 Y79.37 E21.16382
G1 X3.891 Y78.632 E21.18626
G1 X4.089 Y77.91 E21.20873
G1 X4.362 Y77.214 E21.23117
G1 X4.709 Y76.551 E21.25363
G1 X5.124 Y75.928 E21.2761
G1 X5.782 Y75.167 E21.3063
G1 X5.899 Y75.05 E21.31127
G1 X6.456 Y74.55 E21.33374
G1 X7.062 Y74.113 E21.35616
G1 X7.712 Y73.742 E21.37863
G1 X8.398 Y73.443 E21.40109
G1 X9.112 Y73.219 E21.42355
G1 X9.845 Y73.072 E21.44599
G0 F2400 X10.028 Y73.451
G1 F1200 X10.849 Y73.4 E21.47069
G1 X46.615 Y73.4 E22.54428
G1 X47.34 Y73.44 E22.56608
G1 X48.057 Y73.559 E22.5879
G1 X48.756 Y73.757 E22.6097
G1 X49.429 Y74.03 E22.6315
G1 X50.068 Y74.375 E22.6533
G1 X50.665 Y74.789 E22.67511
G1 X51.213 Y75.265 E22.6969
G1 X51.706 Y75.799 E22.71871
G1 X52.136 Y76.384 E22.74051
G1 X52.5 Y77.013 E22.76232
G1 X52.793 Y77.678 E22.78414
G1 X53.011 Y78.371 E22.80594
G1 X53.151 Y79.083 E22.82772
G1 X53.215 Y79.987 E22.85493
G1 X53.332 Y139.87 E24.65246
G1 X53.293 Y140.595 E24.67425
G1 X53.175 Y141.312 E24.69606
G1 X52.979 Y142.012 E24.71788
G1 X52.708 Y142.685 E24.73966
G1 X52.363 Y143.325 E24.76148
G1 X51.951 Y143.923 E24.78328
G1 X51.399 Y144.55 E24.80836
G1 X51.282 Y144.667 E24.81332
G1 X50.741 Y145.151 E24.83511
G1 X50.15 Y145.574 E24.85693
G1 X49.516 Y145.928 E24.87873
G1 X48.847 Y146.211 E24.90053
G1 X48.151 Y146.419 E24.92234
G1 X47.436 Y146.549 E24.94415
G1 X46.615 Y146.6 E24.96884
G1 X10.849 Y146.6 E26.04244
G1 X10.124 Y146.56 E26.06424
G1 X9.407 Y146.441 E26.08605
G1 X8.708 Y146.243 E26.10786
G1 X8.035 Y145.97 E26.12966
G1 X7.396 Y145.625 E26.15146
G1 X6.799 Y145.211 E26.17327
G1 X6.182 Y144.667 E26.19796
G1 X6.065 Y144.55 E26.20292
G1 X5.581 Y144.009 E26.22471
G1 X5.158 Y143.418 E26.24653
G1 X4.804 Y142.784 E26.26833
G1 X4.521 Y142.115 E26.29013
G1 X4.313 Y141.419 E26.31194
G1 X4.183 Y140.704 E26.33375
G1 X4.132 Y139.883 E26.35844
G1 X4.132 Y80.117 E28.15245
G1 X4.172 Y79.392 E28.17425
G1 X4.291 Y78.675 E28.19607
G1 X4.489 Y77.976 E28.21787
G1 X4.762 Y77.303 E28.23967
G1 X5.107 Y76.664 E28.26147
G1 X5.521 Y76.067 E28.28328
G1 X6.065 Y75.45 E28.30797
G1 X6.182 Y75.333 E28.31294
G1 X6.723 Y74.849 E28.33473
G1 X7.314 Y74.426 E28.35654
G1 X7.948 Y74.072 E28.37834
G1 X8.617 Y73.789 E28.40014
G1 X9.313 Y73.581 E28.42195
G1 X10.028 Y73.451 E28.44376
G0 F2400 X9.512 Y73.946
G1 F1200 X10.207 Y73.833 E28.4649
G1 X10.849 Y73.8 E28.4842
G1 X46.615 Y73.8 E29.55779
G1 X47.318 Y73.84 E29.57893
G1 X48.012 Y73.959 E29.60007
G1 X48.687 Y74.157 E29.62118
G1 X49.336 Y74.429 E29.6423
G1 X49.95 Y74.774 E29.66345
G1 X50.521 Y75.185 E29.68456
G1 X51.042 Y75.659 E29.70571
G1 X51.506 Y76.189 E29.72685
G1 X51.906 Y76.768 E29.74798
G1 X52.238 Y77.389 E29.76911
G1 X52.498 Y78.043 E29.79024
G1 X52.682 Y78.723 E29.81138
G1 X52.788 Y79.419 E29.83252
G1 X52.815 Y79.988 E29.84962
G1 X52.932 Y139.871 E31.64714
G1 X52.893 Y140.574 E31.66828
G1 X52.775 Y141.268 E31.68941
G1 X52.579 Y141.944 E31.71054
G1 X52.308 Y142.594 E31.73168
G1 X51.965 Y143.208 E31.75279
G1 X51.554 Y143.78 E31.77393
G1 X51.116 Y144.267 E31.79359
G1 X50.999 Y144.384 E31.79856
G1 X50.474 Y144.853 E31.81969
G1 X49.899 Y145.259 E31.84082
G1 X49.281 Y145.597 E31.86196
G1 X48.63 Y145.864 E31.88308
G1 X47.952 Y146.054 E31.90422
G1 X47.257 Y146.167 E31.92535
G1 X46.615 Y146.2 E31.94465
G1 X10.849 Y146.2 E33.01825
G1 X10.146 Y146.16 E33.03939
G1 X9.452 Y146.041 E33.06052
G1 X8.777 Y145.843 E33.08164
G1 X8.128 Y145.571 E33.10276
G1 X7.514 Y145.226 E33.1239
G1 X6.943 Y144.815 E33.14502
G1 X6.465 Y144.384 E33.16434
G1 X6.348 Y144.267 E33.16931
G1 X5.879 Y143.742 E33.19044
G1 X5.473 Y143.167 E33.21157
G1 X5.135 Y142.549 E33.23271
G1 X4.868 Y141.898 E33.25383
G1 X4.678 Y141.22 E33.27497
G1 X4.565 Y140.525 E33.2961
G1 X4.532 Y139.883 E33.3154
G1 X4.532 Y80.117 E35.10941
G1 X4.572 Y79.414 E35.13055
G1 X4.691 Y78.72 E35.15168
G1 X4.889 Y78.045 E35.1728
G1 X5.161 Y77.396 E35.19392
G1 X5.506 Y76.782 E35.21506
G1 X5.917 Y76.211 E35.23618
G1 X6.348 Y75.733 E35.2555
G1 X6.465 Y75.616 E35.26047
G1 X6.99 Y75.147 E35.2816
G1 X7.565 Y74.741 E35.30273
G1 X8.183 Y74.403 E35.32387
G1 X8.834 Y74.136 E35.34499
G1 X9.512 Y73.946 E35.36613
G0 F2400 X9.708 Y74.313
G1 F1200 X10.382 Y74.219 E35.38656
G1 X10.849 Y74.2 E35.40059
G1 X46.615 Y74.2 E36.47418
G1 X47.295 Y74.24 E36.49463
G1 X47.965 Y74.359 E36.51506
G1 X48.617 Y74.556 E36.5355
G1 X49.241 Y74.828 E36.55593
G1 X49.829 Y75.172 E36.57638
G1 X50.373 Y75.582 E36.59683
G1 X50.864 Y76.053 E36.61725
G1 X51.298 Y76.578 E36.6377
G1 X51.667 Y77.15 E36.65813
G1 X51.966 Y77.762 E36.67858
G1 X52.191 Y78.404 E36.699
G1 X52.34 Y79.069 E36.71946
G1 X52.415 Y79.989 E36.74716
G1 X52.532 Y139.872 E38.54469
G1 X52.493 Y140.551 E38.56511
G1 X52.375 Y141.222 E38.58556
G1 X52.18 Y141.874 E38.60598
G1 X51.909 Y142.499 E38.62643
G1 X51.566 Y143.087 E38.64687
G1 X51.158 Y143.632 E38.6673
G1 X50.833 Y143.984 E38.68168
G1 X50.716 Y144.101 E38.68665
G1 X50.207 Y144.554 E38.7071
G1 X49.649 Y144.943 E38.72752
G1 X49.049 Y145.265 E38.74796
G1 X48.415 Y145.514 E38.76841
G1 X47.756 Y145.687 E38.78886
G1 X47.082 Y145.781 E38.80929
G1 X46.615 Y145.8 E38.82332
G1 X10.849 Y145.8 E39.89691
G1 X10.169 Y145.76 E39.91736
G1 X9.499 Y145.641 E39.93779
G1 X8.847 Y145.444 E39.95823
G1 X8.223 Y145.172 E39.97867
G1 X7.635 Y144.828 E39.99911
G1 X7.091 Y144.418 E40.01956
G1 X6.748 Y144.101 E40.03358
G1 X6.631 Y143.984 E40.03855
G1 X6.178 Y143.475 E40.059
G1 X5.789 Y142.917 E40.07942
G1 X5.467 Y142.317 E40.09986
G1 X5.218 Y141.683 E40.12031
G1 X5.045 Y141.024 E40.14076
G1 X4.951 Y140.35 E40.16119
G1 X4.932 Y139.883 E40.17522
G1 X4.932 Y80.117 E41.96923
G1 X4.972 Y79.437 E41.98967
G1 X5.091 Y78.767 E42.0101
G1 X5.288 Y78.115 E42.03055
G1 X5.56 Y77.491 E42.05098
G1 X5.904 Y76.903 E42.07143
G1 X6.314 Y76.359 E42.09188
G1 X6.631 Y76.016 E42.1059
G1 X6.748 Y75.899 E42.11086
G1 X7.257 Y75.446 E42.13132
G1 X7.815 Y75.057 E42.15173
G1 X8.415 Y74.735 E42.17217
G1 X9.049 Y74.486 E42.19262
G1 X9.708 Y74.313 E42.21307
G0 F2400 X9.9 Y74.684
G1 F1200 X10.849 Y74.6 E42.24167
G1 X46.615 Y74.6 E43.31527
G1 X47.271 Y74.64 E43.33499
G1 X47.917 Y74.759 E43.35471
G1 X48.544 Y74.956 E43.37444
G1 X49.142 Y75.228 E43.39416
G1 X49.703 Y75.57 E43.41388
G1 X50.218 Y75.978 E43.4336
G1 X50.68 Y76.445 E43.45332
G1 X51.081 Y76.965 E43.47303
G1 X51.417 Y77.529 E43.49274
G1 X51.681 Y78.131 E43.51247
G1 X51.871 Y78.76 E43.5322
G1 X51.982 Y79.407 E43.5519
G1 X52.015 Y79.989 E43.5694
G1 X52.132 Y139.872 E45.36693
G1 X52.093 Y140.528 E45.38665
G1 X51.975 Y141.175 E45.40639
G1 X51.78 Y141.802 E45.4261
G1 X51.509 Y142.4 E45.44581
G1 X51.168 Y142.962 E45.46554
G1 X50.55 Y143.701 E45.49446
G1 X50.433 Y143.818 E45.49943
G1 X49.941 Y144.254 E45.51916
G1 X49.4 Y144.626 E45.53887
G1 X48.818 Y144.93 E45.55858
G1 X48.203 Y145.161 E45.5783
G1 X47.564 Y145.316 E45.59804
G1 X46.615 Y145.4 E45.62663
G1 X10.849 Y145.4 E46.70023
G1 X10.193 Y145.36 E46.71996
G1 X9.547 Y145.241 E46.73968
G1 X8.92 Y145.044 E46.7594
G1 X8.322 Y144.772 E46.77912
G1 X7.761 Y144.43 E46.79885
G1 X7.031 Y143.818 E46.82744
G1 X6.914 Y143.701 E46.83241
G1 X6.478 Y143.209 E46.85214
G1 X6.106 Y142.668 E46.87185
G1 X5.802 Y142.086 E46.89156
G1 X5.571 Y141.471 E46.91128
G1 X5.416 Y140.832 E46.93102
G1 X5.332 Y139.883 E46.95961
G1 X5.332 Y80.117 E48.75363
G1 X5.372 Y79.461 E48.77335
G1 X5.491 Y78.815 E48.79307
G1 X5.688 Y78.188 E48.8128
G1 X5.96 Y77.59 E48.83252
G1 X6.302 Y77.029 E48.85224
G1 X6.914 Y76.299 E48.88084
G1 X7.031 Y76.182 E48.8858
G1 X7.523 Y75.746 E48.90554
G1 X8.064 Y75.374 E48.92524
G1 X8.646 Y75.07 E48.94495
G1 X9.261 Y74.839 E48.96467
G1 X9.9 Y74.684 E48.98441
G0 F2400 X10.088 Y75.058
G1 F1200 X10.849 Y75 E49.00732
G1 X46.615 Y75 E50.08092
G1 X47.246 Y75.04 E50.0999
G1 X47.867 Y75.159 E50.11888
G1 X48.467 Y75.356 E50.13783
G1 X49.039 Y75.627 E50.15683
G1 X49.571 Y75.967 E50.17578
G1 X50.056 Y76.373 E50.19477
G1 X50.486 Y76.836 E50.21374
G1 X50.855 Y77.35 E50.23273
G1 X51.155 Y77.906 E50.25169
G1 X51.383 Y78.495 E50.27065
G1 X51.535 Y79.109 E50.28964
G1 X51.615 Y79.99 E50.31619
G1 X51.732 Y139.873 E52.11372
G1 X51.693 Y140.504 E52.1327
G1 X51.575 Y141.125 E52.15167
G1 X51.38 Y141.726 E52.17064
G1 X51.11 Y142.298 E52.18963
G1 X50.77 Y142.831 E52.2086
G1 X50.268 Y143.419 E52.23181
G1 X50.151 Y143.536 E52.23678
G1 X49.676 Y143.953 E52.25575
G1 X49.153 Y144.308 E52.27472
G1 X48.589 Y144.594 E52.29371
G1 X47.994 Y144.806 E52.31267
G1 X47.376 Y144.942 E52.33166
G1 X46.615 Y145 E52.35457
G1 X10.849 Y145 E53.42817
G1 X10.218 Y144.96 E53.44715
G1 X9.597 Y144.841 E53.46613
G1 X8.997 Y144.644 E53.48508
G1 X8.425 Y144.373 E53.50408
G1 X7.893 Y144.033 E53.52303
G1 X7.313 Y143.536 E53.54596
G1 X7.196 Y143.419 E53.55093
G1 X6.779 Y142.944 E53.5699
G1 X6.424 Y142.421 E53.58888
G1 X6.138 Y141.857 E53.60786
G1 X5.926 Y141.262 E53.62682
G1 X5.79 Y140.644 E53.64581
G1 X5.732 Y139.883 E53.66872
G1 X5.732 Y80.117 E55.46273
G1 X5.772 Y79.486 E55.48171
G1 X5.891 Y78.865 E55.50069
G1 X6.088 Y78.265 E55.51965
G1 X6.359 Y77.693 E55.53865
G1 X6.699 Y77.161 E55.5576
G1 X7.196 Y76.581 E55.58053
G1 X7.313 Y76.464 E55.5855
G1 X7.788 Y76.047 E55.60447
G1 X8.311 Y75.692 E55.62344
G1 X8.875 Y75.406 E55.64242
G1 X9.47 Y75.194 E55.66138
G1 X10.088 Y75.058 E55.68038
G0 F2400 X10.271 Y75.436
G1 F1200 X10.849 Y75.4 E55.69776
G1 X46.615 Y75.4 E56.77136
G1 X47.22 Y75.44 E56.78956
G1 X47.814 Y75.559 E56.80774
G1 X48.388 Y75.755 E56.82595
G1 X48.931 Y76.026 E56.84417
G1 X49.434 Y76.365 E56.86238
G1 X49.887 Y76.767 E56.88056
G1 X50.284 Y77.225 E56.89875
G1 X50.617 Y77.732 E56.91696
G1 X50.881 Y78.278 E56.93516
G1 X51.07 Y78.854 E56.95336
G1 X51.182 Y79.45 E56.97156
G1 X51.215 Y79.991 E56.98783
G1 X51.332 Y139.874 E58.78536
G1 X51.293 Y140.479 E58.80356
G1 X51.175 Y141.074 E58.82177
G1 X50.98 Y141.648 E58.83996
G1 X50.711 Y142.191 E58.85815
G1 X50.373 Y142.694 E58.87634
G1 X49.985 Y143.136 E58.894
G1 X49.868 Y143.253 E58.89896
G1 X49.412 Y143.652 E58.91715
G1 X48.907 Y143.988 E58.93536
G1 X48.363 Y144.255 E58.95355
G1 X47.788 Y144.448 E58.97176
G1 X47.193 Y144.564 E58.98995
G1 X46.615 Y144.6 E59.00734
G1 X10.849 Y144.6 E60.08093
G1 X10.244 Y144.56 E60.09913
G1 X9.65 Y144.441 E60.11732
G1 X9.076 Y144.245 E60.13553
G1 X8.533 Y143.974 E60.15374
G1 X8.03 Y143.635 E60.17195
