;FLAVOR:Marlin
;TIME:6296
;Filament used: 2.68523m
;Layer height: 0.1
;MINX:12.316
;MINY:33.149
;MINZ:0.2
;MAXX:77.916
;MAXY:118.749
;MAXZ:8.5
;Generated with Cura_SteamEngine 4.4.1
M140 S60
M105
M190 S60
M104 S220
M105
M109 S220
M82 ;absolute extrusion mode
G28 ;Home
G1 Z15.0 F6000 ;Move the platform down 15mm
;Prime the extruder
G92 E0
G1 F200 E3
G92 E0
G92 E0
G92 E0
G1 F1500 E-6.5
;LAYER_COUNT:84
;LAYER:0
M107
G0 F2400 X16.62 Y34.036 Z0.2
;TYPE:SKIRT
G1 F1500 E0
G1 F1200 X17.338 Y33.706 E0.02372
G1 X18.085 Y33.451 E0.04741
G1 X18.854 Y33.272 E0.07111
G1 X19.638 Y33.172 E0.09484
G1 X20.233 Y33.149 E0.11271
G1 X69.999 Y33.149 E1.60655
G1 X70.788 Y33.189 E1.63026
G1 X71.568 Y33.308 E1.65395
G1 X72.333 Y33.506 E1.67767
G1 X73.073 Y33.78 E1.70136
G1 X73.782 Y34.128 E1.72506
G1 X74.453 Y34.546 E1.74879
G1 X75.077 Y35.029 E1.77248
G1 X75.514 Y35.434 E1.79036
G1 X75.631 Y35.551 E1.79533
G1 X76.161 Y36.137 E1.81905
G1 X76.628 Y36.773 E1.84273
G1 X77.029 Y37.453 E1.86643
G1 X77.359 Y38.171 E1.89015
G1 X77.614 Y38.918 E1.91384
G1 X77.793 Y39.687 E1.93754
G1 X77.893 Y40.471 E1.96127
G1 X77.916 Y41.066 E1.97914
G1 X77.916 Y110.832 E4.07333
G1 X77.876 Y111.621 E4.09704
G1 X77.757 Y112.401 E4.12072
G1 X77.559 Y113.166 E4.14444
G1 X77.285 Y113.906 E4.16813
G1 X76.937 Y114.615 E4.19184
G1 X76.519 Y115.286 E4.21557
G1 X76.036 Y115.91 E4.23926
G1 X75.631 Y116.347 E4.25714
G1 X75.514 Y116.464 E4.26211
G1 X74.928 Y116.994 E4.28582
G1 X74.292 Y117.461 E4.30951
G1 X73.612 Y117.862 E4.33321
G1 X72.894 Y118.192 E4.35693
G1 X72.147 Y118.447 E4.38062
G1 X71.378 Y118.626 E4.40432
G1 X70.594 Y118.726 E4.42804
G1 X69.999 Y118.749 E4.44592
G1 X20.233 Y118.749 E5.93976
G1 X19.444 Y118.709 E5.96347
G1 X18.664 Y118.59 E5.98716
G1 X17.899 Y118.392 E6.01088
G1 X17.159 Y118.118 E6.03456
G1 X16.45 Y117.77 E6.05827
G1 X15.779 Y117.352 E6.082
G1 X15.155 Y116.869 E6.10569
G1 X14.718 Y116.464 E6.12357
G1 X14.601 Y116.347 E6.12854
G1 X14.071 Y115.761 E6.15225
G1 X13.604 Y115.125 E6.17594
G1 X13.203 Y114.445 E6.19964
G1 X12.873 Y113.727 E6.22336
G1 X12.618 Y112.98 E6.24705
G1 X12.439 Y112.211 E6.27075
G1 X12.339 Y111.427 E6.29447
G1 X12.316 Y110.832 E6.31235
G1 X12.316 Y41.066 E8.40653
G1 X12.356 Y40.277 E8.43025
G1 X12.475 Y39.497 E8.45393
G1 X12.673 Y38.732 E8.47765
G1 X12.947 Y37.992 E8.50134
G1 X13.295 Y37.283 E8.52504
G1 X13.713 Y36.612 E8.54877
G1 X14.196 Y35.988 E8.57246
G1 X14.601 Y35.551 E8.59035
G1 X14.718 Y35.434 E8.59531
G1 X15.304 Y34.904 E8.61903
G1 X15.94 Y34.437 E8.64271
G1 X16.62 Y34.036 E8.66641
G0 F2400 X16.859 Y34.363
G1 F1200 X17.561 Y34.048 E8.68951
G1 X18.292 Y33.808 E8.7126
G1 X19.043 Y33.645 E8.73567
G1 X19.808 Y33.561 E8.75877
G1 X20.233 Y33.549 E8.77153
G1 X69.999 Y33.549 E10.26537
G1 X70.767 Y33.589 E10.28846
G1 X71.527 Y33.708 E10.31155
G1 X72.27 Y33.906 E10.33463
G1 X72.989 Y34.18 E10.35773
G1 X73.675 Y34.527 E10.3808
G1 X74.322 Y34.943 E10.40389
G1 X74.922 Y35.424 E10.42698
G1 X75.232 Y35.716 E10.43976
G1 X75.349 Y35.833 E10.44473
G1 X75.863 Y36.405 E10.46781
G1 X76.316 Y37.027 E10.49091
G1 X76.702 Y37.692 E10.51399
G1 X77.017 Y38.394 E10.53708
G1 X77.257 Y39.125 E10.56018
G1 X77.42 Y39.876 E10.58325
G1 X77.504 Y40.641 E10.60635
G1 X77.516 Y41.066 E10.61911
G1 X77.516 Y110.832 E12.7133
G1 X77.476 Y111.6 E12.73638
G1 X77.357 Y112.36 E12.75947
G1 X77.159 Y113.103 E12.78255
G1 X76.885 Y113.822 E12.80565
G1 X76.538 Y114.508 E12.82873
G1 X76.122 Y115.155 E12.85181
G1 X75.641 Y115.755 E12.8749
G1 X75.349 Y116.065 E12.88768
G1 X75.232 Y116.182 E12.89265
G1 X74.66 Y116.696 E12.91573
G1 X74.038 Y117.149 E12.93883
G1 X73.373 Y117.535 E12.96191
G1 X72.671 Y117.85 E12.98501
G1 X71.94 Y118.09 E13.0081
G1 X71.189 Y118.253 E13.03117
G1 X70.424 Y118.337 E13.05427
G1 X69.999 Y118.349 E13.06703
G1 X20.233 Y118.349 E14.56087
G1 X19.465 Y118.309 E14.58396
G1 X18.705 Y118.19 E14.60705
G1 X17.962 Y117.992 E14.63013
G1 X17.243 Y117.718 E14.65323
G1 X16.557 Y117.371 E14.6763
G1 X15.91 Y116.955 E14.69939
G1 X15.31 Y116.474 E14.72247
G1 X15 Y116.182 E14.73526
G1 X14.883 Y116.065 E14.74022
G1 X14.369 Y115.493 E14.76331
G1 X13.916 Y114.871 E14.78641
G1 X13.53 Y114.206 E14.80949
G1 X13.215 Y113.504 E14.83258
G1 X12.975 Y112.773 E14.85568
G1 X12.812 Y112.022 E14.87875
G1 X12.728 Y111.257 E14.90185
G1 X12.716 Y110.832 E14.91461
G1 X12.716 Y41.066 E17.00879
G1 X12.756 Y40.298 E17.03188
G1 X12.875 Y39.538 E17.05497
G1 X13.073 Y38.795 E17.07805
G1 X13.347 Y38.076 E17.10115
G1 X13.694 Y37.39 E17.12422
G1 X14.11 Y36.743 E17.14731
G1 X14.591 Y36.143 E17.1704
G1 X14.883 Y35.833 E17.18318
G1 X15 Y35.716 E17.18815
G1 X15.572 Y35.202 E17.21123
G1 X16.194 Y34.749 E17.23433
G1 X16.859 Y34.363 E17.25741
G0 F2400 X17.096 Y34.691
G1 F1200 X17.782 Y34.392 E17.27987
G1 X18.496 Y34.168 E17.30233
G1 X19.229 Y34.021 E17.32477
G1 X20.233 Y33.949 E17.35499
G1 X69.999 Y33.949 E18.84883
G1 X70.746 Y33.989 E18.87128
G1 X71.484 Y34.108 E18.89372
G1 X72.206 Y34.306 E18.91619
G1 X72.902 Y34.579 E18.93864
G1 X73.565 Y34.926 E18.9611
G1 X74.188 Y35.341 E18.98357
G1 X74.949 Y35.999 E19.01377
G1 X75.066 Y36.116 E19.01873
G1 X75.566 Y36.673 E19.0412
G1 X76.003 Y37.279 E19.06363
G1 X76.374 Y37.929 E19.08609
G1 X76.673 Y38.615 E19.10856
G1 X76.897 Y39.329 E19.13102
G1 X77.044 Y40.062 E19.15346
G1 X77.116 Y41.066 E19.18367
G1 X77.116 Y110.832 E21.27786
G1 X77.076 Y111.579 E21.30031
G1 X76.957 Y112.317 E21.32275
G1 X76.759 Y113.039 E21.34523
G1 X76.486 Y113.735 E21.36767
G1 X76.139 Y114.398 E21.39013
G1 X75.724 Y115.021 E21.4126
G1 X75.066 Y115.782 E21.4428
G1 X74.949 Y115.899 E21.44777
G1 X74.392 Y116.399 E21.47023
G1 X73.786 Y116.836 E21.49266
G1 X73.136 Y117.207 E21.51513
G1 X72.45 Y117.506 E21.53759
G1 X71.736 Y117.73 E21.56005
G1 X71.003 Y117.877 E21.58249
G1 X69.999 Y117.949 E21.61271
G1 X20.233 Y117.949 E23.10655
G1 X19.486 Y117.909 E23.129
G1 X18.748 Y117.79 E23.15144
G1 X18.026 Y117.592 E23.17391
G1 X17.33 Y117.319 E23.19635
G1 X16.667 Y116.972 E23.21882
G1 X16.044 Y116.557 E23.24129
G1 X15.283 Y115.899 E23.27148
G1 X15.166 Y115.782 E23.27645
G1 X14.666 Y115.225 E23.29892
G1 X14.229 Y114.619 E23.32135
G1 X13.858 Y113.969 E23.34381
G1 X13.559 Y113.283 E23.36627
G1 X13.335 Y112.569 E23.38874
G1 X13.188 Y111.836 E23.41118
G1 X13.116 Y110.832 E23.44139
G1 X13.116 Y41.066 E25.53558
G1 X13.156 Y40.319 E25.55803
G1 X13.275 Y39.581 E25.58047
G1 X13.473 Y38.859 E25.60294
G1 X13.746 Y38.163 E25.62539
G1 X14.093 Y37.5 E25.64785
G1 X14.508 Y36.877 E25.67032
G1 X15.166 Y36.116 E25.70052
G1 X15.283 Y35.999 E25.70548
G1 X15.84 Y35.499 E25.72795
G1 X16.446 Y35.062 E25.75038
G1 X17.096 Y34.691 E25.77284
G0 F2400 X17.332 Y35.021
G1 F1200 X18.001 Y34.738 E25.79465
G1 X18.697 Y34.53 E25.81645
G1 X19.412 Y34.4 E25.83827
G1 X20.233 Y34.349 E25.86296
G1 X69.999 Y34.349 E27.3568
G1 X70.724 Y34.389 E27.37859
G1 X71.441 Y34.508 E27.40041
G1 X72.14 Y34.706 E27.42222
G1 X72.813 Y34.979 E27.44402
G1 X73.452 Y35.324 E27.46582
G1 X74.049 Y35.738 E27.48762
G1 X74.666 Y36.282 E27.51232
G1 X74.783 Y36.399 E27.51728
G1 X75.267 Y36.94 E27.53907
G1 X75.69 Y37.531 E27.56089
G1 X76.044 Y38.165 E27.58268
G1 X76.327 Y38.834 E27.60449
G1 X76.535 Y39.53 E27.62629
G1 X76.665 Y40.245 E27.64811
G1 X76.716 Y41.066 E27.6728
G1 X76.716 Y110.832 E29.76698
G1 X76.676 Y111.557 E29.78878
G1 X76.557 Y112.274 E29.8106
G1 X76.359 Y112.973 E29.8324
G1 X76.086 Y113.646 E29.85421
G1 X75.741 Y114.285 E29.876
G1 X75.327 Y114.882 E29.89781
G1 X74.783 Y115.499 E29.9225
G1 X74.666 Y115.616 E29.92747
G1 X74.125 Y116.1 E29.94926
G1 X73.534 Y116.523 E29.97107
G1 X72.9 Y116.877 E29.99287
G1 X72.231 Y117.16 E30.01468
G1 X71.535 Y117.368 E30.03648
G1 X70.82 Y117.498 E30.05829
G1 X69.999 Y117.549 E30.08299
G1 X20.233 Y117.549 E31.57683
G1 X19.508 Y117.509 E31.59862
G1 X18.791 Y117.39 E31.62044
G1 X18.092 Y117.192 E31.64225
G1 X17.419 Y116.919 E31.66405
G1 X16.78 Y116.574 E31.68584
G1 X16.183 Y116.16 E31.70765
G1 X15.566 Y115.616 E31.73234
G1 X15.449 Y115.499 E31.73731
G1 X14.965 Y114.958 E31.7591
G1 X14.542 Y114.367 E31.78092
G1 X14.188 Y113.733 E31.80271
G1 X13.905 Y113.064 E31.82452
G1 X13.697 Y112.368 E31.84632
G1 X13.567 Y111.653 E31.86814
G1 X13.516 Y110.832 E31.89283
G1 X13.516 Y41.066 E33.98701
G1 X13.556 Y40.341 E34.00881
G1 X13.675 Y39.624 E34.03063
G1 X13.873 Y38.925 E34.05243
G1 X14.146 Y38.252 E34.07423
G1 X14.491 Y37.613 E34.09603
G1 X14.905 Y37.016 E34.11784
G1 X15.449 Y36.399 E34.14253
G1 X15.566 Y36.282 E34.1475
G1 X16.107 Y35.798 E34.16929
G1 X16.698 Y35.375 E34.1911
G1 X17.332 Y35.021 E34.2129
G0 F2400 X17.567 Y35.352
G1 F1200 X18.218 Y35.085 E34.23402
G1 X18.896 Y34.895 E34.25516
G1 X19.591 Y34.782 E34.27629
G1 X20.233 Y34.749 E34.29559
G1 X69.999 Y34.749 E35.78943
G1 X70.702 Y34.789 E35.81056
G1 X71.396 Y34.908 E35.8317
G1 X72.071 Y35.106 E35.85282
G1 X72.72 Y35.378 E35.87394
G1 X73.334 Y35.723 E35.89508
G1 X73.905 Y36.134 E35.9162
G1 X74.383 Y36.565 E35.93552
G1 X74.5 Y36.682 E35.94048
G1 X74.969 Y37.207 E35.96162
G1 X75.375 Y37.782 E35.98274
G1 X75.713 Y38.4 E36.00389
G1 X75.98 Y39.051 E36.02501
G1 X76.17 Y39.729 E36.04615
G1 X76.283 Y40.424 E36.06728
G1 X76.316 Y41.066 E36.08658
G1 X76.316 Y110.832 E38.18076
G1 X76.276 Y111.535 E38.2019
G1 X76.157 Y112.229 E38.22304
G1 X75.959 Y112.904 E38.24415
G1 X75.687 Y113.553 E38.26527
G1 X75.342 Y114.167 E38.28641
G1 X74.931 Y114.738 E38.30753
G1 X74.5 Y115.216 E38.32685
G1 X74.383 Y115.333 E38.33182
G1 X73.858 Y115.802 E38.35295
G1 X73.283 Y116.208 E38.37408
G1 X72.665 Y116.546 E38.39522
G1 X72.014 Y116.813 E38.41634
G1 X71.336 Y117.003 E38.43748
G1 X70.641 Y117.116 E38.45862
G1 X69.999 Y117.149 E38.47791
G1 X20.233 Y117.149 E39.97175
G1 X19.53 Y117.109 E39.99289
G1 X18.836 Y116.99 E40.01402
G1 X18.161 Y116.792 E40.03514
G1 X17.512 Y116.52 E40.05626
G1 X16.898 Y116.175 E40.0774
G1 X16.327 Y115.764 E40.09852
G1 X15.849 Y115.333 E40.11784
G1 X15.732 Y115.216 E40.12281
G1 X15.263 Y114.691 E40.14394
G1 X14.857 Y114.116 E40.16507
G1 X14.519 Y113.498 E40.18621
G1 X14.252 Y112.847 E40.20733
G1 X14.062 Y112.169 E40.22847
G1 X13.949 Y111.474 E40.2496
G1 X13.916 Y110.832 E40.2689
G1 X13.916 Y41.066 E42.36309
G1 X13.956 Y40.363 E42.38422
G1 X14.075 Y39.669 E42.40536
G1 X14.273 Y38.994 E42.42647
G1 X14.545 Y38.345 E42.4476
G1 X14.89 Y37.731 E42.46874
G1 X15.301 Y37.16 E42.48986
G1 X15.732 Y36.682 E42.50918
G1 X15.849 Y36.565 E42.51414
G1 X16.374 Y36.096 E42.53527
G1 X16.949 Y35.69 E42.5564
G1 X17.567 Y35.352 E42.57755
G0 F2400 X17.799 Y35.684
G1 F1200 X18.433 Y35.435 E42.59799
G1 X19.092 Y35.262 E42.61844
G1 X19.766 Y35.168 E42.63887
G1 X20.233 Y35.149 E42.6529
G1 X69.999 Y35.149 E44.14674
G1 X70.679 Y35.189 E44.16719
G1 X71.349 Y35.308 E44.18761
G1 X72.001 Y35.505 E44.20806
G1 X72.625 Y35.777 E44.22849
G1 X73.213 Y36.121 E44.24894
G1 X73.757 Y36.531 E44.26939
G1 X74.1 Y36.848 E44.28341
G1 X74.217 Y36.965 E44.28838
G1 X74.67 Y37.474 E44.30883
G1 X75.059 Y38.032 E44.32925
G1 X75.381 Y38.632 E44.34969
G1 X75.63 Y39.266 E44.37013
G1 X75.803 Y39.925 E44.39058
G1 X75.897 Y40.599 E44.41101
G1 X75.916 Y41.066 E44.42504
G1 X75.916 Y110.832 E46.51923
G1 X75.876 Y111.512 E46.53967
G1 X75.757 Y112.182 E46.5601
G1 X75.56 Y112.834 E46.58055
G1 X75.288 Y113.458 E46.60098
G1 X74.944 Y114.046 E46.62143
G1 X74.534 Y114.59 E46.64187
G1 X74.217 Y114.933 E46.65589
G1 X74.1 Y115.05 E46.66086
G1 X73.591 Y115.503 E46.68131
G1 X73.033 Y115.892 E46.70173
G1 X72.433 Y116.214 E46.72217
G1 X71.799 Y116.463 E46.74262
G1 X71.14 Y116.636 E46.76307
G1 X70.466 Y116.73 E46.7835
G1 X69.999 Y116.749 E46.79753
G1 X20.233 Y116.749 E48.29137
G1 X19.553 Y116.709 E48.31181
G1 X18.883 Y116.59 E48.33224
G1 X18.231 Y116.393 E48.35269
G1 X17.607 Y116.121 E48.37312
G1 X17.019 Y115.777 E48.39357
G1 X16.475 Y115.367 E48.41402
G1 X16.132 Y115.05 E48.42803
G1 X16.015 Y114.933 E48.433
G1 X15.562 Y114.424 E48.45345
G1 X15.173 Y113.866 E48.47387
G1 X14.851 Y113.266 E48.49431
G1 X14.602 Y112.632 E48.51476
G1 X14.429 Y111.973 E48.53521
G1 X14.335 Y111.299 E48.55564
G1 X14.316 Y110.832 E48.56967
G1 X14.316 Y41.066 E50.66385
G1 X14.356 Y40.386 E50.6843
G1 X14.475 Y39.716 E50.70473
G1 X14.672 Y39.064 E50.72517
G1 X14.944 Y38.44 E50.7456
G1 X15.288 Y37.852 E50.76605
G1 X15.698 Y37.308 E50.7865
G1 X16.015 Y36.965 E50.80052
G1 X16.132 Y36.848 E50.80549
G1 X16.641 Y36.395 E50.82594
G1 X17.199 Y36.006 E50.84636
G1 X17.799 Y35.684 E50.8668
G0 F2400 X17.448 Y36.323
G1 F1200 X18.03 Y36.019 E50.88651
G1 X18.645 Y35.788 E50.90623
G1 X19.284 Y35.633 E50.92597
G1 X20.233 Y35.549 E50.95456
G1 X69.999 Y35.549 E52.4484
G1 X70.655 Y35.589 E52.46813
G1 X71.301 Y35.708 E52.48785
G1 X71.928 Y35.905 E52.50758
G1 X72.526 Y36.177 E52.5273
G1 X73.087 Y36.519 E52.54702
G1 X73.817 Y37.131 E52.57561
G1 X73.934 Y37.248 E52.58058
G1 X74.37 Y37.74 E52.60031
G1 X74.742 Y38.281 E52.62002
G1 X75.046 Y38.863 E52.63973
G1 X75.277 Y39.478 E52.65945
G1 X75.432 Y40.117 E52.67919
G1 X75.516 Y41.066 E52.70779
G1 X75.516 Y110.832 E54.80197
G1 X75.476 Y111.488 E54.8217
G1 X75.357 Y112.134 E54.84142
G1 X75.16 Y112.761 E54.86114
G1 X74.888 Y113.359 E54.88086
G1 X74.546 Y113.92 E54.90059
G1 X73.934 Y114.65 E54.92918
G1 X73.817 Y114.767 E54.93415
G1 X73.325 Y115.203 E54.95388
G1 X72.784 Y115.575 E54.97359
G1 X72.202 Y115.879 E54.9933
G1 X71.587 Y116.11 E55.01302
G1 X70.948 Y116.265 E55.03275
G1 X69.999 Y116.349 E55.06135
G1 X20.233 Y116.349 E56.55519
G1 X19.577 Y116.309 E56.57492
G1 X18.931 Y116.19 E56.59464
G1 X18.304 Y115.993 E56.61437
G1 X17.706 Y115.721 E56.63409
G1 X17.145 Y115.379 E56.65381
G1 X16.415 Y114.767 E56.6824
G1 X16.298 Y114.65 E56.68737
G1 X15.862 Y114.158 E56.7071
G1 X15.49 Y113.617 E56.72681
G1 X15.186 Y113.035 E56.74652
G1 X14.955 Y112.42 E56.76624
G1 X14.8 Y111.781 E56.78598
G1 X14.716 Y110.832 E56.81457
G1 X14.716 Y41.066 E58.90876
G1 X14.756 Y40.41 E58.92849
G1 X14.875 Y39.764 E58.9482
G1 X15.072 Y39.137 E58.96793
G1 X15.344 Y38.539 E58.98765
G1 X15.686 Y37.978 E59.00737
G1 X16.298 Y37.248 E59.03597
G1 X16.415 Y37.131 E59.04094
G1 X16.907 Y36.695 E59.06067
G1 X17.448 Y36.323 E59.08038
G0 F2400 X17.695 Y36.641
G1 F1200 X18.259 Y36.355 E59.09936
G1 X18.854 Y36.143 E59.11832
G1 X19.472 Y36.007 E59.13731
G1 X20.233 Y35.949 E59.16022
G1 X69.999 Y35.949 E60.65406
G1 X70.63 Y35.989 E60.67304
G1 X71.251 Y36.108 E60.69202
G1 X71.851 Y36.305 E60.71098
G1 X72.423 Y36.576 E60.72998
G1 X72.955 Y36.916 E60.74893
G1 X73.535 Y37.413 E60.77186
G1 X73.652 Y37.53 E60.77682
G1 X74.069 Y38.005 E60.7958
G1 X74.424 Y38.528 E60.81477
G1 X74.71 Y39.092 E60.83375
G1 X74.922 Y39.687 E60.85271
G1 X75.058 Y40.305 E60.87171
G1 X75.116 Y41.066 E60.89462
G1 X75.116 Y110.832 E62.9888
G1 X75.076 Y111.463 E63.00778
G1 X74.957 Y112.084 E63.02676
G1 X74.76 Y112.684 E63.04572
G1 X74.489 Y113.256 E63.06472
G1 X74.149 Y113.788 E63.08367
G1 X73.652 Y114.368 E63.1066
G1 X73.535 Y114.485 E63.11156
G1 X73.06 Y114.902 E63.13054
G1 X72.537 Y115.257 E63.14951
G1 X71.973 Y115.543 E63.16849
G1 X71.378 Y115.755 E63.18745
G1 X70.76 Y115.891 E63.20645
G1 X69.999 Y115.949 E63.22936
G1 X20.233 Y115.949 E64.72319
G1 X19.602 Y115.909 E64.74217
G1 X18.981 Y115.79 E64.76115
G1 X18.381 Y115.593 E64.78011
G1 X17.809 Y115.322 E64.79911
G1 X17.277 Y114.982 E64.81806
G1 X16.697 Y114.485 E64.84099
G1 X16.58 Y114.368 E64.84596
G1 X16.163 Y113.893 E64.86493
G1 X15.808 Y113.37 E64.8839
G1 X15.522 Y112.806 E64.90288
G1 X15.31 Y112.211 E64.92184
G1 X15.174 Y111.593 E64.94084
G1 X15.116 Y110.832 E64.96375
G1 X15.116 Y41.066 E67.05793
G1 X15.156 Y40.435 E67.07691
G1 X15.275 Y39.814 E67.09589
G1 X15.472 Y39.214 E67.11485
G1 X15.743 Y38.642 E67.13385
G1 X16.083 Y38.11 E67.1528
G1 X16.58 Y37.53 E67.17573
G1 X16.697 Y37.413 E67.18069
G1 X17.172 Y36.996 E67.19967
G1 X17.695 Y36.641 E67.21864
G0 F2400 X17.941 Y36.961
G1 F1200 X18.485 Y36.694 E67.23683
G1 X19.06 Y36.501 E67.25504
G1 X19.655 Y36.385 E67.27323
G1 X20.233 Y36.349 E67.29062
G1 X69.999 Y36.349 E68.78446
G1 X70.604 Y36.389 E68.80266
G1 X71.198 Y36.508 E68.82084
G1 X71.772 Y36.704 E68.83905
G1 X72.315 Y36.975 E68.85727
G1 X72.818 Y37.314 E68.87547
G1 X73.252 Y37.696 E68.89283
G1 X73.369 Y37.813 E68.89779
G1 X73.768 Y38.269 E68.91598
G1 X74.104 Y38.774 E68.93419
