;FLAVOR:Marlin
;TIME:4538
;Filament used: 1.98144m
;Layer height: 0.1
;MINX:3.715
;MINY:59.671
;MINZ:0.2
;MAXX:89.281
;MAXY:145.226
;MAXZ:13
;Generated with Cura_SteamEngine 4.4.1
M140 S60
M105
M190 S60
M104 S220
M105
M109 S220
M82 ;absolute extrusion mode
G28 ;Home
G1 Z15.0 F6000 ;Move the platform down 15mm
;Prime the extruder
G92 E0
G1 F200 E3
G92 E0
G92 E0
G92 E0
G1 F1500 E-6.5
;LAYER_COUNT:129
;LAYER:0
M107
G0 F2400 X27.461 Y64.11 Z0.2
;TYPE:SKIRT
G1 F1500 E0
G1 F1200 X30.874 Y62.597 E0.11206
G1 X31.651 Y62.301 E0.13702
G1 X35.187 Y61.166 E0.2485
G1 X35.989 Y60.955 E0.27339
G1 X39.648 Y60.197 E0.38556
G1 X40.467 Y60.072 E0.41042
G1 X44.171 Y59.708 E0.52214
G1 X45.005 Y59.671 E0.5472
G1 X48.737 Y59.705 E0.65923
G1 X49.565 Y59.757 E0.68414
G1 X53.272 Y60.187 E0.79616
G1 X54.089 Y60.326 E0.82103
G1 X57.715 Y61.144 E0.93261
G1 X58.51 Y61.368 E0.9574
G1 X62.033 Y62.566 E1.0691
G1 X62.809 Y62.878 E1.09421
G1 X66.185 Y64.447 E1.20595
G1 X66.914 Y64.834 E1.23073
G1 X70.107 Y66.752 E1.34254
G1 X70.798 Y67.219 E1.36757
G1 X73.768 Y69.467 E1.47938
G1 X74.402 Y70.002 E1.50428
G1 X77.122 Y72.558 E1.61632
G1 X77.694 Y73.156 E1.64116
G1 X80.123 Y75.98 E1.75297
G1 X80.631 Y76.638 E1.77793
G1 X82.744 Y79.702 E1.88965
G1 X83.181 Y80.413 E1.9147
G1 X84.957 Y83.69 E2.02658
G1 X85.311 Y84.436 E2.05137
G1 X86.73 Y87.88 E2.16318
G1 X87.006 Y88.666 E2.18819
G1 X88.049 Y92.24 E2.29994
G1 X88.238 Y93.045 E2.32476
G1 X88.899 Y96.721 E2.43688
G1 X89.002 Y97.546 E2.46183
G1 X89.266 Y101.248 E2.57324
G1 X89.281 Y102.079 E2.59819
G1 X89.149 Y105.809 E2.71022
G1 X89.076 Y106.634 E2.73508
G1 X88.55 Y110.323 E2.84694
G1 X88.389 Y111.139 E2.8719
G1 X87.475 Y114.743 E2.98351
G1 X87.228 Y115.537 E3.00847
G1 X85.929 Y119.042 E3.12068
G1 X85.6 Y119.802 E3.14553
G1 X83.948 Y123.127 E3.25698
G1 X83.538 Y123.852 E3.28198
G1 X81.527 Y127.003 E3.39419
G1 X81.045 Y127.677 E3.41906
G1 X78.725 Y130.58 E3.53061
G1 X78.173 Y131.199 E3.55551
G1 X75.546 Y133.851 E3.66756
G1 X74.928 Y134.412 E3.69261
G1 X72.045 Y136.758 E3.80418
G1 X71.379 Y137.244 E3.82893
G1 X68.252 Y139.281 E3.94095
G1 X67.531 Y139.697 E3.96594
G1 X64.214 Y141.384 E4.07764
G1 X63.456 Y141.72 E4.10253
G1 X59.967 Y143.05 E4.21461
G1 X59.176 Y143.305 E4.23956
G1 X55.585 Y144.251 E4.35103
G1 X54.77 Y144.419 E4.37601
G1 X51.079 Y144.98 E4.48808
G1 X50.253 Y145.061 E4.51299
G1 X46.534 Y145.226 E4.62473
G1 X45.705 Y145.219 E4.64962
G1 X41.982 Y144.988 E4.76159
G1 X41.159 Y144.893 E4.78646
G1 X37.484 Y144.269 E4.89835
G1 X36.672 Y144.086 E4.92333
G1 X33.1 Y143.078 E5.03474
G1 X32.313 Y142.81 E5.0597
G1 X28.849 Y141.42 E5.17174
G1 X28.096 Y141.07 E5.19666
G1 X24.804 Y139.322 E5.30855
G1 X24.097 Y138.897 E5.33331
G1 X21.008 Y136.811 E5.44519
G1 X20.341 Y136.307 E5.47029
G1 X17.496 Y133.905 E5.58205
G1 X16.894 Y133.339 E5.60686
G1 X14.313 Y130.643 E5.71889
G1 X13.768 Y130.01 E5.74396
G1 X11.499 Y127.065 E5.85556
G1 X11.03 Y126.384 E5.88038
G1 X9.084 Y123.213 E5.99206
G1 X8.689 Y122.485 E6.01692
G1 X7.084 Y119.113 E6.12902
G1 X6.766 Y118.34 E6.15411
G1 X5.535 Y114.827 E6.26585
G1 X5.303 Y114.034 E6.29065
G1 X4.448 Y110.399 E6.40274
G1 X4.301 Y109.579 E6.42775
G1 X3.841 Y105.895 E6.53919
G1 X3.782 Y105.069 E6.56405
G1 X3.715 Y101.338 E6.67606
G1 X3.745 Y100.509 E6.70096
G1 X4.074 Y96.801 E6.8127
G1 X4.192 Y95.975 E6.83775
G1 X4.916 Y92.319 E6.94962
G1 X5.118 Y91.52 E6.97436
G1 X6.222 Y87.966 E7.08607
G1 X6.512 Y87.183 E7.11113
G1 X7.994 Y83.757 E7.22318
G1 X8.363 Y83.016 E7.24803
G1 X10.192 Y79.78 E7.35961
G1 X10.636 Y79.082 E7.38444
G1 X12.806 Y76.046 E7.49646
G1 X13.328 Y75.393 E7.52155
G1 X15.805 Y72.613 E7.63332
G1 X16.387 Y72.026 E7.65813
G1 X19.141 Y69.527 E7.76976
G1 X19.786 Y69.002 E7.79472
G1 X22.807 Y66.798 E7.90697
G1 X23.504 Y66.344 E7.93194
G1 X26.722 Y64.486 E8.04348
G1 X27.461 Y64.11 E8.06837
G0 F2400 X27.623 Y64.476
G1 F1200 X31.036 Y62.963 E8.18044
G1 X31.773 Y62.682 E8.20411
G1 X35.309 Y61.547 E8.31559
G1 X36.07 Y61.347 E8.33921
G1 X39.729 Y60.589 E8.45137
G1 X40.506 Y60.47 E8.47497
G1 X44.21 Y60.106 E8.58669
G1 X45.001 Y60.071 E8.61045
G1 X48.733 Y60.105 E8.72248
G1 X49.519 Y60.154 E8.74612
G1 X53.226 Y60.584 E8.85814
G1 X54.001 Y60.716 E8.88174
G1 X57.627 Y61.534 E8.99332
G1 X58.381 Y61.747 E9.01684
G1 X61.904 Y62.945 E9.12853
G1 X62.641 Y63.24 E9.15236
G1 X66.017 Y64.809 E9.26411
G1 X66.708 Y65.176 E9.2876
G1 X69.901 Y67.094 E9.3994
G1 X70.557 Y67.538 E9.42318
G1 X73.527 Y69.786 E9.53499
G1 X74.128 Y70.293 E9.55859
G1 X76.848 Y72.849 E9.67063
G1 X77.391 Y73.416 E9.6942
G1 X79.82 Y76.24 E9.80601
G1 X80.302 Y76.865 E9.8297
G1 X82.415 Y79.929 E9.94143
G1 X82.829 Y80.604 E9.96519
G1 X84.605 Y83.881 E10.07708
G1 X84.941 Y84.588 E10.10058
G1 X86.36 Y88.032 E10.21239
G1 X86.622 Y88.778 E10.23612
G1 X87.665 Y92.352 E10.34788
G1 X87.844 Y93.115 E10.3714
G1 X88.505 Y96.791 E10.48351
G1 X88.603 Y97.575 E10.50723
G1 X88.867 Y101.277 E10.61864
G1 X88.881 Y102.065 E10.64229
G1 X88.749 Y105.795 E10.75433
G1 X88.68 Y106.578 E10.77792
G1 X88.154 Y110.267 E10.88978
G1 X88.001 Y111.041 E10.91346
G1 X87.087 Y114.645 E11.02507
G1 X86.853 Y115.398 E11.04874
G1 X85.554 Y118.903 E11.16094
G1 X85.242 Y119.624 E11.18452
G1 X83.59 Y122.949 E11.29597
G1 X83.201 Y123.637 E11.31969
G1 X81.19 Y126.788 E11.4319
G1 X80.733 Y127.427 E11.45548
G1 X78.413 Y130.33 E11.56703
G1 X77.889 Y130.918 E11.59067
G1 X75.262 Y133.57 E11.70272
G1 X74.676 Y134.102 E11.72648
G1 X71.793 Y136.448 E11.83805
G1 X71.161 Y136.908 E11.86152
G1 X68.034 Y138.945 E11.97354
G1 X67.35 Y139.341 E11.99726
G1 X64.033 Y141.028 E12.10897
G1 X63.314 Y141.347 E12.13258
G1 X59.825 Y142.677 E12.24466
G1 X59.074 Y142.918 E12.26834
G1 X55.483 Y143.864 E12.37981
G1 X54.71 Y144.024 E12.4035
G1 X51.019 Y144.585 E12.51557
G1 X50.235 Y144.662 E12.53921
G1 X46.516 Y144.827 E12.65096
G1 X45.73 Y144.82 E12.67455
G1 X42.007 Y144.589 E12.78652
G1 X41.226 Y144.499 E12.81012
G1 X37.551 Y143.875 E12.92201
G1 X36.78 Y143.701 E12.94574
G1 X33.208 Y142.693 E13.05715
G1 X32.462 Y142.439 E13.0808
G1 X28.998 Y141.049 E13.19284
G1 X28.284 Y140.717 E13.21648
G1 X24.992 Y138.969 E13.32836
G1 X24.321 Y138.566 E13.35186
G1 X21.232 Y136.48 E13.46374
G1 X20.599 Y136.001 E13.48757
G1 X17.754 Y133.599 E13.59934
G1 X17.183 Y133.062 E13.62286
G1 X14.602 Y130.366 E13.7349
G1 X14.085 Y129.765 E13.75869
G1 X11.816 Y126.82 E13.87029
G1 X11.371 Y126.175 E13.89381
G1 X9.425 Y123.004 E14.00549
G1 X9.05 Y122.313 E14.02909
G1 X7.445 Y118.941 E14.14119
G1 X7.143 Y118.208 E14.16499
G1 X5.912 Y114.695 E14.27672
G1 X5.693 Y113.942 E14.30026
G1 X4.838 Y110.307 E14.41235
G1 X4.698 Y109.53 E14.43605
G1 X4.238 Y105.846 E14.5475
G1 X4.182 Y105.062 E14.57109
G1 X4.115 Y101.331 E14.6831
G1 X4.143 Y100.544 E14.70674
G1 X4.472 Y96.836 E14.81848
G1 X4.584 Y96.052 E14.84225
G1 X5.308 Y92.396 E14.95413
G1 X5.5 Y91.639 E14.97757
G1 X6.604 Y88.085 E15.08928
G1 X6.879 Y87.342 E15.11306
G1 X8.361 Y83.916 E15.22511
G1 X8.711 Y83.213 E15.24868
G1 X10.54 Y79.977 E15.36026
G1 X10.962 Y79.315 E15.38383
G1 X13.132 Y76.279 E15.49584
G1 X13.627 Y75.659 E15.51966
G1 X16.104 Y72.879 E15.63143
G1 X16.656 Y72.322 E15.65497
G1 X19.41 Y69.823 E15.76659
G1 X20.022 Y69.325 E15.79028
G1 X23.043 Y67.121 E15.90253
G1 X23.704 Y66.69 E15.92622
G1 X26.922 Y64.832 E16.03776
G1 X27.623 Y64.476 E16.06136
G0 F2400 X27.785 Y64.842
G1 F1200 X31.198 Y63.329 E16.17342
G1 X31.896 Y63.063 E16.19584
G1 X35.432 Y61.928 E16.30732
G1 X36.151 Y61.739 E16.32963
G1 X39.81 Y60.981 E16.4418
G1 X40.545 Y60.869 E16.46411
G1 X44.249 Y60.505 E16.57583
G1 X44.998 Y60.471 E16.59834
G1 X48.73 Y60.505 E16.71037
G1 X49.473 Y60.552 E16.73272
G1 X53.18 Y60.982 E16.84474
G1 X53.913 Y61.107 E16.86706
G1 X57.539 Y61.925 E16.97864
G1 X58.253 Y62.126 E17.0009
G1 X61.776 Y63.324 E17.1126
G1 X62.472 Y63.603 E17.13511
G1 X65.848 Y65.172 E17.24685
G1 X66.503 Y65.519 E17.2691
G1 X69.696 Y67.437 E17.38091
G1 X70.316 Y67.857 E17.40339
G1 X73.286 Y70.105 E17.5152
G1 X73.855 Y70.585 E17.53755
G1 X76.575 Y73.141 E17.64959
G1 X77.088 Y73.677 E17.67186
G1 X79.517 Y76.501 E17.78367
G1 X79.973 Y77.092 E17.80608
G1 X82.086 Y80.156 E17.9178
G1 X82.477 Y80.795 E17.94028
G1 X84.253 Y84.072 E18.05217
G1 X84.571 Y84.74 E18.07438
G1 X85.99 Y88.184 E18.18619
G1 X86.238 Y88.89 E18.20865
G1 X87.281 Y92.464 E18.32041
G1 X87.451 Y93.186 E18.34267
G1 X88.112 Y96.862 E18.45478
G1 X88.204 Y97.603 E18.4772
G1 X88.468 Y101.305 E18.5886
G1 X88.482 Y102.051 E18.611
G1 X88.35 Y105.781 E18.72303
G1 X88.284 Y106.521 E18.74534
G1 X87.758 Y110.21 E18.85719
G1 X87.613 Y110.943 E18.87962
G1 X86.699 Y114.547 E18.99123
G1 X86.478 Y115.259 E19.0136
G1 X85.179 Y118.764 E19.12581
G1 X84.884 Y119.446 E19.14811
G1 X83.232 Y122.771 E19.25956
G1 X82.864 Y123.422 E19.28201
G1 X80.853 Y126.573 E19.39421
G1 X80.42 Y127.177 E19.41652
G1 X78.1 Y130.08 E19.52807
G1 X77.605 Y130.636 E19.55041
G1 X74.978 Y133.288 E19.66246
G1 X74.423 Y133.792 E19.68497
G1 X71.54 Y136.138 E19.79654
G1 X70.943 Y136.573 E19.81871
G1 X67.816 Y138.61 E19.93074
G1 X67.168 Y138.984 E19.95319
G1 X63.851 Y140.671 E20.0649
G1 X63.171 Y140.973 E20.08723
G1 X59.682 Y142.303 E20.19932
G1 X58.972 Y142.531 E20.2217
G1 X55.381 Y143.477 E20.33317
G1 X54.65 Y143.629 E20.35558
G1 X50.959 Y144.19 E20.46765
G1 X50.217 Y144.262 E20.49002
G1 X46.498 Y144.427 E20.60177
G1 X45.755 Y144.421 E20.62407
G1 X42.032 Y144.19 E20.73604
G1 X41.293 Y144.104 E20.75837
G1 X37.618 Y143.48 E20.87027
G1 X36.889 Y143.316 E20.8927
G1 X33.317 Y142.308 E21.0041
G1 X32.611 Y142.067 E21.0265
G1 X29.147 Y140.677 E21.13854
G1 X28.471 Y140.363 E21.16091
G1 X25.179 Y138.615 E21.27279
G1 X24.544 Y138.234 E21.29502
G1 X21.455 Y136.148 E21.40691
G1 X20.857 Y135.696 E21.42941
G1 X18.012 Y133.294 E21.54118
G1 X17.472 Y132.786 E21.56343
G1 X14.891 Y130.09 E21.67546
G1 X14.402 Y129.521 E21.69798
G1 X12.133 Y126.576 E21.80958
G1 X11.712 Y125.965 E21.83185
G1 X9.766 Y122.794 E21.94353
G1 X9.411 Y122.141 E21.96584
G1 X7.806 Y118.769 E22.07794
G1 X7.521 Y118.076 E22.10043
G1 X6.29 Y114.563 E22.21217
G1 X6.082 Y113.851 E22.23444
G1 X5.227 Y110.216 E22.34653
G1 X5.095 Y109.48 E22.36897
G1 X4.635 Y105.796 E22.48041
G1 X4.582 Y105.055 E22.50271
G1 X4.515 Y101.324 E22.61473
G1 X4.541 Y100.579 E22.6371
G1 X4.87 Y96.871 E22.74884
G1 X4.976 Y96.13 E22.77131
G1 X5.7 Y92.474 E22.88319
G1 X5.882 Y91.757 E22.90539
G1 X6.986 Y88.203 E23.0171
G1 X7.246 Y87.501 E23.03957
G1 X8.728 Y84.075 E23.15162
G1 X9.059 Y83.41 E23.17392
G1 X10.888 Y80.174 E23.2855
G1 X11.287 Y79.548 E23.30778
G1 X13.457 Y76.512 E23.4198
G1 X13.926 Y75.925 E23.44235
G1 X16.403 Y73.145 E23.55412
G1 X16.925 Y72.618 E23.57639
G1 X19.679 Y70.119 E23.68801
G1 X20.257 Y69.648 E23.71039
G1 X23.278 Y67.444 E23.82264
G1 X23.904 Y67.037 E23.84506
G1 X27.122 Y65.179 E23.9566
G1 X27.785 Y64.842 E23.97892
G0 F2400 X27.947 Y65.207
G1 F1200 X31.36 Y63.694 E24.09099
G1 X32.018 Y63.444 E24.11212
G1 X35.554 Y62.309 E24.22359
G1 X36.232 Y62.13 E24.24464
G1 X39.891 Y61.372 E24.35681
G1 X40.585 Y61.267 E24.37787
G1 X44.289 Y60.903 E24.48959
G1 X44.994 Y60.871 E24.51078
G1 X48.726 Y60.905 E24.62281
G1 X49.426 Y60.949 E24.64386
G1 X53.133 Y61.379 E24.75588
G1 X53.825 Y61.497 E24.77695
G1 X57.451 Y62.315 E24.88853
G1 X58.124 Y62.504 E24.90951
G1 X61.647 Y63.702 E25.02121
G1 X62.304 Y63.966 E25.04247
G1 X65.68 Y65.535 E25.15421
G1 X66.297 Y65.862 E25.17517
G1 X69.49 Y67.78 E25.28698
G1 X70.074 Y68.175 E25.30815
G1 X73.044 Y70.423 E25.41996
G1 X73.581 Y70.876 E25.44104
G1 X76.301 Y73.432 E25.55308
G1 X76.785 Y73.938 E25.5741
G1 X79.214 Y76.762 E25.68591
G1 X79.643 Y77.319 E25.70702
G1 X81.756 Y80.383 E25.81874
G1 X82.126 Y80.985 E25.83995
G1 X83.902 Y84.262 E25.95183
G1 X84.201 Y84.893 E25.97279
G1 X85.62 Y88.337 E26.0846
G1 X85.854 Y89.002 E26.10577
G1 X86.897 Y92.576 E26.21752
G1 X87.057 Y93.257 E26.23852
G1 X87.718 Y96.933 E26.35063
G1 X87.805 Y97.632 E26.37178
G1 X88.069 Y101.334 E26.48318
G1 X88.082 Y102.036 E26.50426
G1 X87.95 Y105.766 E26.61629
G1 X87.888 Y106.465 E26.63736
G1 X87.362 Y110.154 E26.74921
G1 X87.225 Y110.844 E26.77033
G1 X86.311 Y114.448 E26.88194
G1 X86.103 Y115.12 E26.90305
G1 X84.804 Y118.625 E27.01526
G1 X84.526 Y119.268 E27.03628
G1 X82.874 Y122.593 E27.14773
G1 X82.527 Y123.207 E27.1689
G1 X80.516 Y126.358 E27.28111
G1 X80.108 Y126.927 E27.30212
G1 X77.788 Y129.83 E27.41367
G1 X77.321 Y130.355 E27.43476
G1 X74.694 Y133.007 E27.54681
G1 X74.171 Y133.481 E27.568
G1 X71.288 Y135.827 E27.67957
G1 X70.724 Y136.238 E27.70052
G1 X67.597 Y138.275 E27.81254
G1 X66.987 Y138.628 E27.8337
G1 X63.67 Y140.315 E27.9454
G1 X63.029 Y140.599 E27.96645
G1 X59.54 Y141.929 E28.07853
G1 X58.87 Y142.144 E28.09965
G1 X55.279 Y143.09 E28.21112
G1 X54.59 Y143.233 E28.23224
G1 X50.899 Y143.794 E28.34431
G1 X50.2 Y143.863 E28.3654
G1 X46.481 Y144.028 E28.47714
G1 X45.779 Y144.021 E28.49821
G1 X42.056 Y143.79 E28.61018
G1 X41.36 Y143.71 E28.63121
G1 X37.685 Y143.086 E28.7431
G1 X36.998 Y142.931 E28.76424
G1 X33.426 Y141.923 E28.87565
G1 X32.76 Y141.696 E28.89677
G1 X29.296 Y140.306 E29.00881
G1 X28.659 Y140.01 E29.0299
G1 X25.367 Y138.262 E29.14178
G1 X24.768 Y137.903 E29.16274
G1 X21.679 Y135.817 E29.27463
G1 X21.115 Y135.39 E29.29586
G1 X18.27 Y132.988 E29.40763
G1 X17.761 Y132.509 E29.42861
G1 X15.18 Y129.813 E29.54064
G1 X14.719 Y129.277 E29.56186
G1 X12.45 Y126.332 E29.67346
G1 X12.053 Y125.756 E29.69446
G1 X10.107 Y122.585 E29.80614
G1 X9.773 Y121.97 E29.82715
G1 X8.168 Y118.598 E29.93924
G1 X7.898 Y117.944 E29.96048
G1 X6.667 Y114.431 E30.07222
G1 X6.471 Y113.759 E30.09323
G1 X5.616 Y110.124 E30.20532
G1 X5.492 Y109.431 E30.22646
G1 X5.032 Y105.747 E30.3379
G1 X4.982 Y105.048 E30.35893
G1 X4.915 Y101.317 E30.47095
G1 X4.94 Y100.615 E30.49203
G1 X5.269 Y96.907 E30.60377
G1 X5.369 Y96.208 E30.62497
G1 X6.093 Y92.552 E30.73684
G1 X6.264 Y91.876 E30.75777
G1 X7.368 Y88.322 E30.86948
G1 X7.613 Y87.66 E30.89067
G1 X9.095 Y84.234 E31.00272
G1 X9.407 Y83.606 E31.02377
G1 X11.236 Y80.37 E31.13535
G1 X11.613 Y79.78 E31.15636
G1 X13.783 Y76.744 E31.26838
G1 X14.224 Y76.191 E31.28961
G1 X16.701 Y73.411 E31.40138
G1 X17.194 Y72.914 E31.42239
G1 X19.948 Y70.415 E31.53402
G1 X20.493 Y69.971 E31.55512
G1 X23.514 Y67.767 E31.66737
G1 X24.104 Y67.383 E31.6885
G1 X27.322 Y65.525 E31.80005
G1 X27.947 Y65.207 E31.82109
G0 F2400 X28.109 Y65.573
G1 F1200 X31.522 Y64.06 E31.93316
G1 X32.14 Y63.825 E31.95301
G1 X35.676 Y62.69 E32.06448
G1 X36.313 Y62.522 E32.08426
G1 X39.972 Y61.764 E32.19642
G1 X40.624 Y61.665 E32.21622
G1 X44.328 Y61.301 E32.32794
G1 X44.99 Y61.271 E32.34783
G1 X48.722 Y61.305 E32.45986
G1 X49.38 Y61.346 E32.47965
G1 X53.087 Y61.776 E32.59167
G1 X53.737 Y61.887 E32.61146
G1 X57.363 Y62.705 E32.72304
G1 X57.995 Y62.883 E32.74275
G1 X61.518 Y64.081 E32.85444
G1 X62.135 Y64.329 E32.87441
G1 X65.511 Y65.898 E32.98615
G1 X66.091 Y66.205 E33.00585
G1 X69.284 Y68.123 E33.11766
G1 X69.833 Y68.494 E33.13755
G1 X72.803 Y70.742 E33.24936
G1 X73.307 Y71.168 E33.26917
G1 X76.027 Y73.724 E33.38121
G1 X76.481 Y74.199 E33.40093
G1 X78.91 Y77.023 E33.51274
G1 X79.314 Y77.546 E33.53258
G1 X81.427 Y80.61 E33.6443
G1 X81.774 Y81.176 E33.66423
G1 X83.55 Y84.453 E33.77611
G1 X83.831 Y85.045 E33.79579
G1 X85.25 Y88.489 E33.9076
G1 X85.47 Y89.114 E33.92749
G1 X86.513 Y92.688 E34.03924
G1 X86.663 Y93.328 E34.05897
G1 X87.324 Y97.004 E34.17109
G1 X87.406 Y97.66 E34.19093
G1 X87.67 Y101.362 E34.30234
G1 X87.682 Y102.022 E34.32215
G1 X87.55 Y105.752 E34.43419
G1 X87.492 Y106.408 E34.45395
G1 X86.966 Y110.097 E34.56581
G1 X86.838 Y110.746 E34.58566
G1 X85.924 Y114.35 E34.69727
G1 X85.728 Y114.981 E34.71711
G1 X84.429 Y118.486 E34.82931
G1 X84.167 Y119.09 E34.84907
G1 X82.515 Y122.415 E34.96052
G1 X82.189 Y122.991 E34.98039
G1 X80.178 Y126.142 E35.09259
G1 X79.795 Y126.678 E35.11237
G1 X77.475 Y129.581 E35.22392
G1 X77.037 Y130.073 E35.24369
G1 X74.41 Y132.725 E35.35574
G1 X73.918 Y133.171 E35.37567
G1 X71.035 Y135.517 E35.48724
G1 X70.506 Y135.903 E35.5069
G1 X67.379 Y137.94 E35.61892
G1 X66.806 Y138.271 E35.63879
G1 X63.489 Y139.958 E35.75049
G1 X62.886 Y140.225 E35.77029
G1 X59.397 Y141.555 E35.88237
G1 X58.768 Y141.757 E35.9022
G1 X55.177 Y142.703 E36.01367
