;FLAVOR:Marlin
;TIME:6294
;Filament used: 2.68526m
;Layer height: 0.1
;MINX:4.572
;MINY:63.336
;MINZ:0.2
;MAXX:70.172
;MAXY:148.936
;MAXZ:8.5
;Generated with Cura_SteamEngine 4.4.1
M140 S60
M105
M190 S60
M104 S220
M105
M109 S220
M82 ;absolute extrusion mode
G28 ;Home
G1 Z15.0 F6000 ;Move the platform down 15mm
;Prime the extruder
G92 E0
G1 F200 E3
G92 E0
G92 E0
G92 E0
G1 F1500 E-6.5
;LAYER_COUNT:84
;LAYER:0
M107
G0 F2400 X11.11 Y63.459 Z0.2
;TYPE:SKIRT
G1 F1500 E0
G1 F1200 X11.894 Y63.359 E0.02372
G1 X12.489 Y63.336 E0.0416
G1 X62.255 Y63.336 E1.53544
G1 X63.044 Y63.376 E1.55915
G1 X63.824 Y63.495 E1.58284
G1 X64.589 Y63.693 E1.60656
G1 X65.329 Y63.967 E1.63024
G1 X66.038 Y64.315 E1.65395
G1 X66.709 Y64.733 E1.67768
G1 X67.333 Y65.216 E1.70137
G1 X67.77 Y65.621 E1.71925
G1 X67.887 Y65.738 E1.72422
G1 X68.417 Y66.324 E1.74794
G1 X68.884 Y66.96 E1.77162
G1 X69.285 Y67.64 E1.79532
G1 X69.615 Y68.358 E1.81904
G1 X69.87 Y69.105 E1.84273
G1 X70.049 Y69.874 E1.86643
G1 X70.149 Y70.658 E1.89015
G1 X70.172 Y71.253 E1.90803
G1 X70.172 Y141.019 E4.00221
G1 X70.132 Y141.808 E4.02593
G1 X70.013 Y142.588 E4.04961
G1 X69.815 Y143.353 E4.07333
G1 X69.541 Y144.093 E4.09702
G1 X69.193 Y144.802 E4.12073
G1 X68.775 Y145.473 E4.14446
G1 X68.292 Y146.097 E4.16814
G1 X67.887 Y146.534 E4.18603
G1 X67.77 Y146.651 E4.19099
G1 X67.184 Y147.181 E4.21471
G1 X66.548 Y147.648 E4.2384
G1 X65.868 Y148.049 E4.26209
G1 X65.15 Y148.379 E4.28581
G1 X64.403 Y148.634 E4.30951
G1 X63.634 Y148.813 E4.33321
G1 X62.85 Y148.913 E4.35693
G1 X62.255 Y148.936 E4.3748
G1 X12.489 Y148.936 E5.86864
G1 X11.7 Y148.896 E5.89236
G1 X10.92 Y148.777 E5.91604
G1 X10.155 Y148.579 E5.93976
G1 X9.415 Y148.305 E5.96345
G1 X8.706 Y147.957 E5.98716
G1 X8.035 Y147.539 E6.01089
G1 X7.411 Y147.056 E6.03457
G1 X6.974 Y146.651 E6.05246
G1 X6.857 Y146.534 E6.05742
G1 X6.327 Y145.948 E6.08114
G1 X5.86 Y145.312 E6.10483
G1 X5.459 Y144.632 E6.12852
G1 X5.129 Y143.914 E6.15224
G1 X4.874 Y143.167 E6.17594
G1 X4.695 Y142.398 E6.19964
G1 X4.595 Y141.614 E6.22336
G1 X4.572 Y141.019 E6.24123
G1 X4.572 Y71.253 E8.33542
G1 X4.612 Y70.464 E8.35913
G1 X4.731 Y69.684 E8.38282
G1 X4.929 Y68.919 E8.40654
G1 X5.203 Y68.179 E8.43022
G1 X5.551 Y67.47 E8.45393
G1 X5.969 Y66.799 E8.47766
G1 X6.452 Y66.175 E8.50135
G1 X6.857 Y65.738 E8.51923
G1 X6.974 Y65.621 E8.5242
G1 X7.56 Y65.091 E8.54792
G1 X8.196 Y64.624 E8.5716
G1 X8.876 Y64.223 E8.5953
G1 X9.594 Y63.893 E8.61902
G1 X10.341 Y63.638 E8.64271
G1 X11.11 Y63.459 E8.66641
G0 F2400 X11.299 Y63.832
G1 F1200 X12.064 Y63.748 E8.68951
G1 X12.489 Y63.736 E8.70228
G1 X62.255 Y63.736 E10.19611
G1 X63.023 Y63.776 E10.2192
G1 X63.783 Y63.895 E10.24229
G1 X64.526 Y64.093 E10.26537
G1 X65.245 Y64.367 E10.28847
G1 X65.931 Y64.714 E10.31154
G1 X66.578 Y65.13 E10.33463
G1 X67.178 Y65.611 E10.35772
G1 X67.488 Y65.903 E10.3705
G1 X67.605 Y66.02 E10.37547
G1 X68.119 Y66.592 E10.39855
G1 X68.572 Y67.214 E10.42165
G1 X68.958 Y67.879 E10.44473
G1 X69.273 Y68.581 E10.46783
G1 X69.513 Y69.312 E10.49092
G1 X69.676 Y70.063 E10.51399
G1 X69.76 Y70.828 E10.53709
G1 X69.772 Y71.253 E10.54985
G1 X69.772 Y141.019 E12.64404
G1 X69.732 Y141.787 E12.66712
G1 X69.613 Y142.547 E12.69021
G1 X69.415 Y143.29 E12.71329
G1 X69.141 Y144.009 E12.73639
G1 X68.794 Y144.695 E12.75947
G1 X68.378 Y145.342 E12.78256
G1 X67.897 Y145.942 E12.80564
G1 X67.605 Y146.252 E12.81842
G1 X67.488 Y146.369 E12.82339
G1 X66.916 Y146.883 E12.84647
G1 X66.294 Y147.336 E12.86957
G1 X65.629 Y147.722 E12.89265
G1 X64.927 Y148.037 E12.91575
G1 X64.196 Y148.277 E12.93884
G1 X63.445 Y148.44 E12.96191
G1 X62.68 Y148.524 E12.98501
G1 X62.255 Y148.536 E12.99777
G1 X12.489 Y148.536 E14.49161
G1 X11.721 Y148.496 E14.5147
G1 X10.961 Y148.377 E14.53779
G1 X10.218 Y148.179 E14.56087
G1 X9.499 Y147.905 E14.58397
G1 X8.813 Y147.558 E14.60704
G1 X8.166 Y147.142 E14.63013
G1 X7.566 Y146.661 E14.65321
G1 X7.256 Y146.369 E14.666
G1 X7.139 Y146.252 E14.67097
G1 X6.625 Y145.68 E14.69405
G1 X6.172 Y145.058 E14.71715
G1 X5.786 Y144.393 E14.74023
G1 X5.471 Y143.691 E14.76332
G1 X5.231 Y142.96 E14.78642
G1 X5.068 Y142.209 E14.80949
G1 X4.984 Y141.444 E14.83259
G1 X4.972 Y141.019 E14.84535
G1 X4.972 Y71.253 E16.93953
G1 X5.012 Y70.485 E16.96262
G1 X5.131 Y69.725 E16.98571
G1 X5.329 Y68.982 E17.00879
G1 X5.603 Y68.263 E17.03189
G1 X5.95 Y67.577 E17.05496
G1 X6.366 Y66.93 E17.07805
G1 X6.847 Y66.33 E17.10114
G1 X7.139 Y66.02 E17.11392
G1 X7.256 Y65.903 E17.11889
G1 X7.828 Y65.389 E17.14197
G1 X8.45 Y64.936 E17.16507
G1 X9.115 Y64.55 E17.18815
G1 X9.817 Y64.235 E17.21124
G1 X10.548 Y63.995 E17.23434
G1 X11.299 Y63.832 E17.25741
G0 F2400 X11.485 Y64.208
G1 F1200 X12.489 Y64.136 E17.28762
G1 X62.255 Y64.136 E18.78146
G1 X63.002 Y64.176 E18.80392
G1 X63.74 Y64.295 E18.82636
G1 X64.462 Y64.493 E18.84883
G1 X65.158 Y64.766 E18.87127
G1 X65.821 Y65.113 E18.89373
G1 X66.444 Y65.528 E18.9162
G1 X67.205 Y66.186 E18.9464
G1 X67.322 Y66.303 E18.95137
G1 X67.822 Y66.86 E18.97384
G1 X68.259 Y67.466 E18.99626
G1 X68.63 Y68.116 E19.01873
G1 X68.929 Y68.802 E19.04119
G1 X69.153 Y69.516 E19.06365
G1 X69.3 Y70.249 E19.08609
G1 X69.372 Y71.253 E19.11631
G1 X69.372 Y141.019 E21.21049
G1 X69.332 Y141.766 E21.23295
G1 X69.213 Y142.504 E21.25539
G1 X69.015 Y143.226 E21.27786
G1 X68.742 Y143.922 E21.3003
G1 X68.395 Y144.585 E21.32276
G1 X67.98 Y145.208 E21.34523
G1 X67.322 Y145.969 E21.37543
G1 X67.205 Y146.086 E21.3804
G1 X66.648 Y146.586 E21.40287
G1 X66.042 Y147.023 E21.42529
G1 X65.392 Y147.394 E21.44776
G1 X64.706 Y147.693 E21.47022
G1 X63.992 Y147.917 E21.49268
G1 X63.259 Y148.064 E21.51513
G1 X62.255 Y148.136 E21.54534
G1 X12.489 Y148.136 E23.03918
G1 X11.742 Y148.096 E23.06163
G1 X11.004 Y147.977 E23.08407
G1 X10.282 Y147.779 E23.10655
G1 X9.586 Y147.506 E23.12899
G1 X8.923 Y147.159 E23.15145
G1 X8.3 Y146.744 E23.17392
G1 X7.539 Y146.086 E23.20412
G1 X7.422 Y145.969 E23.20909
G1 X6.922 Y145.412 E23.23155
G1 X6.485 Y144.806 E23.25398
G1 X6.114 Y144.156 E23.27645
G1 X5.815 Y143.47 E23.29891
G1 X5.591 Y142.756 E23.32137
G1 X5.444 Y142.023 E23.34381
G1 X5.372 Y141.019 E23.37403
G1 X5.372 Y71.253 E25.46821
G1 X5.412 Y70.506 E25.49067
G1 X5.531 Y69.768 E25.51311
G1 X5.729 Y69.046 E25.53558
G1 X6.002 Y68.35 E25.55802
G1 X6.349 Y67.687 E25.58048
G1 X6.764 Y67.064 E25.60295
G1 X7.422 Y66.303 E25.63315
G1 X7.539 Y66.186 E25.63812
G1 X8.096 Y65.686 E25.66058
G1 X8.702 Y65.249 E25.68301
G1 X9.352 Y64.878 E25.70548
G1 X10.038 Y64.579 E25.72794
G1 X10.752 Y64.355 E25.7504
G1 X11.485 Y64.208 E25.77284
G0 F2400 X11.668 Y64.587
G1 F1200 X12.489 Y64.536 E25.79753
G1 X62.255 Y64.536 E27.29137
G1 X62.98 Y64.576 E27.31317
G1 X63.697 Y64.695 E27.33499
G1 X64.396 Y64.893 E27.35679
G1 X65.069 Y65.166 E27.37859
G1 X65.708 Y65.511 E27.40039
G1 X66.305 Y65.925 E27.4222
G1 X66.922 Y66.469 E27.44689
G1 X67.039 Y66.586 E27.45186
G1 X67.523 Y67.127 E27.47365
G1 X67.946 Y67.718 E27.49546
G1 X68.3 Y68.352 E27.51726
G1 X68.583 Y69.021 E27.53907
G1 X68.791 Y69.717 E27.56087
G1 X68.921 Y70.432 E27.58268
G1 X68.972 Y71.253 E27.60738
G1 X68.972 Y141.019 E29.70156
G1 X68.932 Y141.744 E29.72336
G1 X68.813 Y142.461 E29.74517
G1 X68.615 Y143.16 E29.76698
G1 X68.342 Y143.833 E29.78878
G1 X67.997 Y144.472 E29.81058
G1 X67.583 Y145.069 E29.83239
G1 X67.039 Y145.686 E29.85708
G1 X66.922 Y145.803 E29.86205
G1 X66.381 Y146.287 E29.88384
G1 X65.79 Y146.71 E29.90565
G1 X65.156 Y147.064 E29.92745
G1 X64.487 Y147.347 E29.94925
G1 X63.791 Y147.555 E29.97106
G1 X63.076 Y147.685 E29.99287
G1 X62.255 Y147.736 E30.01756
G1 X12.489 Y147.736 E31.5114
G1 X11.764 Y147.696 E31.5332
G1 X11.047 Y147.577 E31.55501
G1 X10.348 Y147.379 E31.57682
G1 X9.675 Y147.106 E31.59862
G1 X9.036 Y146.761 E31.62042
G1 X8.439 Y146.347 E31.64223
G1 X7.822 Y145.803 E31.66692
G1 X7.705 Y145.686 E31.67189
G1 X7.221 Y145.145 E31.69368
G1 X6.798 Y144.554 E31.71549
G1 X6.444 Y143.92 E31.73729
G1 X6.161 Y143.251 E31.75909
G1 X5.953 Y142.555 E31.7809
G1 X5.823 Y141.84 E31.80271
G1 X5.772 Y141.019 E31.8274
G1 X5.772 Y71.253 E33.92159
G1 X5.812 Y70.528 E33.94338
G1 X5.931 Y69.811 E33.9652
G1 X6.129 Y69.112 E33.98701
G1 X6.402 Y68.439 E34.00881
G1 X6.747 Y67.8 E34.03061
G1 X7.161 Y67.203 E34.05242
G1 X7.705 Y66.586 E34.07711
G1 X7.822 Y66.469 E34.08207
G1 X8.363 Y65.985 E34.10386
G1 X8.954 Y65.562 E34.12568
G1 X9.588 Y65.208 E34.14748
G1 X10.257 Y64.925 E34.16928
G1 X10.953 Y64.717 E34.19109
G1 X11.668 Y64.587 E34.2129
G0 F2400 X11.152 Y65.082
G1 F1200 X11.847 Y64.969 E34.23404
G1 X12.489 Y64.936 E34.25333
G1 X62.255 Y64.936 E35.74717
G1 X62.958 Y64.976 E35.76831
G1 X63.652 Y65.095 E35.78944
G1 X64.327 Y65.293 E35.81056
G1 X64.976 Y65.565 E35.83168
G1 X65.59 Y65.91 E35.85282
G1 X66.161 Y66.321 E35.87394
G1 X66.639 Y66.752 E35.89326
G1 X66.756 Y66.869 E35.89823
G1 X67.225 Y67.394 E35.91936
G1 X67.631 Y67.969 E35.94049
G1 X67.969 Y68.587 E35.96163
G1 X68.236 Y69.238 E35.98275
G1 X68.426 Y69.916 E36.00389
G1 X68.539 Y70.611 E36.02502
G1 X68.572 Y71.253 E36.04432
G1 X68.572 Y141.019 E38.13851
G1 X68.532 Y141.722 E38.15964
G1 X68.413 Y142.416 E38.18078
G1 X68.215 Y143.091 E38.20189
G1 X67.943 Y143.74 E38.22302
G1 X67.598 Y144.354 E38.24416
G1 X67.187 Y144.925 E38.26528
G1 X66.756 Y145.403 E38.2846
G1 X66.639 Y145.52 E38.28956
G1 X66.114 Y145.989 E38.31069
G1 X65.539 Y146.395 E38.33182
G1 X64.921 Y146.733 E38.35297
G1 X64.27 Y147 E38.37409
G1 X63.592 Y147.19 E38.39522
G1 X62.897 Y147.303 E38.41636
G1 X62.255 Y147.336 E38.43566
G1 X12.489 Y147.336 E39.9295
G1 X11.786 Y147.296 E39.95063
G1 X11.092 Y147.177 E39.97177
G1 X10.417 Y146.979 E39.99288
G1 X9.768 Y146.707 E40.01401
G1 X9.154 Y146.362 E40.03515
G1 X8.583 Y145.951 E40.05626
G1 X8.105 Y145.52 E40.07558
G1 X7.988 Y145.403 E40.08055
G1 X7.519 Y144.878 E40.10168
G1 X7.113 Y144.303 E40.12281
G1 X6.775 Y143.685 E40.14396
G1 X6.508 Y143.034 E40.16508
G1 X6.318 Y142.356 E40.18621
G1 X6.205 Y141.661 E40.20735
G1 X6.172 Y141.019 E40.22664
G1 X6.172 Y71.253 E42.32083
G1 X6.212 Y70.55 E42.34197
G1 X6.331 Y69.856 E42.3631
G1 X6.529 Y69.181 E42.38422
G1 X6.801 Y68.532 E42.40534
G1 X7.146 Y67.918 E42.42648
G1 X7.557 Y67.347 E42.4476
G1 X7.988 Y66.869 E42.46692
G1 X8.105 Y66.752 E42.47189
G1 X8.63 Y66.283 E42.49302
G1 X9.205 Y65.877 E42.51415
G1 X9.823 Y65.539 E42.53529
G1 X10.474 Y65.272 E42.55641
G1 X11.152 Y65.082 E42.57755
G0 F2400 X11.348 Y65.449
G1 F1200 X12.022 Y65.355 E42.59797
G1 X12.489 Y65.336 E42.612
G1 X62.255 Y65.336 E44.10584
G1 X62.935 Y65.376 E44.12629
G1 X63.605 Y65.495 E44.14672
G1 X64.257 Y65.692 E44.16716
G1 X64.881 Y65.964 E44.18759
G1 X65.469 Y66.308 E44.20804
G1 X66.013 Y66.718 E44.22849
G1 X66.356 Y67.035 E44.24251
G1 X66.473 Y67.152 E44.24748
G1 X66.926 Y67.661 E44.26793
G1 X67.315 Y68.219 E44.28835
G1 X67.637 Y68.819 E44.30879
G1 X67.886 Y69.453 E44.32924
G1 X68.059 Y70.112 E44.34969
G1 X68.153 Y70.786 E44.37011
G1 X68.172 Y71.253 E44.38414
G1 X68.172 Y141.019 E46.47833
G1 X68.132 Y141.699 E46.49878
G1 X68.013 Y142.369 E46.5192
G1 X67.816 Y143.021 E46.53965
G1 X67.544 Y143.645 E46.56008
G1 X67.2 Y144.233 E46.58053
G1 X66.79 Y144.777 E46.60098
G1 X66.473 Y145.12 E46.615
G1 X66.356 Y145.237 E46.61996
G1 X65.847 Y145.69 E46.64042
G1 X65.289 Y146.079 E46.66083
G1 X64.689 Y146.401 E46.68128
G1 X64.055 Y146.65 E46.70172
G1 X63.396 Y146.823 E46.72217
G1 X62.722 Y146.917 E46.7426
G1 X62.255 Y146.936 E46.75663
G1 X12.489 Y146.936 E48.25047
G1 X11.809 Y146.896 E48.27092
G1 X11.139 Y146.777 E48.29134
G1 X10.487 Y146.58 E48.31179
G1 X9.863 Y146.308 E48.33222
G1 X9.275 Y145.964 E48.35267
G1 X8.731 Y145.554 E48.37312
G1 X8.388 Y145.237 E48.38714
G1 X8.271 Y145.12 E48.3921
G1 X7.818 Y144.611 E48.41256
G1 X7.429 Y144.053 E48.43298
G1 X7.107 Y143.453 E48.45342
G1 X6.858 Y142.819 E48.47386
G1 X6.685 Y142.16 E48.49431
G1 X6.591 Y141.486 E48.51474
G1 X6.572 Y141.019 E48.52877
G1 X6.572 Y71.253 E50.62296
G1 X6.612 Y70.573 E50.6434
G1 X6.731 Y69.903 E50.66383
G1 X6.928 Y69.251 E50.68427
G1 X7.2 Y68.627 E50.70471
G1 X7.544 Y68.039 E50.72516
G1 X7.954 Y67.495 E50.7456
G1 X8.271 Y67.152 E50.75962
G1 X8.388 Y67.035 E50.76459
G1 X8.897 Y66.582 E50.78504
G1 X9.455 Y66.193 E50.80546
G1 X10.055 Y65.871 E50.8259
G1 X10.689 Y65.622 E50.84635
G1 X11.348 Y65.449 E50.8668
G0 F2400 X11.54 Y65.82
G1 F1200 X12.489 Y65.736 E50.8954
G1 X62.255 Y65.736 E52.38924
G1 X62.911 Y65.776 E52.40896
G1 X63.557 Y65.895 E52.42868
G1 X64.184 Y66.092 E52.44841
G1 X64.782 Y66.364 E52.46813
G1 X65.343 Y66.706 E52.48785
G1 X66.073 Y67.318 E52.51645
G1 X66.19 Y67.435 E52.52141
G1 X66.626 Y67.927 E52.54115
G1 X66.998 Y68.468 E52.56085
G1 X67.302 Y69.05 E52.58056
G1 X67.533 Y69.665 E52.60028
G1 X67.688 Y70.304 E52.62002
G1 X67.772 Y71.253 E52.64862
G1 X67.772 Y141.019 E54.7428
G1 X67.732 Y141.675 E54.76253
G1 X67.613 Y142.321 E54.78225
G1 X67.416 Y142.948 E54.80198
G1 X67.144 Y143.546 E54.8217
G1 X66.802 Y144.107 E54.84142
G1 X66.19 Y144.837 E54.87001
G1 X66.073 Y144.954 E54.87498
G1 X65.581 Y145.39 E54.89471
G1 X65.04 Y145.762 E54.91442
G1 X64.458 Y146.066 E54.93413
G1 X63.843 Y146.297 E54.95385
G1 X63.204 Y146.452 E54.97359
G1 X62.255 Y146.536 E55.00219
G1 X12.489 Y146.536 E56.49603
G1 X11.833 Y146.496 E56.51575
G1 X11.187 Y146.377 E56.53547
G1 X10.56 Y146.18 E56.5552
G1 X9.962 Y145.908 E56.57492
G1 X9.401 Y145.566 E56.59464
G1 X8.671 Y144.954 E56.62323
G1 X8.554 Y144.837 E56.6282
G1 X8.118 Y144.345 E56.64793
G1 X7.746 Y143.804 E56.66764
G1 X7.442 Y143.222 E56.68735
G1 X7.211 Y142.607 E56.70707
G1 X7.056 Y141.968 E56.72681
G1 X6.972 Y141.019 E56.75541
G1 X6.972 Y71.253 E58.84959
G1 X7.012 Y70.597 E58.86932
G1 X7.131 Y69.951 E58.88904
G1 X7.328 Y69.324 E58.90877
G1 X7.6 Y68.726 E58.92849
G1 X7.942 Y68.165 E58.94821
G1 X8.554 Y67.435 E58.9768
G1 X8.671 Y67.318 E58.98177
G1 X9.163 Y66.882 E59.0015
G1 X9.704 Y66.51 E59.02121
G1 X10.286 Y66.206 E59.04092
G1 X10.901 Y65.975 E59.06064
G1 X11.54 Y65.82 E59.08038
G0 F2400 X11.728 Y66.194
G1 F1200 X12.489 Y66.136 E59.10329
G1 X62.255 Y66.136 E60.59713
G1 X62.886 Y66.176 E60.6161
G1 X63.507 Y66.295 E60.63508
G1 X64.107 Y66.492 E60.65404
G1 X64.679 Y66.763 E60.67304
G1 X65.211 Y67.103 E60.69199
G1 X65.791 Y67.6 E60.71492
G1 X65.908 Y67.717 E60.71989
G1 X66.325 Y68.192 E60.73886
G1 X66.68 Y68.715 E60.75783
G1 X66.966 Y69.279 E60.77682
G1 X67.178 Y69.874 E60.79578
G1 X67.314 Y70.492 E60.81477
G1 X67.372 Y71.253 E60.83768
G1 X67.372 Y141.019 E62.93186
G1 X67.332 Y141.65 E62.95084
G1 X67.213 Y142.271 E62.96982
G1 X67.016 Y142.871 E62.98878
G1 X66.745 Y143.443 E63.00778
G1 X66.405 Y143.975 E63.02673
G1 X65.908 Y144.555 E63.04966
G1 X65.791 Y144.672 E63.05463
G1 X65.316 Y145.089 E63.0736
G1 X64.793 Y145.444 E63.09257
G1 X64.229 Y145.73 E63.11155
G1 X63.634 Y145.942 E63.13051
G1 X63.016 Y146.078 E63.14951
G1 X62.255 Y146.136 E63.17242
G1 X12.489 Y146.136 E64.66626
G1 X11.858 Y146.096 E64.68524
G1 X11.237 Y145.977 E64.70422
G1 X10.637 Y145.78 E64.72317
G1 X10.065 Y145.509 E64.74217
G1 X9.533 Y145.169 E64.76112
G1 X8.953 Y144.672 E64.78405
G1 X8.836 Y144.555 E64.78902
G1 X8.419 Y144.08 E64.80799
G1 X8.064 Y143.557 E64.82697
G1 X7.778 Y142.993 E64.84595
G1 X7.566 Y142.398 E64.86491
G1 X7.43 Y141.78 E64.8839
G1 X7.372 Y141.019 E64.90681
G1 X7.372 Y71.253 E67.001
G1 X7.412 Y70.622 E67.01998
G1 X7.531 Y70.001 E67.03896
G1 X7.728 Y69.401 E67.05791
G1 X7.999 Y68.829 E67.07691
G1 X8.339 Y68.297 E67.09586
G1 X8.836 Y67.717 E67.11879
G1 X8.953 Y67.6 E67.12376
G1 X9.428 Y67.183 E67.14273
G1 X9.951 Y66.828 E67.1617
G1 X10.515 Y66.542 E67.18069
G1 X11.11 Y66.33 E67.19965
G1 X11.728 Y66.194 E67.21864
G0 F2400 X11.911 Y66.572
G1 F1200 X12.489 Y66.536 E67.23603
G1 X62.255 Y66.536 E68.72986
G1 X62.86 Y66.576 E68.74806
G1 X63.454 Y66.695 E68.76625
G1 X64.028 Y66.891 E68.78446
G1 X64.571 Y67.162 E68.80267
G1 X65.074 Y67.501 E68.82088
G1 X65.508 Y67.883 E68.83824
G1 X65.625 Y68 E68.8432
G1 X66.024 Y68.456 E68.86139
G1 X66.36 Y68.961 E68.8796
G1 X66.627 Y69.505 E68.89779
G1 X66.82 Y70.08 E68.91599
G1 X66.936 Y70.675 E68.93419
G1 X66.972 Y71.253 E68.95157
G1 X66.972 Y141.019 E71.04576
G1 X66.932 Y141.624 E71.06396
G1 X66.813 Y142.218 E71.08214
G1 X66.617 Y142.792 E71.10035
G1 X66.346 Y143.335 E71.11857
