;FLAVOR:Marlin
;TIME:13139
;Filament used: 6.15819m
;Layer height: 0.1
;MINX:3.08
;MINY:72.2
;MINZ:0.2
;MAXX:54.68
;MAXY:147.8
;MAXZ:35
;Generated with Cura_SteamEngine 4.4.1
M140 S60
M105
M190 S60
M104 S200
M105
M109 S200
M82 ;absolute extrusion mode
G28 ;Home
G1 Z15.0 F6000 ;Move the platform down 15mm
;Prime the extruder
G92 E0
G1 F200 E3
G92 E0
G92 E0
G92 E0
G1 F1500 E-6.5
;LAYER_COUNT:349
;LAYER:0
M107
G0 F2400 X9.618 Y72.323 Z0.2
;TYPE:SKIRT
G1 F1500 E0
G1 F1200 X10.402 Y72.223 E0.02372
G1 X10.997 Y72.2 E0.0416
G1 X46.763 Y72.2 E1.1152
G1 X47.552 Y72.24 E1.13891
G1 X48.332 Y72.359 E1.16259
G1 X49.097 Y72.557 E1.18631
G1 X49.837 Y72.831 E1.21
G1 X50.546 Y73.179 E1.23371
G1 X51.217 Y73.597 E1.25744
G1 X51.841 Y74.08 E1.28112
G1 X52.414 Y74.623 E1.30482
G1 X52.929 Y75.222 E1.32853
G1 X53.38 Y75.87 E1.35223
G1 X53.764 Y76.561 E1.37596
G1 X54.076 Y77.286 E1.39965
G1 X54.313 Y78.039 E1.42335
G1 X54.472 Y78.813 E1.44707
G1 X54.563 Y79.985 E1.48235
G1 X54.68 Y139.868 E3.27988
G1 X54.642 Y140.657 E3.30359
G1 X54.524 Y141.437 E3.32727
G1 X54.327 Y142.202 E3.35099
G1 X54.055 Y142.943 E3.37468
G1 X53.708 Y143.653 E3.3984
G1 X53.292 Y144.324 E3.4221
G1 X52.81 Y144.95 E3.44581
G1 X52.395 Y145.398 E3.46415
G1 X52.278 Y145.515 E3.46911
G1 X51.692 Y146.045 E3.49283
G1 X51.056 Y146.512 E3.51651
G1 X50.376 Y146.913 E3.54021
G1 X49.658 Y147.243 E3.56393
G1 X48.911 Y147.498 E3.58762
G1 X48.142 Y147.677 E3.61132
G1 X47.358 Y147.777 E3.63505
G1 X46.763 Y147.8 E3.65292
G1 X10.997 Y147.8 E4.72652
G1 X10.208 Y147.76 E4.75023
G1 X9.428 Y147.641 E4.77392
G1 X8.663 Y147.443 E4.79764
G1 X7.923 Y147.169 E4.82132
G1 X7.214 Y146.821 E4.84503
G1 X6.543 Y146.403 E4.86876
G1 X5.919 Y145.92 E4.89245
G1 X5.482 Y145.515 E4.91033
G1 X5.365 Y145.398 E4.9153
G1 X4.835 Y144.812 E4.93902
G1 X4.368 Y144.176 E4.9627
G1 X3.967 Y143.496 E4.9864
G1 X3.637 Y142.778 E5.01012
G1 X3.382 Y142.031 E5.03381
G1 X3.203 Y141.262 E5.05751
G1 X3.103 Y140.478 E5.08124
G1 X3.08 Y139.883 E5.09911
G1 X3.08 Y80.117 E6.89312
G1 X3.12 Y79.328 E6.91684
G1 X3.239 Y78.548 E6.94052
G1 X3.437 Y77.783 E6.96424
G1 X3.711 Y77.043 E6.98793
G1 X4.059 Y76.334 E7.01164
G1 X4.477 Y75.663 E7.03537
G1 X4.96 Y75.039 E7.05905
G1 X5.365 Y74.602 E7.07694
G1 X5.482 Y74.485 E7.0819
G1 X6.068 Y73.955 E7.10562
G1 X6.704 Y73.488 E7.12931
G1 X7.384 Y73.087 E7.153
G1 X8.102 Y72.757 E7.17672
G1 X8.849 Y72.502 E7.20042
G1 X9.618 Y72.323 E7.22412
G0 F2400 X9.807 Y72.696
G1 F1200 X10.572 Y72.612 E7.24722
G1 X10.997 Y72.6 E7.25998
G1 X46.763 Y72.6 E8.33358
G1 X47.531 Y72.64 E8.35666
G1 X48.291 Y72.759 E8.37975
G1 X49.034 Y72.957 E8.40283
G1 X49.753 Y73.231 E8.42593
G1 X50.439 Y73.578 E8.44901
G1 X51.086 Y73.994 E8.4721
G1 X51.686 Y74.475 E8.49518
G1 X52.233 Y75.016 E8.51827
G1 X52.721 Y75.611 E8.54137
G1 X53.144 Y76.253 E8.56445
G1 X53.499 Y76.936 E8.58756
G1 X53.78 Y77.651 E8.61062
G1 X53.986 Y78.393 E8.63373
G1 X54.114 Y79.151 E8.65681
G1 X54.163 Y79.986 E8.68191
G1 X54.28 Y139.869 E10.47944
G1 X54.242 Y140.637 E10.50252
G1 X54.124 Y141.397 E10.52561
G1 X53.927 Y142.14 E10.54868
G1 X53.655 Y142.86 E10.57179
G1 X53.309 Y143.547 E10.59488
G1 X52.894 Y144.194 E10.61795
G1 X52.414 Y144.795 E10.64104
G1 X52.113 Y145.116 E10.65425
G1 X51.996 Y145.233 E10.65921
G1 X51.424 Y145.747 E10.6823
G1 X50.802 Y146.2 E10.70539
G1 X50.137 Y146.586 E10.72847
G1 X49.435 Y146.901 E10.75157
G1 X48.704 Y147.141 E10.77467
G1 X47.953 Y147.304 E10.79773
G1 X47.188 Y147.388 E10.82083
G1 X46.763 Y147.4 E10.8336
G1 X10.997 Y147.4 E11.90719
G1 X10.229 Y147.36 E11.93028
G1 X9.469 Y147.241 E11.95337
G1 X8.726 Y147.043 E11.97645
G1 X8.007 Y146.769 E11.99955
G1 X7.321 Y146.422 E12.02262
G1 X6.674 Y146.006 E12.04571
G1 X6.074 Y145.525 E12.0688
G1 X5.764 Y145.233 E12.08158
G1 X5.647 Y145.116 E12.08655
G1 X5.133 Y144.544 E12.10963
G1 X4.68 Y143.922 E12.13273
G1 X4.294 Y143.257 E12.15581
G1 X3.979 Y142.555 E12.17891
G1 X3.739 Y141.824 E12.202
G1 X3.576 Y141.073 E12.22507
G1 X3.492 Y140.308 E12.24817
G1 X3.48 Y139.883 E12.26093
G1 X3.48 Y80.117 E14.05494
G1 X3.52 Y79.349 E14.07803
G1 X3.639 Y78.589 E14.10112
G1 X3.837 Y77.846 E14.1242
G1 X4.111 Y77.127 E14.1473
G1 X4.458 Y76.441 E14.17037
G1 X4.874 Y75.794 E14.19346
G1 X5.355 Y75.194 E14.21655
G1 X5.647 Y74.884 E14.22933
G1 X5.764 Y74.767 E14.2343
G1 X6.336 Y74.253 E14.25738
G1 X6.958 Y73.8 E14.28048
G1 X7.623 Y73.414 E14.30356
G1 X8.325 Y73.099 E14.32665
G1 X9.056 Y72.859 E14.34975
G1 X9.807 Y72.696 E14.37282
G0 F2400 X9.993 Y73.072
G1 F1200 X10.997 Y73 E14.40303
G1 X46.763 Y73 E15.47663
G1 X47.51 Y73.04 E15.49908
G1 X48.248 Y73.159 E15.52152
G1 X48.97 Y73.357 E15.544
G1 X49.666 Y73.63 E15.56644
G1 X50.329 Y73.977 E15.5889
G1 X50.952 Y74.392 E15.61137
G1 X51.526 Y74.871 E15.63381
G1 X52.047 Y75.408 E15.65627
G1 X52.506 Y75.998 E15.67871
G1 X52.901 Y76.634 E15.70118
G1 X53.225 Y77.308 E15.72363
G1 X53.475 Y78.013 E15.74608
G1 X53.649 Y78.741 E15.76855
G1 X53.744 Y79.483 E15.79101
G1 X53.763 Y79.986 E15.80612
G1 X53.88 Y139.869 E17.60364
G1 X53.841 Y140.616 E17.6261
G1 X53.723 Y141.355 E17.64856
G1 X53.527 Y142.077 E17.67102
G1 X53.255 Y142.774 E17.69348
G1 X52.91 Y143.438 E17.71594
G1 X52.497 Y144.061 E17.73837
G1 X51.83 Y144.833 E17.769
G1 X51.713 Y144.95 E17.77397
G1 X51.156 Y145.45 E17.79643
G1 X50.55 Y145.887 E17.81886
G1 X49.9 Y146.258 E17.84133
G1 X49.214 Y146.557 E17.86379
G1 X48.5 Y146.781 E17.88625
G1 X47.767 Y146.928 E17.90869
G1 X46.763 Y147 E17.93891
G1 X10.997 Y147 E19.0125
G1 X10.25 Y146.96 E19.03496
G1 X9.512 Y146.841 E19.0574
G1 X8.79 Y146.643 E19.07987
G1 X8.094 Y146.37 E19.10231
G1 X7.431 Y146.023 E19.12477
G1 X6.808 Y145.608 E19.14724
G1 X6.047 Y144.95 E19.17744
G1 X5.93 Y144.833 E19.18241
G1 X5.43 Y144.276 E19.20488
G1 X4.993 Y143.67 E19.2273
G1 X4.622 Y143.02 E19.24977
G1 X4.323 Y142.334 E19.27223
G1 X4.099 Y141.62 E19.2947
G1 X3.952 Y140.887 E19.31714
G1 X3.88 Y139.883 E19.34735
G1 X3.88 Y80.117 E21.14136
G1 X3.92 Y79.37 E21.16382
G1 X4.039 Y78.632 E21.18626
G1 X4.237 Y77.91 E21.20873
G1 X4.51 Y77.214 E21.23117
G1 X4.857 Y76.551 E21.25363
G1 X5.272 Y75.928 E21.2761
G1 X5.93 Y75.167 E21.3063
G1 X6.047 Y75.05 E21.31127
G1 X6.604 Y74.55 E21.33374
G1 X7.21 Y74.113 E21.35616
G1 X7.86 Y73.742 E21.37863
G1 X8.546 Y73.443 E21.40109
G1 X9.26 Y73.219 E21.42355
G1 X9.993 Y73.072 E21.44599
G0 F2400 X10.176 Y73.451
G1 F1200 X10.997 Y73.4 E21.47069
G1 X46.763 Y73.4 E22.54428
G1 X47.488 Y73.44 E22.56608
G1 X48.205 Y73.559 E22.5879
G1 X48.904 Y73.757 E22.6097
G1 X49.577 Y74.03 E22.6315
G1 X50.216 Y74.375 E22.6533
G1 X50.813 Y74.789 E22.67511
G1 X51.361 Y75.265 E22.6969
G1 X51.854 Y75.799 E22.71871
G1 X52.284 Y76.384 E22.74051
G1 X52.648 Y77.013 E22.76232
G1 X52.941 Y77.678 E22.78414
G1 X53.159 Y78.371 E22.80594
G1 X53.299 Y79.083 E22.82772
G1 X53.363 Y79.987 E22.85493
G1 X53.48 Y139.87 E24.65246
G1 X53.441 Y140.595 E24.67425
G1 X53.323 Y141.312 E24.69606
G1 X53.127 Y142.012 E24.71788
G1 X52.856 Y142.685 E24.73966
G1 X52.511 Y143.325 E24.76148
G1 X52.099 Y143.923 E24.78328
G1 X51.547 Y144.55 E24.80836
G1 X51.43 Y144.667 E24.81332
G1 X50.889 Y145.151 E24.83511
G1 X50.298 Y145.574 E24.85693
G1 X49.664 Y145.928 E24.87873
G1 X48.995 Y146.211 E24.90053
G1 X48.299 Y146.419 E24.92234
G1 X47.584 Y146.549 E24.94415
G1 X46.763 Y146.6 E24.96884
G1 X10.997 Y146.6 E26.04244
G1 X10.272 Y146.56 E26.06424
G1 X9.555 Y146.441 E26.08605
G1 X8.856 Y146.243 E26.10786
G1 X8.183 Y145.97 E26.12966
G1 X7.544 Y145.625 E26.15146
G1 X6.947 Y145.211 E26.17327
G1 X6.33 Y144.667 E26.19796
G1 X6.213 Y144.55 E26.20292
G1 X5.729 Y144.009 E26.22471
G1 X5.306 Y143.418 E26.24653
G1 X4.952 Y142.784 E26.26833
G1 X4.669 Y142.115 E26.29013
G1 X4.461 Y141.419 E26.31194
G1 X4.331 Y140.704 E26.33375
G1 X4.28 Y139.883 E26.35844
G1 X4.28 Y80.117 E28.15245
G1 X4.32 Y79.392 E28.17425
G1 X4.439 Y78.675 E28.19607
G1 X4.637 Y77.976 E28.21787
G1 X4.91 Y77.303 E28.23967
G1 X5.255 Y76.664 E28.26147
G1 X5.669 Y76.067 E28.28328
G1 X6.213 Y75.45 E28.30797
G1 X6.33 Y75.333 E28.31294
G1 X6.871 Y74.849 E28.33473
G1 X7.462 Y74.426 E28.35654
G1 X8.096 Y74.072 E28.37834
G1 X8.765 Y73.789 E28.40014
G1 X9.461 Y73.581 E28.42195
G1 X10.176 Y73.451 E28.44376
G0 F2400 X9.66 Y73.946
G1 F1200 X10.355 Y73.833 E28.4649
G1 X10.997 Y73.8 E28.4842
G1 X46.763 Y73.8 E29.55779
G1 X47.466 Y73.84 E29.57893
G1 X48.16 Y73.959 E29.60007
G1 X48.835 Y74.157 E29.62118
G1 X49.484 Y74.429 E29.6423
G1 X50.098 Y74.774 E29.66345
G1 X50.669 Y75.185 E29.68456
G1 X51.19 Y75.659 E29.70571
G1 X51.654 Y76.189 E29.72685
G1 X52.054 Y76.768 E29.74798
G1 X52.386 Y77.389 E29.76911
G1 X52.646 Y78.043 E29.79024
G1 X52.83 Y78.723 E29.81138
G1 X52.936 Y79.419 E29.83252
G1 X52.963 Y79.988 E29.84962
G1 X53.08 Y139.871 E31.64714
G1 X53.041 Y140.574 E31.66828
G1 X52.923 Y141.268 E31.68941
G1 X52.727 Y141.944 E31.71054
G1 X52.456 Y142.594 E31.73168
G1 X52.113 Y143.208 E31.75279
G1 X51.702 Y143.78 E31.77393
G1 X51.264 Y144.267 E31.79359
G1 X51.147 Y144.384 E31.79856
G1 X50.622 Y144.853 E31.81969
G1 X50.047 Y145.259 E31.84082
G1 X49.429 Y145.597 E31.86196
G1 X48.778 Y145.864 E31.88308
G1 X48.1 Y146.054 E31.90422
G1 X47.405 Y146.167 E31.92535
G1 X46.763 Y146.2 E31.94465
G1 X10.997 Y146.2 E33.01825
G1 X10.294 Y146.16 E33.03939
G1 X9.6 Y146.041 E33.06052
G1 X8.925 Y145.843 E33.08164
G1 X8.276 Y145.571 E33.10276
G1 X7.662 Y145.226 E33.1239
G1 X7.091 Y144.815 E33.14502
G1 X6.613 Y144.384 E33.16434
G1 X6.496 Y144.267 E33.16931
G1 X6.027 Y143.742 E33.19044
G1 X5.621 Y143.167 E33.21157
G1 X5.283 Y142.549 E33.23271
G1 X5.016 Y141.898 E33.25383
G1 X4.826 Y141.22 E33.27497
G1 X4.713 Y140.525 E33.2961
G1 X4.68 Y139.883 E33.3154
G1 X4.68 Y80.117 E35.10941
G1 X4.72 Y79.414 E35.13055
G1 X4.839 Y78.72 E35.15168
G1 X5.037 Y78.045 E35.1728
G1 X5.309 Y77.396 E35.19392
G1 X5.654 Y76.782 E35.21506
G1 X6.065 Y76.211 E35.23618
G1 X6.496 Y75.733 E35.2555
G1 X6.613 Y75.616 E35.26047
G1 X7.138 Y75.147 E35.2816
G1 X7.713 Y74.741 E35.30273
G1 X8.331 Y74.403 E35.32387
G1 X8.982 Y74.136 E35.34499
G1 X9.66 Y73.946 E35.36613
G0 F2400 X9.856 Y74.313
G1 F1200 X10.53 Y74.219 E35.38656
G1 X10.997 Y74.2 E35.40059
G1 X46.763 Y74.2 E36.47418
G1 X47.443 Y74.24 E36.49463
G1 X48.113 Y74.359 E36.51506
G1 X48.765 Y74.556 E36.5355
G1 X49.389 Y74.828 E36.55593
G1 X49.977 Y75.172 E36.57638
G1 X50.521 Y75.582 E36.59683
G1 X51.012 Y76.053 E36.61725
G1 X51.446 Y76.578 E36.6377
G1 X51.815 Y77.15 E36.65813
G1 X52.114 Y77.762 E36.67858
G1 X52.339 Y78.404 E36.699
G1 X52.488 Y79.069 E36.71946
G1 X52.563 Y79.989 E36.74716
G1 X52.68 Y139.872 E38.54469
G1 X52.641 Y140.551 E38.56511
G1 X52.523 Y141.222 E38.58556
G1 X52.328 Y141.874 E38.60598
G1 X52.057 Y142.499 E38.62643
G1 X51.714 Y143.087 E38.64687
G1 X51.306 Y143.632 E38.6673
G1 X50.981 Y143.984 E38.68168
G1 X50.864 Y144.101 E38.68665
G1 X50.355 Y144.554 E38.7071
G1 X49.797 Y144.943 E38.72752
G1 X49.197 Y145.265 E38.74796
G1 X48.563 Y145.514 E38.76841
G1 X47.904 Y145.687 E38.78886
G1 X47.23 Y145.781 E38.80929
G1 X46.763 Y145.8 E38.82332
G1 X10.997 Y145.8 E39.89691
G1 X10.317 Y145.76 E39.91736
G1 X9.647 Y145.641 E39.93779
G1 X8.995 Y145.444 E39.95823
G1 X8.371 Y145.172 E39.97867
G1 X7.783 Y144.828 E39.99911
G1 X7.239 Y144.418 E40.01956
G1 X6.896 Y144.101 E40.03358
G1 X6.779 Y143.984 E40.03855
G1 X6.326 Y143.475 E40.059
G1 X5.937 Y142.917 E40.07942
G1 X5.615 Y142.317 E40.09986
G1 X5.366 Y141.683 E40.12031
G1 X5.193 Y141.024 E40.14076
G1 X5.099 Y140.35 E40.16119
G1 X5.08 Y139.883 E40.17522
G1 X5.08 Y80.117 E41.96923
G1 X5.12 Y79.437 E41.98967
G1 X5.239 Y78.767 E42.0101
G1 X5.436 Y78.115 E42.03055
G1 X5.708 Y77.491 E42.05098
G1 X6.052 Y76.903 E42.07143
G1 X6.462 Y76.359 E42.09188
G1 X6.779 Y76.016 E42.1059
G1 X6.896 Y75.899 E42.11086
G1 X7.405 Y75.446 E42.13132
G1 X7.963 Y75.057 E42.15173
G1 X8.563 Y74.735 E42.17217
G1 X9.197 Y74.486 E42.19262
G1 X9.856 Y74.313 E42.21307
G0 F2400 X10.048 Y74.684
G1 F1200 X10.997 Y74.6 E42.24167
G1 X46.763 Y74.6 E43.31527
G1 X47.419 Y74.64 E43.33499
G1 X48.065 Y74.759 E43.35471
G1 X48.692 Y74.956 E43.37444
G1 X49.29 Y75.228 E43.39416
G1 X49.851 Y75.57 E43.41388
G1 X50.366 Y75.978 E43.4336
G1 X50.828 Y76.445 E43.45332
G1 X51.229 Y76.965 E43.47303
G1 X51.565 Y77.529 E43.49274
G1 X51.829 Y78.131 E43.51247
G1 X52.019 Y78.76 E43.5322
G1 X52.13 Y79.407 E43.5519
G1 X52.163 Y79.989 E43.5694
G1 X52.28 Y139.872 E45.36693
G1 X52.241 Y140.528 E45.38665
G1 X52.123 Y141.175 E45.40639
G1 X51.928 Y141.802 E45.4261
G1 X51.657 Y142.4 E45.44581
G1 X51.316 Y142.962 E45.46554
G1 X50.698 Y143.701 E45.49446
G1 X50.581 Y143.818 E45.49943
G1 X50.089 Y144.254 E45.51916
G1 X49.548 Y144.626 E45.53887
G1 X48.966 Y144.93 E45.55858
G1 X48.351 Y145.161 E45.5783
G1 X47.712 Y145.316 E45.59804
G1 X46.763 Y145.4 E45.62663
G1 X10.997 Y145.4 E46.70023
G1 X10.341 Y145.36 E46.71996
G1 X9.695 Y145.241 E46.73968
G1 X9.068 Y145.044 E46.7594
G1 X8.47 Y144.772 E46.77912
G1 X7.909 Y144.43 E46.79885
G1 X7.179 Y143.818 E46.82744
G1 X7.062 Y143.701 E46.83241
G1 X6.626 Y143.209 E46.85214
G1 X6.254 Y142.668 E46.87185
G1 X5.95 Y142.086 E46.89156
G1 X5.719 Y141.471 E46.91128
G1 X5.564 Y140.832 E46.93102
G1 X5.48 Y139.883 E46.95961
G1 X5.48 Y80.117 E48.75363
G1 X5.52 Y79.461 E48.77335
G1 X5.639 Y78.815 E48.79307
G1 X5.836 Y78.188 E48.8128
G1 X6.108 Y77.59 E48.83252
G1 X6.45 Y77.029 E48.85224
G1 X7.062 Y76.299 E48.88084
G1 X7.179 Y76.182 E48.8858
G1 X7.671 Y75.746 E48.90554
G1 X8.212 Y75.374 E48.92524
G1 X8.794 Y75.07 E48.94495
G1 X9.409 Y74.839 E48.96467
G1 X10.048 Y74.684 E48.98441
G0 F2400 X10.236 Y75.058
G1 F1200 X10.997 Y75 E49.00732
G1 X46.763 Y75 E50.08092
G1 X47.394 Y75.04 E50.0999
G1 X48.015 Y75.159 E50.11888
G1 X48.615 Y75.356 E50.13783
G1 X49.187 Y75.627 E50.15683
G1 X49.719 Y75.967 E50.17578
G1 X50.204 Y76.373 E50.19477
G1 X50.634 Y76.836 E50.21374
G1 X51.003 Y77.35 E50.23273
G1 X51.303 Y77.906 E50.25169
G1 X51.531 Y78.495 E50.27065
G1 X51.683 Y79.109 E50.28964
G1 X51.763 Y79.99 E50.31619
G1 X51.88 Y139.873 E52.11372
G1 X51.841 Y140.504 E52.1327
G1 X51.723 Y141.125 E52.15167
G1 X51.528 Y141.726 E52.17064
G1 X51.258 Y142.298 E52.18963
G1 X50.918 Y142.831 E52.2086
G1 X50.416 Y143.419 E52.23181
G1 X50.299 Y143.536 E52.23678
G1 X49.824 Y143.953 E52.25575
G1 X49.301 Y144.308 E52.27472
G1 X48.737 Y144.594 E52.29371
G1 X48.142 Y144.806 E52.31267
G1 X47.524 Y144.942 E52.33166
G1 X46.763 Y145 E52.35457
G1 X10.997 Y145 E53.42817
G1 X10.366 Y144.96 E53.44715
G1 X9.745 Y144.841 E53.46613
G1 X9.145 Y144.644 E53.48508
G1 X8.573 Y144.373 E53.50408
G1 X8.041 Y144.033 E53.52303
G1 X7.461 Y143.536 E53.54596
G1 X7.344 Y143.419 E53.55093
G1 X6.927 Y142.944 E53.5699
G1 X6.572 Y142.421 E53.58888
G1 X6.286 Y141.857 E53.60786
G1 X6.074 Y141.262 E53.62682
G1 X5.938 Y140.644 E53.64581
G1 X5.88 Y139.883 E53.66872
G1 X5.88 Y80.117 E55.46273
G1 X5.92 Y79.486 E55.48171
G1 X6.039 Y78.865 E55.50069
G1 X6.236 Y78.265 E55.51965
G1 X6.507 Y77.693 E55.53865
G1 X6.847 Y77.161 E55.5576
G1 X7.344 Y76.581 E55.58053
G1 X7.461 Y76.464 E55.5855
G1 X7.936 Y76.047 E55.60447
G1 X8.459 Y75.692 E55.62344
G1 X9.023 Y75.406 E55.64242
G1 X9.618 Y75.194 E55.66138
G1 X10.236 Y75.058 E55.68038
G0 F2400 X10.419 Y75.436
G1 F1200 X10.997 Y75.4 E55.69776
G1 X46.763 Y75.4 E56.77136
G1 X47.368 Y75.44 E56.78956
G1 X47.962 Y75.559 E56.80774
G1 X48.536 Y75.755 E56.82595
G1 X49.079 Y76.026 E56.84417
G1 X49.582 Y76.365 E56.86238
G1 X50.035 Y76.767 E56.88056
G1 X50.432 Y77.225 E56.89875
G1 X50.765 Y77.732 E56.91696
G1 X51.029 Y78.278 E56.93516
G1 X51.218 Y78.854 E56.95336
G1 X51.33 Y79.45 E56.97156
G1 X51.363 Y79.991 E56.98783
G1 X51.48 Y139.874 E58.78536
G1 X51.441 Y140.479 E58.80356
G1 X51.323 Y141.074 E58.82177
G1 X51.128 Y141.648 E58.83996
G1 X50.859 Y142.191 E58.85815
G1 X50.521 Y142.694 E58.87634
G1 X50.133 Y143.136 E58.894
G1 X50.016 Y143.253 E58.89896
G1 X49.56 Y143.652 E58.91715
G1 X49.055 Y143.988 E58.93536
G1 X48.511 Y144.255 E58.95355
G1 X47.936 Y144.448 E58.97176
G1 X47.341 Y144.564 E58.98995
G1 X46.763 Y144.6 E59.00734
G1 X10.997 Y144.6 E60.08093
G1 X10.392 Y144.56 E60.09913
G1 X9.798 Y144.441 E60.11732
G1 X9.224 Y144.245 E60.13553
G1 X8.681 Y143.974 E60.15374
G1 X8.178 Y143.635 E60.17195
G1 X7.744 Y143.253 E60.18931
