;FLAVOR:Marlin
;TIME:3548
;Filament used: 1.38621m
;Layer height: 0.1
;MINX:36.8
;MINY:36.8
;MINZ:0.3
;MAXX:183.2
;MAXY:183.2
;MAXZ:0.4
;Generated with Cura_SteamEngine 4.4.1
M140 S60
M105
M190 S60
M104 S220
M105
M109 S220
M82 ;absolute extrusion mode
G28 ;Home
G1 Z15.0 F6000 ;Move the platform down 15mm
;Prime the extruder
G92 E0
G1 F200 E3
G92 E0
G92 E0
G92 E0
G1 F1500 E-6.5
;LAYER_COUNT:2
;LAYER:0
M107
G0 F2400 X37.789 Y37.704 Z0.3
;TYPE:SKIRT
G1 F1500 E0
G1 F1200 X38.18 Y37.383 E0.02278
G1 X38.617 Y37.128 E0.04556
G1 X39.088 Y36.944 E0.06833
G1 X39.582 Y36.838 E0.09108
G1 X39.919 Y36.81 E0.1063
G1 X40.24 Y36.801 E0.12076
G1 X40.33 Y36.8 E0.12481
G1 X179.339 Y36.8 E6.38382
G1 X180.037 Y36.81 E6.41525
G1 X180.54 Y36.857 E6.438
G1 X181.03 Y36.983 E6.46078
G1 X181.494 Y37.185 E6.48356
G1 X181.92 Y37.457 E6.50632
G1 X182.298 Y37.792 E6.52906
G1 X182.618 Y38.183 E6.55181
G1 X182.873 Y38.62 E6.57459
G1 X183.056 Y39.091 E6.59735
G1 X183.163 Y39.585 E6.62011
G1 X183.19 Y39.92 E6.63524
G1 X183.199 Y40.24 E6.64965
G1 X183.2 Y40.33 E6.6537
G1 X183.2 Y179.304 E12.91113
G1 X183.191 Y180.031 E12.94387
G1 X183.145 Y180.534 E12.96661
G1 X183.02 Y181.024 E12.98938
G1 X182.819 Y181.488 E13.01215
G1 X182.548 Y181.915 E13.03492
G1 X182.213 Y182.294 E13.0577
G1 X181.823 Y182.615 E13.08044
G1 X181.387 Y182.871 E13.10321
G1 X180.916 Y183.054 E13.12596
G1 X180.422 Y183.162 E13.14873
G1 X180.081 Y183.19 E13.16413
G1 X179.76 Y183.199 E13.17859
G1 X179.67 Y183.2 E13.18264
G1 X40.666 Y183.2 E19.44142
G1 X39.968 Y183.191 E19.47286
G1 X39.464 Y183.144 E19.49565
G1 X38.974 Y183.019 E19.51842
G1 X38.51 Y182.818 E19.54118
G1 X38.084 Y182.547 E19.56392
G1 X37.705 Y182.212 E19.58669
G1 X37.384 Y181.821 E19.60947
G1 X37.129 Y181.385 E19.63221
G1 X36.945 Y180.914 E19.65498
G1 X36.838 Y180.42 E19.67774
G1 X36.81 Y180.077 E19.69323
G1 X36.801 Y179.744 E19.70823
G1 X36.8 Y179.658 E19.71211
G1 X36.8 Y40.631 E25.97192
G1 X36.809 Y39.966 E26.00187
G1 X36.856 Y39.462 E26.02466
G1 X36.982 Y38.973 E26.0474
G1 X37.183 Y38.509 E26.07016
G1 X37.454 Y38.082 E26.09294
G1 X37.789 Y37.704 E26.11568
G1 F1500 E19.61568
;MESH:testdruck.stl
G0 F2400 X40.614 Y39.335
G0 X40.614 Y40.614
G0 X47.227 Y47.544
G0 X47.301 Y47.61
;TYPE:WALL-INNER
G1 F1500 E26.11568
G1 F600 X46.809 Y48.325 E26.15476
G1 X46.5 Y49.138 E26.19392
G1 X46.396 Y50 E26.23301
G1 X46.5 Y50.862 E26.27211
G1 X46.809 Y51.675 E26.31127
G1 X47.301 Y52.39 E26.35035
G1 X47.953 Y52.967 E26.38955
G1 X48.722 Y53.37 E26.42864
G1 X49.565 Y53.578 E26.46773
G1 X50.435 Y53.578 E26.50691
G1 X51.278 Y53.37 E26.546
G1 X52.047 Y52.967 E26.58509
G1 X52.699 Y52.39 E26.62429
G1 X53.191 Y51.675 E26.66337
G1 X53.5 Y50.862 E26.70253
G1 X53.604 Y50 E26.74163
G1 X53.5 Y49.138 E26.78072
G1 X53.191 Y48.325 E26.81988
G1 X52.699 Y47.61 E26.85896
G1 X52.047 Y47.033 E26.89816
G1 X51.278 Y46.63 E26.93726
G1 X50.435 Y46.422 E26.97635
G1 X49.565 Y46.422 E27.01552
G1 X48.722 Y46.63 E27.05462
G1 X47.953 Y47.033 E27.09371
G1 X47.301 Y47.61 E27.13291
G0 F2400 X47.227 Y47.544
G0 X47.931 Y47.001
G0 X48.708 Y46.593
G0 X49.561 Y46.383
G0 X61.23 Y46.951
G0 X61.286 Y47.033
G1 F600 X60.635 Y47.61 E27.17208
G1 X60.142 Y48.325 E27.21118
G1 X59.834 Y49.138 E27.25033
G1 X59.729 Y50 E27.28943
G1 X59.834 Y50.862 E27.32853
G1 X60.142 Y51.675 E27.36767
G1 X60.635 Y52.39 E27.40678
G1 X61.286 Y52.967 E27.44595
G1 X62.056 Y53.37 E27.48508
G1 X62.899 Y53.578 E27.52417
G1 X63.768 Y53.578 E27.5633
G1 X64.611 Y53.37 E27.60239
G1 X65.381 Y52.967 E27.64153
G1 X66.032 Y52.39 E27.68069
G1 X66.525 Y51.675 E27.7198
G1 X66.833 Y50.862 E27.75894
G1 X66.937 Y50 E27.79804
G1 X66.833 Y49.138 E27.83713
G1 X66.525 Y48.325 E27.87628
G1 X66.032 Y47.61 E27.91538
G1 X65.381 Y47.033 E27.95455
G1 X64.611 Y46.63 E27.99368
G1 X63.768 Y46.422 E28.03277
G1 X62.899 Y46.422 E28.0719
G1 X62.056 Y46.63 E28.111
G1 X61.286 Y47.033 E28.15013
G0 F2400 X61.23 Y46.951
G0 X62.042 Y46.593
G0 X62.895 Y46.383
G0 X74.563 Y46.951
G0 X74.619 Y47.033
G1 F600 X73.968 Y47.61 E28.1893
G1 X73.475 Y48.325 E28.2284
G1 X73.167 Y49.138 E28.26755
G1 X73.063 Y50 E28.30664
G1 X73.167 Y50.862 E28.34573
G1 X73.475 Y51.675 E28.38488
G1 X73.968 Y52.39 E28.42398
G1 X74.619 Y52.967 E28.46315
G1 X75.389 Y53.37 E28.50228
G1 X76.232 Y53.578 E28.54138
G1 X77.101 Y53.578 E28.58051
G1 X77.944 Y53.37 E28.6196
G1 X78.714 Y52.967 E28.65873
G1 X79.365 Y52.39 E28.6979
G1 X79.858 Y51.675 E28.737
G1 X80.166 Y50.862 E28.77615
G1 X80.271 Y50 E28.81525
G1 X80.166 Y49.138 E28.85435
G1 X79.858 Y48.325 E28.89349
G1 X79.365 Y47.61 E28.9326
G1 X78.714 Y47.033 E28.97177
G1 X77.944 Y46.63 E29.0109
G1 X77.101 Y46.422 E29.04999
G1 X76.232 Y46.422 E29.08912
G1 X75.389 Y46.63 E29.12822
G1 X74.619 Y47.033 E29.16735
G0 F2400 X74.563 Y46.951
G0 X75.375 Y46.593
G0 X76.228 Y46.383
G0 X87.227 Y47.544
G0 X87.301 Y47.61
G1 F600 X86.809 Y48.325 E29.20643
G1 X86.5 Y49.138 E29.24559
G1 X86.396 Y50 E29.28468
G1 X86.5 Y50.862 E29.32377
G1 X86.809 Y51.675 E29.36293
G1 X87.301 Y52.39 E29.40201
G1 X87.953 Y52.967 E29.44122
G1 X88.722 Y53.37 E29.48031
G1 X89.565 Y53.578 E29.5194
G1 X90.435 Y53.578 E29.55857
G1 X91.278 Y53.37 E29.59767
G1 X92.047 Y52.967 E29.63676
G1 X92.699 Y52.39 E29.67596
G1 X93.191 Y51.675 E29.71504
G1 X93.5 Y50.862 E29.7542
G1 X93.604 Y50 E29.7933
G1 X93.5 Y49.138 E29.83239
G1 X93.191 Y48.325 E29.87155
G1 X92.699 Y47.61 E29.91063
G1 X92.047 Y47.033 E29.94983
G1 X91.278 Y46.63 E29.98892
G1 X90.435 Y46.422 E30.02802
G1 X89.565 Y46.422 E30.06719
G1 X88.722 Y46.63 E30.10629
G1 X87.953 Y47.033 E30.14538
G1 X87.301 Y47.61 E30.18458
G0 F2400 X87.227 Y47.544
G0 X87.931 Y47.001
G0 X88.708 Y46.593
G0 X89.561 Y46.383
G0 X101.23 Y46.951
G0 X101.286 Y47.033
G1 F600 X100.635 Y47.61 E30.22375
G1 X100.142 Y48.325 E30.26285
G1 X99.834 Y49.138 E30.302
G1 X99.729 Y50 E30.3411
G1 X99.834 Y50.862 E30.3802
G1 X100.142 Y51.675 E30.41934
G1 X100.635 Y52.39 E30.45845
G1 X101.286 Y52.967 E30.49761
G1 X102.056 Y53.37 E30.53675
G1 X102.899 Y53.578 E30.57584
G1 X103.768 Y53.578 E30.61497
G1 X104.611 Y53.37 E30.65406
G1 X105.381 Y52.967 E30.69319
G1 X106.032 Y52.39 E30.73236
G1 X106.525 Y51.675 E30.77147
G1 X106.833 Y50.862 E30.81061
G1 X106.937 Y50 E30.84971
G1 X106.833 Y49.138 E30.8888
G1 X106.525 Y48.325 E30.92794
G1 X106.032 Y47.61 E30.96705
G1 X105.381 Y47.033 E31.00622
G1 X104.611 Y46.63 E31.04535
G1 X103.768 Y46.422 E31.08444
G1 X102.899 Y46.422 E31.12357
G1 X102.056 Y46.63 E31.16267
G1 X101.286 Y47.033 E31.2018
G0 F2400 X101.23 Y46.951
G0 X102.042 Y46.593
G0 X102.895 Y46.383
G0 X114.563 Y46.951
G0 X114.619 Y47.033
G1 F600 X113.968 Y47.61 E31.24097
G1 X113.475 Y48.325 E31.28007
G1 X113.167 Y49.138 E31.31922
G1 X113.063 Y50 E31.35831
G1 X113.167 Y50.862 E31.3974
G1 X113.475 Y51.675 E31.43655
G1 X113.968 Y52.39 E31.47565
G1 X114.619 Y52.967 E31.51482
G1 X115.389 Y53.37 E31.55395
G1 X116.232 Y53.578 E31.59305
G1 X117.101 Y53.578 E31.63217
G1 X117.944 Y53.37 E31.67127
G1 X118.714 Y52.967 E31.7104
G1 X119.365 Y52.39 E31.74957
G1 X119.858 Y51.675 E31.78867
G1 X120.166 Y50.862 E31.82782
G1 X120.271 Y50 E31.86692
G1 X120.166 Y49.138 E31.90602
G1 X119.858 Y48.325 E31.94516
G1 X119.365 Y47.61 E31.98427
G1 X118.714 Y47.033 E32.02343
G1 X117.944 Y46.63 E32.06257
G1 X117.101 Y46.422 E32.10166
G1 X116.232 Y46.422 E32.14079
G1 X115.389 Y46.63 E32.17988
G1 X114.619 Y47.033 E32.21902
G0 F2400 X114.563 Y46.951
G0 X115.375 Y46.593
G0 X116.228 Y46.383
G0 X127.227 Y47.544
G0 X127.301 Y47.61
G1 F600 X126.809 Y48.325 E32.25809
G1 X126.5 Y49.138 E32.29725
G1 X126.396 Y50 E32.33635
G1 X126.5 Y50.862 E32.37544
G1 X126.809 Y51.675 E32.4146
G1 X127.301 Y52.39 E32.45368
G1 X127.953 Y52.967 E32.49288
G1 X128.722 Y53.37 E32.53198
G1 X129.565 Y53.578 E32.57107
G1 X130.435 Y53.578 E32.61024
G1 X131.278 Y53.37 E32.64934
G1 X132.047 Y52.967 E32.68843
G1 X132.699 Y52.39 E32.72763
G1 X133.191 Y51.675 E32.76671
G1 X133.5 Y50.862 E32.80587
G1 X133.604 Y50 E32.84497
G1 X133.5 Y49.138 E32.88406
G1 X133.191 Y48.325 E32.92322
G1 X132.699 Y47.61 E32.9623
G1 X132.047 Y47.033 E33.0015
G1 X131.278 Y46.63 E33.04059
G1 X130.435 Y46.422 E33.07969
G1 X129.565 Y46.422 E33.11886
G1 X128.722 Y46.63 E33.15796
G1 X127.953 Y47.033 E33.19705
G1 X127.301 Y47.61 E33.23625
G0 F2400 X127.227 Y47.544
G0 X127.931 Y47.001
G0 X128.708 Y46.593
G0 X129.561 Y46.383
G0 X141.23 Y46.951
G0 X141.286 Y47.033
G1 F600 X140.635 Y47.61 E33.27542
G1 X140.142 Y48.325 E33.31452
G1 X139.834 Y49.138 E33.35367
G1 X139.729 Y50 E33.39277
G1 X139.834 Y50.862 E33.43186
G1 X140.142 Y51.675 E33.47101
G1 X140.635 Y52.39 E33.51011
G1 X141.286 Y52.967 E33.54928
G1 X142.056 Y53.37 E33.58841
G1 X142.899 Y53.578 E33.62751
G1 X143.768 Y53.578 E33.66664
G1 X144.611 Y53.37 E33.70573
G1 X145.381 Y52.967 E33.74486
G1 X146.032 Y52.39 E33.78403
G1 X146.525 Y51.675 E33.82314
G1 X146.833 Y50.862 E33.86228
G1 X146.937 Y50 E33.90137
G1 X146.833 Y49.138 E33.94047
G1 X146.525 Y48.325 E33.97961
G1 X146.032 Y47.61 E34.01872
G1 X145.381 Y47.033 E34.05789
G1 X144.611 Y46.63 E34.09702
G1 X143.768 Y46.422 E34.13611
G1 X142.899 Y46.422 E34.17524
G1 X142.056 Y46.63 E34.21433
G1 X141.286 Y47.033 E34.25347
G0 F2400 X141.23 Y46.951
G0 X142.042 Y46.593
G0 X142.895 Y46.383
G0 X154.563 Y46.951
G0 X154.619 Y47.033
G1 F600 X153.968 Y47.61 E34.29263
G1 X153.475 Y48.325 E34.33174
G1 X153.167 Y49.138 E34.37088
G1 X153.063 Y50 E34.40998
G1 X153.167 Y50.862 E34.44907
G1 X153.475 Y51.675 E34.48822
G1 X153.968 Y52.39 E34.52732
G1 X154.619 Y52.967 E34.56649
G1 X155.389 Y53.37 E34.60562
G1 X156.232 Y53.578 E34.64472
G1 X157.101 Y53.578 E34.68384
G1 X157.944 Y53.37 E34.72294
G1 X158.714 Y52.967 E34.76207
G1 X159.365 Y52.39 E34.80124
G1 X159.858 Y51.675 E34.84034
G1 X160.166 Y50.862 E34.87949
G1 X160.271 Y50 E34.91859
G1 X160.166 Y49.138 E34.95769
G1 X159.858 Y48.325 E34.99683
G1 X159.365 Y47.61 E35.03593
G1 X158.714 Y47.033 E35.0751
G1 X157.944 Y46.63 E35.11423
G1 X157.101 Y46.422 E35.15333
G1 X156.232 Y46.422 E35.19246
G1 X155.389 Y46.63 E35.23155
G1 X154.619 Y47.033 E35.27068
G0 F2400 X154.563 Y46.951
G0 X155.375 Y46.593
G0 X156.228 Y46.383
G0 X167.227 Y47.544
G0 X167.301 Y47.61
G1 F600 X166.809 Y48.325 E35.30976
G1 X166.5 Y49.138 E35.34892
G1 X166.396 Y50 E35.38802
G1 X166.5 Y50.862 E35.42711
G1 X166.809 Y51.675 E35.46627
G1 X167.301 Y52.39 E35.50535
G1 X167.953 Y52.967 E35.54455
G1 X168.722 Y53.37 E35.58364
G1 X169.565 Y53.578 E35.62274
G1 X170.435 Y53.578 E35.66191
G1 X171.278 Y53.37 E35.70101
G1 X172.047 Y52.967 E35.7401
G1 X172.699 Y52.39 E35.7793
G1 X173.191 Y51.675 E35.81838
G1 X173.5 Y50.862 E35.85754
G1 X173.604 Y50 E35.89663
G1 X173.5 Y49.138 E35.93573
G1 X173.191 Y48.325 E35.97489
G1 X172.699 Y47.61 E36.01397
G1 X172.047 Y47.033 E36.05317
G1 X171.278 Y46.63 E36.09226
G1 X170.435 Y46.422 E36.13136
G1 X169.565 Y46.422 E36.17053
G1 X168.722 Y46.63 E36.20962
G1 X167.953 Y47.033 E36.24872
G1 X167.301 Y47.61 E36.28792
G0 F2400 X167.227 Y47.544
G0 X166.774 Y48.307
G0 X166.462 Y49.129
G0 X166.356 Y50
G0 X167.227 Y71.86
G0 X175.628 Y71.872
G0 X175.628 Y148.128
G0 X167.227 Y157.544
G0 X167.301 Y157.61
G1 F600 X166.809 Y158.325 E36.327
G1 X166.5 Y159.138 E36.36616
G1 X166.396 Y160 E36.40525
G1 X166.5 Y160.862 E36.44434
G1 X166.809 Y161.675 E36.48351
G1 X167.301 Y162.39 E36.52258
G1 X167.953 Y162.967 E36.56179
G1 X168.722 Y163.37 E36.60088
G1 X169.565 Y163.578 E36.63997
G1 X170.435 Y163.578 E36.67915
G1 X171.278 Y163.37 E36.71824
G1 X172.047 Y162.967 E36.75733
G1 X172.699 Y162.39 E36.79653
G1 X173.191 Y161.675 E36.83561
G1 X173.5 Y160.862 E36.87477
G1 X173.604 Y160 E36.91387
G1 X173.5 Y159.138 E36.95296
G1 X173.191 Y158.325 E36.99212
G1 X172.699 Y157.61 E37.0312
G1 X172.047 Y157.033 E37.0704
G1 X171.278 Y156.63 E37.10949
G1 X170.435 Y156.422 E37.14859
G1 X169.565 Y156.422 E37.18776
G1 X168.722 Y156.63 E37.22686
G1 X167.953 Y157.033 E37.26595
G1 X167.301 Y157.61 E37.30515
G0 F2400 X167.227 Y157.544
G0 X166.774 Y158.307
G0 X166.462 Y159.129
G0 X167.227 Y167.544
G0 X167.301 Y167.61
G1 F600 X166.809 Y168.325 E37.34423
G1 X166.5 Y169.138 E37.38339
G1 X166.396 Y170 E37.42248
G1 X166.5 Y170.862 E37.46158
G1 X166.809 Y171.675 E37.50074
G1 X167.301 Y172.39 E37.53982
G1 X167.953 Y172.967 E37.57902
G1 X168.722 Y173.37 E37.61811
G1 X169.565 Y173.578 E37.65721
G1 X170.435 Y173.578 E37.69638
G1 X171.278 Y173.37 E37.73547
G1 X172.047 Y172.967 E37.77457
G1 X172.699 Y172.39 E37.81377
G1 X173.191 Y171.675 E37.85285
G1 X173.5 Y170.862 E37.89201
G1 X173.604 Y170 E37.9311
G1 X173.5 Y169.138 E37.9702
G1 X173.191 Y168.325 E38.00936
G1 X172.699 Y167.61 E38.04844
G1 X172.047 Y167.033 E38.08764
G1 X171.278 Y166.63 E38.12673
G1 X170.435 Y166.422 E38.16582
G1 X169.565 Y166.422 E38.205
G1 X168.722 Y166.63 E38.24409
G1 X167.953 Y167.033 E38.28318
G1 X167.301 Y167.61 E38.32238
G0 F2400 X167.227 Y167.544
G0 X157.105 Y166.383
G0 X156.228 Y166.383
G0 X154.563 Y166.951
G0 X154.619 Y167.033
G1 F600 X153.968 Y167.61 E38.36155
G1 X153.475 Y168.325 E38.40066
G1 X153.167 Y169.138 E38.4398
G1 X153.063 Y170 E38.4789
G1 X153.167 Y170.862 E38.51799
G1 X153.475 Y171.675 E38.55713
G1 X153.968 Y172.39 E38.59624
G1 X154.619 Y172.967 E38.63541
G1 X155.389 Y173.37 E38.67454
G1 X156.232 Y173.578 E38.71363
G1 X157.101 Y173.578 E38.75276
G1 X157.944 Y173.37 E38.79186
G1 X158.714 Y172.967 E38.83099
G1 X159.365 Y172.39 E38.87016
G1 X159.858 Y171.675 E38.90926
G1 X160.166 Y170.862 E38.94841
G1 X160.271 Y170 E38.9875
G1 X160.166 Y169.138 E39.0266
G1 X159.858 Y168.325 E39.06575
G1 X159.365 Y167.61 E39.10485
G1 X158.714 Y167.033 E39.14402
G1 X157.944 Y166.63 E39.18315
G1 X157.101 Y166.422 E39.22225
G1 X156.232 Y166.422 E39.26138
G1 X155.389 Y166.63 E39.30047
G1 X154.619 Y167.033 E39.3396
G0 F2400 X154.563 Y166.951
G0 X153.129 Y160.871
G0 X153.023 Y160
G0 X153.129 Y159.129
G0 X153.44 Y158.307
G0 X154.563 Y156.951
G0 X154.619 Y157.033
G1 F600 X153.968 Y157.61 E39.37877
G1 X153.475 Y158.325 E39.41787
G1 X153.167 Y159.138 E39.45702
G1 X153.063 Y160 E39.49611
G1 X153.167 Y160.862 E39.53521
G1 X153.475 Y161.675 E39.57435
G1 X153.968 Y162.39 E39.61346
G1 X154.619 Y162.967 E39.65262
G1 X155.389 Y163.37 E39.69176
G1 X156.232 Y163.578 E39.73085
G1 X157.101 Y163.578 E39.76998
G1 X157.944 Y163.37 E39.80907
G1 X158.714 Y162.967 E39.84821
G1 X159.365 Y162.39 E39.88737
G1 X159.858 Y161.675 E39.92648
G1 X160.166 Y160.862 E39.96562
G1 X160.271 Y160 E40.00472
G1 X160.166 Y159.138 E40.04382
G1 X159.858 Y158.325 E40.08297
G1 X159.365 Y157.61 E40.12207
G1 X158.714 Y157.033 E40.16124
G1 X157.944 Y156.63 E40.20037
G1 X157.101 Y156.422 E40.23947
G1 X156.232 Y156.422 E40.27859
G1 X155.389 Y156.63 E40.31769
G1 X154.619 Y157.033 E40.35682
G0 F2400 X154.563 Y156.951
G0 X143.772 Y156.383
G0 X142.895 Y156.383
G0 X141.23 Y156.951
G0 X141.286 Y157.033
G1 F600 X140.635 Y157.61 E40.39599
G1 X140.142 Y158.325 E40.43509
G1 X139.834 Y159.138 E40.47424
G1 X139.729 Y160 E40.51334
G1 X139.834 Y160.862 E40.55244
G1 X140.142 Y161.675 E40.59158
G1 X140.635 Y162.39 E40.63069
G1 X141.286 Y162.967 E40.66985
G1 X142.056 Y163.37 E40.70898
G1 X142.899 Y163.578 E40.74808
G1 X143.768 Y163.578 E40.78721
G1 X144.611 Y163.37 E40.8263
G1 X145.381 Y162.967 E40.86543
G1 X146.032 Y162.39 E40.9046
G1 X146.525 Y161.675 E40.94371
G1 X146.833 Y160.862 E40.98285
G1 X146.937 Y160 E41.02195
G1 X146.833 Y159.138 E41.06104
G1 X146.525 Y158.325 E41.10018
G1 X146.032 Y157.61 E41.13929
G1 X145.381 Y157.033 E41.17846
G1 X144.611 Y156.63 E41.21759
G1 X143.768 Y156.422 E41.25668
G1 X142.899 Y156.422 E41.29581
G1 X142.056 Y156.63 E41.33491
G1 X141.286 Y157.033 E41.37404
G0 F2400 X141.23 Y156.951
G0 X140.606 Y157.584
G0 X140.107 Y158.307
G0 X139.796 Y159.129
G0 X139.689 Y160
G0 X141.23 Y166.951
G0 X141.286 Y167.033
G1 F600 X140.635 Y167.61 E41.41321
G1 X140.142 Y168.325 E41.45231
G1 X139.834 Y169.138 E41.49145
G1 X139.729 Y170 E41.53055
G1 X139.834 Y170.862 E41.56965
G1 X140.142 Y171.675 E41.6088
G1 X140.635 Y172.39 E41.6479
G1 X141.286 Y172.967 E41.68707
G1 X142.056 Y173.37 E41.7262
G1 X142.899 Y173.578 E41.7653
G1 X143.768 Y173.578 E41.80442
G1 X144.611 Y173.37 E41.84352
G1 X145.381 Y172.967 E41.88265
G1 X146.032 Y172.39 E41.92182
G1 X146.525 Y171.675 E41.96092
G1 X146.833 Y170.862 E42.00007
