;FLAVOR:Marlin
;TIME:5242
;Filament used: 2.41856m
;Layer height: 0.1
;MINX:164.788
;MINY:57.8
;MINZ:0.3
;MAXX:215.688
;MAXY:162.2
;MAXZ:2
;Generated with Cura_SteamEngine 4.4.1
M140 S60
M105
M190 S60
M104 S220
M105
M109 S220
M82 ;absolute extrusion mode
G28 ;Home
G1 Z15.0 F6000 ;Move the platform down 15mm
;Prime the extruder
G92 E0
G1 F200 E3
G92 E0
G92 E0
G92 E0
G1 F1500 E-6.5
;LAYER_COUNT:18
;LAYER:0
M107
G0 F2400 X164.97 Y59.973 Z0.3
;TYPE:SKIRT
G1 F1500 E0
G1 F1200 X165.171 Y59.509 E0.0222
G1 X165.442 Y59.082 E0.0444
G1 X165.777 Y58.704 E0.06658
G1 X166.168 Y58.383 E0.08879
G1 X166.605 Y58.128 E0.111
G1 X167.076 Y57.944 E0.1332
G1 X167.57 Y57.838 E0.15538
G1 X167.907 Y57.81 E0.17023
G1 X168.228 Y57.801 E0.18433
G1 X168.318 Y57.8 E0.18828
G1 X211.827 Y57.8 E2.09847
G1 X212.525 Y57.81 E2.12912
G1 X213.028 Y57.857 E2.1513
G1 X213.518 Y57.983 E2.17351
G1 X213.982 Y58.185 E2.19573
G1 X214.408 Y58.457 E2.21792
G1 X214.786 Y58.792 E2.2401
G1 X215.106 Y59.183 E2.26228
G1 X215.361 Y59.62 E2.28449
G1 X215.544 Y60.091 E2.30668
G1 X215.651 Y60.585 E2.32887
G1 X215.678 Y60.92 E2.34362
G1 X215.687 Y61.24 E2.35768
G1 X215.688 Y61.33 E2.36163
G1 X215.688 Y158.304 E6.61911
G1 X215.679 Y159.031 E6.65104
G1 X215.633 Y159.534 E6.67321
G1 X215.508 Y160.024 E6.69541
G1 X215.307 Y160.488 E6.71761
G1 X215.036 Y160.915 E6.73982
G1 X214.701 Y161.294 E6.76202
G1 X214.311 Y161.615 E6.7842
G1 X213.875 Y161.871 E6.8064
G1 X213.404 Y162.054 E6.82858
G1 X212.91 Y162.162 E6.85078
G1 X212.569 Y162.19 E6.8658
G1 X212.248 Y162.199 E6.8799
G1 X212.158 Y162.2 E6.88385
G1 X168.654 Y162.2 E8.79383
G1 X167.956 Y162.191 E8.82447
G1 X167.452 Y162.144 E8.8467
G1 X166.962 Y162.019 E8.8689
G1 X166.498 Y161.818 E8.8911
G1 X166.072 Y161.547 E8.91327
G1 X165.693 Y161.212 E8.93547
G1 X165.372 Y160.821 E8.95768
G1 X165.117 Y160.385 E8.97986
G1 X164.933 Y159.914 E9.00206
G1 X164.826 Y159.42 E9.02425
G1 X164.798 Y159.077 E9.03936
G1 X164.789 Y158.744 E9.05398
G1 X164.788 Y158.658 E9.05776
G1 X164.788 Y61.631 E13.31757
G1 X164.797 Y60.966 E13.34677
G1 X164.844 Y60.462 E13.369
G1 X164.97 Y59.973 E13.39117
G1 F1500 E6.89117
;MESH:Schalengeh??use_R??ckblende.stl
G0 F2400 X167.323 Y61.414
G0 X168.402 Y61.414
G0 X183.388 Y79.6
;TYPE:WALL-INNER
G1 F1500 E13.39117
G1 F1200 X204.588 Y79.6 E14.32192
G1 X204.588 Y74.501 E14.54578
G1 X204.588 Y74.165 E14.56053
G1 X204.588 Y73.876 E14.57322
G1 X204.738 Y74.165 E14.57685
G1 X204.957 Y74.419 E14.58725
G1 X205.089 Y74.573 E14.59616
G1 X205.511 Y74.863 E14.61864
G1 X205.984 Y75.043 E14.64086
G1 X206.488 Y75.104 E14.66315
G1 X206.992 Y75.043 E14.68543
G1 X207.465 Y74.863 E14.70765
G1 X207.884 Y74.576 E14.72995
G1 X208.22 Y74.194 E14.75229
G1 X208.455 Y73.747 E14.77446
G1 X208.577 Y73.254 E14.79675
G1 X208.577 Y72.746 E14.81906
G1 X208.455 Y72.253 E14.84135
G1 X208.22 Y71.806 E14.86353
G1 X207.884 Y71.424 E14.88586
G1 X207.465 Y71.137 E14.90816
G1 X206.992 Y70.957 E14.93038
G1 X206.488 Y70.896 E14.95267
G1 X205.984 Y70.957 E14.97496
G1 X205.511 Y71.137 E14.99717
G1 X205.092 Y71.424 E15.01947
G1 X204.958 Y71.575 E15.02834
G1 X204.755 Y71.806 E15.04184
G1 X204.588 Y72.124 E15.05761
G1 X204.588 Y71.806 E15.06016
G1 X204.588 Y71.498 E15.07
G1 X204.588 Y66.4 E15.29382
G1 X183.388 Y66.4 E16.22457
G1 X183.388 Y71.499 E16.44844
G1 X183.388 Y71.806 E16.46191
G1 X183.388 Y72.126 E16.47596
G1 X183.22 Y71.806 E16.48035
G1 X183.017 Y71.576 E16.49016
G1 X182.884 Y71.424 E16.49903
G1 X182.465 Y71.137 E16.52132
G1 X181.992 Y70.957 E16.54354
G1 X181.488 Y70.896 E16.56583
G1 X180.984 Y70.957 E16.58812
G1 X180.511 Y71.137 E16.61034
G1 X180.092 Y71.424 E16.63264
G1 X179.755 Y71.806 E16.655
G1 X179.52 Y72.254 E16.67721
G1 X179.399 Y72.746 E16.69946
G1 X179.399 Y73.254 E16.72176
G1 X179.52 Y73.745 E16.74396
G1 X179.738 Y74.165 E16.76474
G1 X180.089 Y74.573 E16.78837
G1 X180.511 Y74.863 E16.81085
G1 X180.984 Y75.043 E16.83306
G1 X181.488 Y75.104 E16.85535
G1 X181.992 Y75.043 E16.87764
G1 X182.465 Y74.863 E16.89986
G1 X182.884 Y74.576 E16.92216
G1 X183.017 Y74.424 E16.93103
G1 X183.22 Y74.194 E16.94449
G1 X183.388 Y73.874 E16.96036
G1 X183.388 Y74.194 E16.96295
G1 X183.388 Y74.501 E16.97277
G1 X183.388 Y79.6 E17.19664
G0 F2400 X184.571 Y89.352
G0 X184.753 Y90.161
G0 X185.122 Y90.897
G0 X185.662 Y91.53
G0 X186.335 Y92.013
G0 X188.784 Y92.511
G1 F1200 X189.601 Y92.216 E17.23477
G1 X190.323 Y91.738 E17.27279
G1 X190.911 Y91.098 E17.31094
G1 X191.328 Y90.338 E17.349
G1 X191.55 Y89.5 E17.38706
G1 X191.567 Y88.632 E17.42518
G1 X191.376 Y87.786 E17.46325
G1 X190.987 Y87.011 E17.50133
G1 X190.423 Y86.351 E17.53944
G1 X189.719 Y85.846 E17.57748
G1 X188.913 Y85.522 E17.61562
G1 X188.055 Y85.404 E17.65364
G1 X187.192 Y85.489 E17.69171
G1 X186.375 Y85.784 E17.72985
G1 X185.651 Y86.262 E17.76794
G1 X185.065 Y86.902 E17.80603
G1 X184.648 Y87.662 E17.84409
G1 X184.426 Y88.5 E17.88215
G1 X184.409 Y89.368 E17.92027
G1 X184.6 Y90.214 E17.95835
G1 X184.989 Y90.989 E17.99642
G1 X185.552 Y91.649 E18.0345
G1 X186.257 Y92.154 E18.07258
G1 X187.063 Y92.478 E18.11071
G1 X187.921 Y92.596 E18.14874
G1 X188.784 Y92.511 E18.18681
G0 F2400 X202.081 Y85.003
G1 F1200 X201.15 Y85.338 E18.23025
G1 X200.327 Y85.884 E18.27361
G1 X199.659 Y86.612 E18.31699
G1 X199.184 Y87.477 E18.36031
G1 X198.93 Y88.432 E18.4037
G1 X198.912 Y89.419 E18.44704
G1 X199.13 Y90.383 E18.49043
G1 X199.573 Y91.265 E18.53376
G1 X200.215 Y92.017 E18.57717
G1 X201.017 Y92.592 E18.6205
G1 X201.935 Y92.96 E18.66392
G1 X202.912 Y93.095 E18.70722
G1 X203.894 Y92.997 E18.75055
G1 X204.825 Y92.662 E18.79399
G1 X205.649 Y92.116 E18.83739
G1 X206.316 Y91.388 E18.88073
G1 X206.791 Y90.523 E18.92406
G1 X207.045 Y89.568 E18.96745
G1 X207.063 Y88.581 E19.01079
G1 X206.845 Y87.617 E19.05418
G1 X206.402 Y86.735 E19.09751
G1 X205.761 Y85.983 E19.14089
G1 X204.958 Y85.408 E19.18425
G1 X204.04 Y85.04 E19.22767
G1 X203.064 Y84.905 E19.27093
G1 X202.081 Y85.003 E19.3143
G0 F2400 X200.433 Y86.007
G0 X182.56 Y100.572
G0 X182.388 Y119.6
G1 F1200 X198.588 Y119.6 E20.02554
G1 X198.588 Y100.4 E20.86848
G1 X182.388 Y100.4 E21.57972
G1 X182.388 Y119.6 E22.42266
G0 F2400 X177.683 Y142.219
G0 X177.79 Y143.217
G0 X178.336 Y144.357
G1 F1200 X178.833 Y144.7 E22.44917
G1 X179.394 Y144.912 E22.4755
G1 X179.988 Y144.984 E22.50177
G1 X180.582 Y144.912 E22.52804
G1 X181.143 Y144.7 E22.55437
G1 X181.635 Y144.36 E22.58063
G1 X182.033 Y143.912 E22.60694
G1 X182.311 Y143.381 E22.63325
G1 X182.454 Y142.8 E22.65952
G1 X182.454 Y142.2 E22.68586
G1 X182.311 Y141.619 E22.71213
G1 X182.033 Y141.089 E22.73841
G1 X181.636 Y140.641 E22.76469
G1 X181.143 Y140.3 E22.791
G1 X180.582 Y140.088 E22.81733
G1 X179.988 Y140.016 E22.8436
G1 X179.394 Y140.088 E22.86987
G1 X178.833 Y140.3 E22.8962
G1 X178.34 Y140.641 E22.92252
G1 X177.943 Y141.089 E22.9488
G1 X177.665 Y141.619 E22.97508
G1 X177.522 Y142.2 E23.00135
G1 X177.522 Y142.8 E23.02769
G1 X177.665 Y143.38 E23.05391
G1 X177.924 Y143.876 E23.07848
G1 X178.336 Y144.357 E23.10629
G0 F2400 X189.388 Y149.6
G1 F1200 X206.588 Y149.6 E23.86142
G1 X206.588 Y135.4 E24.48485
G1 X189.388 Y135.4 E25.23999
G1 X189.388 Y149.6 E25.86342
G0 F2400 X168.588 Y158.4
G1 F1200 X168.588 Y61.6 E30.11326
G1 X211.888 Y61.6 E32.01428
G1 X211.888 Y158.4 E36.26413
G1 X168.588 Y158.4 E38.16514
G0 F2400 X168.188 Y158.8
;TYPE:WALL-OUTER
G1 F1200 X168.188 Y61.2 E42.45011
G1 X212.288 Y61.2 E44.38625
G1 X212.288 Y158.8 E48.67122
G1 X168.188 Y158.8 E50.60736
G0 F2400 X168.188 Y158.6
G0 X168.458 Y158.53
G0 X178.436 Y144.303
G0 X178.606 Y144.057
G1 F1200 X179.02 Y144.343 E50.62945
G1 X179.49 Y144.521 E50.65152
G1 X179.988 Y144.581 E50.67354
G1 X180.486 Y144.521 E50.69556
G1 X180.956 Y144.343 E50.71763
G1 X181.368 Y144.058 E50.73962
G1 X181.701 Y143.683 E50.76164
G1 X181.934 Y143.238 E50.78369
G1 X182.054 Y142.751 E50.80571
G1 X182.054 Y142.249 E50.82775
G1 X181.934 Y141.762 E50.84977
G1 X181.701 Y141.318 E50.87179
G1 X181.369 Y140.942 E50.89381
G1 X180.956 Y140.657 E50.91584
G1 X180.486 Y140.479 E50.9379
G1 X179.988 Y140.419 E50.95993
G1 X179.49 Y140.479 E50.98195
G1 X179.02 Y140.657 E51.00401
G1 X178.607 Y140.942 E51.02604
G1 X178.275 Y141.318 E51.04806
G1 X178.042 Y141.762 E51.07008
G1 X177.922 Y142.249 E51.0921
G1 X177.922 Y142.751 E51.11414
G1 X178.042 Y143.238 E51.13616
G1 X178.257 Y143.65 E51.15656
G1 X178.606 Y144.057 E51.1801
G0 F2400 X178.77 Y144.17
G0 X178.6 Y144.417
G0 X189.488 Y149.2
G0 X189.788 Y149.2
G1 F1200 X206.188 Y149.2 E51.90012
G1 X206.188 Y135.8 E52.48842
G1 X189.788 Y135.8 E53.20844
G1 X189.788 Y149.2 E53.79674
G0 F2400 X189.988 Y149.2
G0 X189.988 Y149.5
G0 X182.488 Y119.2
G0 X182.788 Y119.2
G1 F1200 X198.188 Y119.2 E54.47285
G1 X198.188 Y100.8 E55.28068
G1 X182.788 Y100.8 E55.95679
G1 X182.788 Y119.2 E56.76461
G0 F2400 X182.988 Y119.2
G0 X182.988 Y119.5
G0 X182.56 Y100.572
G0 X188.797 Y92.401
G0 X188.695 Y92.118
G1 F1200 X189.42 Y91.856 E56.79846
G1 X190.062 Y91.431 E56.83226
G1 X190.584 Y90.863 E56.86613
G1 X190.954 Y90.188 E56.89992
G1 X191.151 Y89.444 E56.93371
G1 X191.166 Y88.673 E56.96757
G1 X190.997 Y87.922 E57.00136
G1 X190.651 Y87.234 E57.03517
G1 X190.15 Y86.648 E57.06902
G1 X189.525 Y86.199 E57.10281
G1 X188.81 Y85.912 E57.13663
G1 X188.047 Y85.807 E57.17045
G1 X187.281 Y85.882 E57.20424
G1 X186.556 Y86.144 E57.23808
G1 X185.913 Y86.569 E57.27192
G1 X185.392 Y87.137 E57.30576
G1 X185.022 Y87.812 E57.33955
G1 X184.825 Y88.556 E57.37334
G1 X184.81 Y89.327 E57.4072
G1 X184.979 Y90.078 E57.441
G1 X185.325 Y90.766 E57.47481
G1 X185.825 Y91.352 E57.50863
G1 X186.451 Y91.801 E57.54245
G1 X187.166 Y92.088 E57.57627
G1 X187.929 Y92.193 E57.61009
G1 X188.695 Y92.118 E57.64388
G0 F2400 X188.883 Y92.05
G0 X188.985 Y92.333
G0 X187.924 Y92.433
G0 X187.105 Y92.322
G0 X186.335 Y92.013
G0 X185.662 Y91.53
G0 X185.122 Y90.897
G0 X184.753 Y90.161
G0 X183.488 Y79.2
G0 X183.788 Y79.2
G1 F1200 X204.188 Y79.2 E58.53951
G1 X204.188 Y66.8 E59.08391
G1 X183.788 Y66.8 E59.97954
G1 X183.788 Y79.2 E60.52394
G0 F2400 X183.988 Y79.2
G0 X183.988 Y79.5
G0 X180.189 Y74.518
G0 X180.358 Y74.273
G1 F1200 X180.698 Y74.506 E60.54204
G1 X181.081 Y74.652 E60.56003
G1 X181.488 Y74.701 E60.57803
G1 X181.895 Y74.652 E60.59603
G1 X182.278 Y74.506 E60.61402
G1 X182.617 Y74.274 E60.63206
G1 X182.888 Y73.966 E60.65007
G1 X183.078 Y73.604 E60.66802
G1 X183.177 Y73.205 E60.68607
G1 X183.177 Y72.795 E60.70407
G1 X183.078 Y72.396 E60.72212
G1 X182.888 Y72.034 E60.74006
G1 X182.617 Y71.726 E60.75808
G1 X182.278 Y71.494 E60.77611
G1 X181.895 Y71.348 E60.79411
G1 X181.488 Y71.299 E60.8121
G1 X181.081 Y71.348 E60.8301
G1 X180.698 Y71.494 E60.8481
G1 X180.359 Y71.726 E60.86613
G1 X180.087 Y72.034 E60.88417
G1 X179.897 Y72.397 E60.90216
G1 X179.799 Y72.795 E60.92016
G1 X179.799 Y73.205 E60.93816
G1 X179.897 Y73.603 E60.95615
G1 X180.072 Y73.94 E60.97282
G1 X180.358 Y74.273 E60.99209
G0 F2400 X180.523 Y74.386
G0 X180.354 Y74.632
G0 X183.56 Y79.428
G0 X202.142 Y85.097
G0 X202.17 Y85.396
G1 F1200 X201.331 Y85.698 E61.03124
G1 X200.589 Y86.19 E61.07033
G1 X199.986 Y86.847 E61.10948
G1 X199.558 Y87.627 E61.14854
G1 X199.329 Y88.488 E61.18766
G1 X199.313 Y89.378 E61.22674
G1 X199.509 Y90.247 E61.26585
G1 X199.909 Y91.042 E61.30492
G1 X200.488 Y91.72 E61.34406
G1 X201.211 Y92.239 E61.38314
G1 X202.038 Y92.57 E61.42225
G1 X202.92 Y92.692 E61.46134
G1 X203.805 Y92.604 E61.50038
G1 X204.644 Y92.302 E61.53953
G1 X205.387 Y91.81 E61.57866
G1 X205.989 Y91.153 E61.61778
G1 X206.417 Y90.373 E61.65684
G1 X206.646 Y89.512 E61.69595
G1 X206.662 Y88.622 E61.73504
G1 X206.466 Y87.753 E61.77415
G1 X206.066 Y86.958 E61.81322
G1 X205.488 Y86.28 E61.85233
G1 X204.764 Y85.761 E61.89144
G1 X203.937 Y85.43 E61.93055
G1 X203.056 Y85.308 E61.9696
G1 X202.17 Y85.396 E62.00869
G0 F2400 X201.982 Y85.463
G0 X201.882 Y85.18
G0 X204.416 Y79.428
G0 X205.189 Y74.518
G0 X205.358 Y74.273
G1 F1200 X205.698 Y74.506 E62.02678
G1 X206.081 Y74.652 E62.04478
G1 X206.488 Y74.701 E62.06278
G1 X206.895 Y74.652 E62.08077
G1 X207.278 Y74.506 E62.09877
G1 X207.617 Y74.274 E62.11681
G1 X207.888 Y73.966 E62.13482
G1 X208.078 Y73.604 E62.15277
G1 X208.177 Y73.205 E62.17081
G1 X208.177 Y72.795 E62.18881
G1 X208.078 Y72.396 E62.20686
G1 X207.888 Y72.034 E62.22481
G1 X207.617 Y71.726 E62.24282
G1 X207.278 Y71.494 E62.26086
G1 X206.895 Y71.348 E62.27885
G1 X206.488 Y71.299 E62.29685
G1 X206.081 Y71.348 E62.31485
G1 X205.698 Y71.494 E62.33284
G1 X205.359 Y71.726 E62.35088
G1 X205.087 Y72.034 E62.36892
G1 X204.897 Y72.397 E62.38691
G1 X204.799 Y72.795 E62.4049
G1 X204.799 Y73.205 E62.4229
G1 X204.897 Y73.603 E62.4409
G1 X205.072 Y73.94 E62.45757
G1 X205.358 Y74.273 E62.47684
G0 F2400 X205.523 Y74.386
G0 X204.978 Y74.97
;TYPE:SKIN
G1 F1200 X205.328 Y75.21 E62.49547
G1 X205.89 Y75.425 E62.52189
G1 X206.488 Y75.496 E62.54833
G1 X207.086 Y75.425 E62.57477
G1 X207.647 Y75.211 E62.60113
G1 X208.145 Y74.87 E62.62763
G1 X208.544 Y74.416 E62.65416
G1 X208.822 Y73.887 E62.6804
G1 X208.967 Y73.301 E62.7069
G1 X208.967 Y72.699 E62.73333
G1 X208.822 Y72.113 E62.75984
G1 X208.544 Y71.584 E62.78607
G1 X208.145 Y71.13 E62.81261
G1 X207.647 Y70.789 E62.83911
G1 X207.086 Y70.575 E62.86547
G1 X206.488 Y70.504 E62.89191
G1 X205.89 Y70.575 E62.91835
G1 X205.329 Y70.789 E62.94471
G1 X204.978 Y71.029 E62.96338
G1 X204.978 Y66.01 E63.18373
G1 X182.998 Y66.01 E64.14872
G1 X182.998 Y71.029 E64.36907
G1 X182.647 Y70.789 E64.38774
G1 X182.086 Y70.575 E64.4141
G1 X181.488 Y70.504 E64.44054
G1 X180.89 Y70.575 E64.46698
G1 X180.329 Y70.789 E64.49334
G1 X179.831 Y71.13 E64.51984
G1 X179.431 Y71.584 E64.5464
G1 X179.153 Y72.115 E64.57272
G1 X179.009 Y72.699 E64.59913
G1 X179.009 Y73.301 E64.62556
G1 X179.153 Y73.883 E64.65188
G1 X179.412 Y74.385 E64.67668
G1 X179.826 Y74.866 E64.70454
G1 X180.328 Y75.21 E64.73126
G1 X180.89 Y75.425 E64.75768
G1 X181.488 Y75.496 E64.78411
G1 X182.086 Y75.425 E64.81055
G1 X182.647 Y75.211 E64.83691
G1 X182.998 Y74.971 E64.85558
G1 X182.998 Y79.99 E65.07593
G1 X204.978 Y79.99 E66.04093
G1 X204.978 Y74.97 E66.26132
G0 F2400 X204.141 Y84.66
G1 F1200 X203.072 Y84.513 E66.3087
G1 X201.995 Y84.619 E66.35621
G1 X200.974 Y84.987 E66.40386
G1 X200.072 Y85.585 E66.45137
G1 X199.339 Y86.383 E66.49894
G1 X198.819 Y87.331 E66.54641
G1 X198.54 Y88.377 E66.59394
G1 X198.522 Y89.46 E66.6415
G1 X198.76 Y90.516 E66.68902
G1 X199.246 Y91.482 E66.7365
G1 X199.949 Y92.306 E66.78405
G1 X200.828 Y92.937 E66.83156
G1 X201.834 Y93.34 E66.87913
G1 X202.904 Y93.487 E66.92655
G1 X203.98 Y93.381 E66.97402
G1 X205.001 Y93.013 E67.02167
G1 X205.904 Y92.415 E67.06922
G1 X206.636 Y91.616 E67.11679
G1 X207.156 Y90.669 E67.16423
G1 X207.435 Y89.623 E67.21175
G1 X207.453 Y88.54 E67.25931
G1 X207.215 Y87.484 E67.30683
G1 X206.729 Y86.518 E67.35431
G1 X206.027 Y85.694 E67.40183
G1 X205.147 Y85.063 E67.44937
G1 X204.141 Y84.66 E67.49695
G0 F2400 X191.314 Y86.794
G1 F1200 X190.689 Y86.062 E67.53921
G1 X189.908 Y85.501 E67.58143
G1 X189.014 Y85.142 E67.62372
G1 X188.063 Y85.012 E67.66586
G1 X187.106 Y85.105 E67.70808
G1 X186.199 Y85.433 E67.75042
G1 X185.396 Y85.963 E67.79266
G1 X184.745 Y86.674 E67.83499
G1 X184.283 Y87.516 E67.87715
G1 X184.037 Y88.445 E67.91934
G1 X184.019 Y89.407 E67.96159
G1 X184.23 Y90.346 E68.00384
G1 X184.662 Y91.206 E68.04609
G1 X185.286 Y91.938 E68.08832
G1 X186.068 Y92.499 E68.13058
G1 X186.962 Y92.858 E68.17287
G1 X187.913 Y92.988 E68.21501
G1 X188.87 Y92.895 E68.25723
G1 X189.777 Y92.567 E68.29957
G1 X190.578 Y92.037 E68.34174
G1 X191.231 Y91.327 E68.38409
G1 X191.693 Y90.484 E68.42629
G1 X191.939 Y89.555 E68.46848
G1 X191.957 Y88.593 E68.51073
G1 X191.746 Y87.654 E68.55298
G1 X191.314 Y86.794 E68.59523
G0 F2400 X198.978 Y100.01
G1 F1200 X181.998 Y100.01 E69.34071
G1 X181.998 Y119.99 E70.2179
G1 X198.978 Y119.99 E70.96338
G1 X198.978 Y100.01 E71.84057
G0 F2400 X206.978 Y135.01
G1 F1200 X188.998 Y135.01 E72.62995
G1 X188.998 Y149.99 E73.28763
G1 X206.978 Y149.99 E74.07701
G1 X206.978 Y135.01 E74.73468
G0 F2400 X189.56 Y135.572
G0 X180.676 Y139.706
G1 F1200 X179.988 Y139.624 E74.7651
G1 X179.3 Y139.706 E74.79552
G1 X178.65 Y139.953 E74.82605
G1 X178.079 Y140.347 E74.85651
G1 X177.619 Y140.866 E74.88695
